P3
320 240
255
135 206 235  135 206 235  135 206 235  135 206 235  135 206 235  135 206 235  135 206 235  135 206 235  135 206 235  135 206 235  135 206 235  135 206 235  135 206 235  135 206 235  135 206 235  135 206 235  135 206 235  135 206 235  135 206 235  135 206 235  135 206 235  135 206 235  135 206 235  135 206 235  135 206 235  135 206 235  135 206 235  135 206 235  135 206 235  135 206 235  135 206 235  135 206 235  135 206 235  135 206 235  135 206 235  135 206 235  135 206 235  135 206 235  135 206 235  135 206 235  135 206 235  135 206 235  135 206 235  135 206 235  135 206 235  135 206 235  135 206 235  135 206 235  135 206 235  135 206 235  135 206 235  135 206 235  135 206 235  135 206 235  135 206 235  135 206 235  135 206 235  135 206 235  135 206 235  135 206 235  135 206 235  135 206 235  135 206 235  135 206 235  135 206 235  135 206 235  135 206 235  135 206 235  135 206 235  135 206 235  135 206 235  135 206 235  135 206 235  135 206 235  135 206 235  135 206 235  135 206 235  135 206 235  135 206 235  135 206 235  135 206 235  135 206 235  135 206 235  135 206 235  135 206 235  135 206 235  135 206 235  135 206 235  135 206 235  135 206 235  135 206 235  135 206 235  135 206 235  135 206 235  135 206 235  135 206 235  135 206 235  135 206 235  135 206 235  135 206 235  135 206 235  135 206 235  135 206 235  135 206 235  135 206 235  135 206 235  135 206 235  135 206 235  135 206 235  135 206 235  135 206 235  135 206 235  135 206 235  135 206 235  135 206 235  135 206 235  135 206 235  135 206 235  135 206 235  135 206 235  135 206 235  135 206 235  135 206 235  135 206 235  135 206 235  135 206 235  135 206 235  135 206 235  135 206 235  135 206 235  135 206 235  135 206 235  135 206 235  135 206 235  135 206 235  135 206 235  135 206 235  135 206 235  135 206 235  135 206 235  135 206 235  135 206 235  135 206 235  135 206 235  135 206 235  135 206 235  135 206 235  135 206 235  135 206 235  135 206 235  135 206 235  135 206 235  135 206 235  135 206 235  135 206 235  135 206 235  135 206 235  135 206 235  135 206 235  135 206 235  135 206 235  135 206 235  135 206 235  135 206 235  135 206 235  135 206 235  135 206 235  135 206 235  135 206 235  135 206 235  135 206 235  135 206 235  135 206 235  135 206 235  135 206 235  135 206 235  135 206 235  135 206 235  135 206 235  135 206 235  135 206 235  135 206 235  135 206 235  135 206 235  135 206 235  135 206 235  135 206 235  135 206 235  135 206 235  135 206 235  135 206 235  135 206 235  135 206 235  135 206 235  135 206 235  135 206 235  135 206 235  135 206 235  135 206 235  135 206 235  135 206 235  135 206 235  135 206 235  135 206 235  135 206 235  135 206 235  135 206 235  135 206 235  135 206 235  135 206 235  135 206 235  135 206 235  135 206 235  135 206 235  135 206 235  135 206 235  135 206 235  135 206 235  135 206 235  135 206 235  135 206 235  135 206 235  135 206 235  135 206 235  135 206 235  135 206 235  135 206 235  135 206 235  135 206 235  135 206 235  135 206 235  135 206 235  135 206 235  135 206 235  135 206 235  135 206 235  135 206 235  135 206 235  135 206 235  135 206 235  135 206 235  135 206 235  135 206 235  135 206 235  135 206 235  135 206 235  135 206 235  135 206 235  135 206 235  135 206 235  135 206 235  135 206 235  135 206 235  135 206 235  135 206 235  135 206 235  135 206 235  135 206 235  135 206 235  135 206 235  135 206 235  135 206 235  135 206 235  135 206 235  135 206 235  135 206 235  135 206 235  135 206 235  135 206 235  135 206 235  135 206 235  135 206 235  135 206 235  135 206 235  135 206 235  135 206 235  135 206 235  135 206 235  135 206 235  135 206 235  135 206 235  135 206 235  135 206 235  135 206 235  135 206 235  135 206 235  135 206 235  135 206 235  135 206 235  135 206 235  135 206 235  135 206 235  135 206 235  135 206 235  135 206 235  135 206 235  135 206 235  135 206 235  135 206 235  135 206 235  135 206 235  135 206 235  135 206 235  135 206 235  135 206 235  135 206 235  135 206 235  135 206 235  135 206 235  135 206 235  135 206 235  135 206 235  135 206 235  135 206 235  135 206 235  135 206 235  135 206 235  135 206 235  135 206 235  135 206 235
135 206 235  135 206 235  135 206 235  135 206 235  135 206 235  135 206 235  135 206 235  135 206 235  135 206 235  135 206 235  135 206 235  135 206 235  135 206 235  135 206 235  135 206 235  135 206 235  135 206 235  135 206 235  135 206 235  135 206 235  135 206 235  135 206 235  135 206 235  135 206 235  135 206 235  135 206 235  135 206 235  135 206 235  135 206 235  135 206 235  135 206 235  135 206 235  135 206 235  135 206 235  135 206 235  135 206 235  135 206 235  135 206 235  135 206 235  135 206 235  135 206 235  135 206 235  135 206 235  135 206 235  135 206 235  135 206 235  135 206 235  135 206 235  135 206 235  135 206 235  135 206 235  135 206 235  135 206 235  135 206 235  135 206 235  135 206 235  135 206 235  135 206 235  135 206 235  135 206 235  135 206 235  135 206 235  135 206 235  135 206 235  135 206 235  135 206 235  135 206 235  135 206 235  135 206 235  135 206 235  135 206 235  135 206 235  135 206 235  135 206 235  135 206 235  135 206 235  135 206 235  135 206 235  135 206 235  135 206 235  135 206 235  135 206 235  135 206 235  135 206 235  135 206 235  135 206 235  135 206 235  135 206 235  135 206 235  135 206 235  135 206 235  135 206 235  135 206 235  135 206 235  135 206 235  135 206 235  135 206 235  135 206 235  135 206 235  135 206 235  135 206 235  135 206 235  135 206 235  135 206 235  135 206 235  135 206 235  135 206 235  135 206 235  135 206 235  135 206 235  135 206 235  135 206 235  135 206 235  135 206 235  135 206 235  135 206 235  135 206 235  135 206 235  135 206 235  135 206 235  135 206 235  135 206 235  135 206 235  135 206 235  135 206 235  135 206 235  135 206 235  135 206 235  135 206 235  135 206 235  135 206 235  135 206 235  135 206 235  135 206 235  135 206 235  135 206 235  135 206 235  135 206 235  135 206 235  135 206 235  135 206 235  135 206 235  135 206 235  135 206 235  135 206 235  135 206 235  135 206 235  135 206 235  135 206 235  135 206 235  135 206 235  135 206 235  135 206 235  135 206 235  135 206 235  135 206 235  135 206 235  135 206 235  135 206 235  135 206 235  135 206 235  135 206 235  135 206 235  135 206 235  135 206 235  135 206 235  135 206 235  135 206 235  135 206 235  135 206 235  135 206 235  135 206 235  135 206 235  135 206 235  135 206 235  135 206 235  135 206 235  135 206 235  135 206 235  135 206 235  135 206 235  135 206 235  135 206 235  135 206 235  135 206 235  135 206 235  135 206 235  135 206 235  135 206 235  135 206 235  135 206 235  135 206 235  135 206 235  135 206 235  135 206 235  135 206 235  135 206 235  135 206 235  135 206 235  135 206 235  135 206 235  135 206 235  135 206 235  135 206 235  135 206 235  135 206 235  135 206 235  135 206 235  135 206 235  135 206 235  135 206 235  135 206 235  135 206 235  135 206 235  135 206 235  135 206 235  135 206 235  135 206 235  135 206 235  135 206 235  135 206 235  135 206 235  135 206 235  135 206 235  135 206 235  135 206 235  135 206 235  135 206 235  135 206 235  135 206 235  135 206 235  135 206 235  135 206 235  135 206 235  135 206 235  135 206 235  135 206 235  135 206 235  135 206 235  135 206 235  135 206 235  135 206 235  135 206 235  135 206 235  135 206 235  135 206 235  135 206 235  135 206 235  135 206 235  135 206 235  135 206 235  135 206 235  135 206 235  135 206 235  135 206 235  135 206 235  135 206 235  135 206 235  135 206 235  135 206 235  135 206 235  135 206 235  135 206 235  135 206 235  135 206 235  135 206 235  135 206 235  135 206 235  135 206 235  135 206 235  135 206 235  135 206 235  135 206 235  135 206 235  135 206 235  135 206 235  135 206 235  135 206 235  135 206 235  135 206 235  135 206 235  135 206 235  135 206 235  135 206 235  135 206 235  135 206 235  135 206 235  135 206 235  135 206 235  135 206 235  135 206 235  135 206 235  135 206 235  135 206 235  135 206 235  135 206 235  135 206 235  135 206 235  135 206 235  135 206 235  135 206 235  135 206 235  135 206 235  135 206 235  135 206 235  135 206 235  135 206 235  135 206 235  135 206 235  135 206 235  135 206 235  135 206 235  135 206 235  135 206 235  135 206 235  135 206 235  135 206 235  135 206 235  135 206 235  135 206 235
135 206 235  135 206 235  135 206 235  135 206 235  135 206 235  135 206 235  135 206 235  135 206 235  135 206 235  135 206 235  135 206 235  135 206 235  135 206 235  135 206 235  135 206 235  135 206 235  135 206 235  135 206 235  135 206 235  135 206 235  135 206 235  135 206 235  135 206 235  135 206 235  135 206 235  135 206 235  135 206 235  135 206 235  135 206 235  135 206 235  135 206 235  135 206 235  135 206 235  135 206 235  135 206 235  135 206 235  135 206 235  135 206 235  135 206 235  135 206 235  135 206 235  135 206 235  135 206 235  135 206 235  135 206 235  135 206 235  135 206 235  135 206 235  135 206 235  135 206 235  135 206 235  135 206 235  135 206 235  135 206 235  135 206 235  135 206 235  135 206 235  135 206 235  135 206 235  135 206 235  135 206 235  135 206 235  135 206 235  135 206 235  135 206 235  135 206 235  135 206 235  135 206 235  135 206 235  135 206 235  135 206 235  135 206 235  135 206 235  135 206 235  135 206 235  135 206 235  135 206 235  135 206 235  135 206 235  135 206 235  135 206 235  135 206 235  135 206 235  135 206 235  135 206 235  135 206 235  135 206 235  135 206 235  135 206 235  135 206 235  135 206 235  135 206 235  135 206 235  135 206 235  135 206 235  135 206 235  135 206 235  135 206 235  135 206 235  135 206 235  135 206 235  135 206 235  135 206 235  135 206 235  135 206 235  135 206 235  135 206 235  135 206 235  135 206 235  135 206 235  135 206 235  135 206 235  135 206 235  135 206 235  135 206 235  135 206 235  135 206 235  135 206 235  135 206 235  135 206 235  135 206 235  135 206 235  135 206 235  135 206 235  135 206 235  135 206 235  135 206 235  135 206 235  135 206 235  135 206 235  135 206 235  135 206 235  135 206 235  135 206 235  135 206 235  135 206 235  135 206 235  135 206 235  135 206 235  135 206 235  135 206 235  135 206 235  135 206 235  135 206 235  135 206 235  135 206 235  135 206 235  135 206 235  135 206 235  135 206 235  135 206 235  135 206 235  135 206 235  135 206 235  135 206 235  135 206 235  135 206 235  135 206 235  135 206 235  135 206 235  135 206 235  135 206 235  135 206 235  135 206 235  135 206 235  135 206 235  135 206 235  135 206 235  135 206 235  135 206 235  135 206 235  135 206 235  135 206 235  135 206 235  135 206 235  135 206 235  135 206 235  135 206 235  135 206 235  135 206 235  135 206 235  135 206 235  135 206 235  135 206 235  135 206 235  135 206 235  135 206 235  135 206 235  135 206 235  135 206 235  135 206 235  135 206 235  135 206 235  135 206 235  135 206 235  135 206 235  135 206 235  135 206 235  135 206 235  135 206 235  135 206 235  135 206 235  135 206 235  135 206 235  135 206 235  135 206 235  135 206 235  135 206 235  135 206 235  135 206 235  135 206 235  135 206 235  135 206 235  135 206 235  135 206 235  135 206 235  135 206 235  135 206 235  135 206 235  135 206 235  135 206 235  135 206 235  135 206 235  135 206 235  135 206 235  135 206 235  135 206 235  135 206 235  135 206 235  135 206 235  135 206 235  135 206 235  135 206 235  135 206 235  135 206 235  135 206 235  135 206 235  135 206 235  135 206 235  135 206 235  135 206 235  135 206 235  135 206 235  135 206 235  135 206 235  135 206 235  135 206 235  135 206 235  135 206 235  135 206 235  135 206 235  135 206 235  135 206 235  135 206 235  135 206 235  135 206 235  135 206 235  135 206 235  135 206 235  135 206 235  135 206 235  135 206 235  135 206 235  135 206 235  135 206 235  135 206 235  135 206 235  135 206 235  135 206 235  135 206 235  135 206 235  135 206 235  135 206 235  135 206 235  135 206 235  135 206 235  135 206 235  135 206 235  135 206 235  135 206 235  135 206 235  135 206 235  135 206 235  135 206 235  135 206 235  135 206 235  135 206 235  135 206 235  135 206 235  135 206 235  135 206 235  135 206 235  135 206 235  135 206 235  135 206 235  135 206 235  135 206 235  135 206 235  135 206 235  135 206 235  135 206 235  135 206 235  135 206 235  135 206 235  135 206 235  135 206 235  135 206 235  135 206 235  135 206 235  135 206 235  135 206 235  135 206 235  135 206 235  135 206 235  135 206 235  135 206 235  135 206 235  135 206 235  135 206 235  135 206 235
135 206 235  135 206 235  135 206 235  135 206 235  135 206 235  135 206 235  135 206 235  135 206 235  135 206 235  135 206 235  135 206 235  135 206 235  135 206 235  135 206 235  135 206 235  135 206 235  135 206 235  135 206 235  135 206 235  135 206 235  135 206 235  135 206 235  135 206 235  135 206 235  135 206 235  135 206 235  135 206 235  135 206 235  135 206 235  135 206 235  135 206 235  135 206 235  135 206 235  135 206 235  135 206 235  135 206 235  135 206 235  135 206 235  135 206 235  135 206 235  135 206 235  135 206 235  135 206 235  135 206 235  135 206 235  135 206 235  135 206 235  135 206 235  135 206 235  135 206 235  135 206 235  135 206 235  135 206 235  135 206 235  135 206 235  135 206 235  135 206 235  135 206 235  135 206 235  135 206 235  135 206 235  135 206 235  135 206 235  135 206 235  135 206 235  135 206 235  135 206 235  135 206 235  135 206 235  135 206 235  135 206 235  135 206 235  135 206 235  135 206 235  135 206 235  135 206 235  135 206 235  135 206 235  135 206 235  135 206 235  135 206 235  135 206 235  135 206 235  135 206 235  135 206 235  135 206 235  135 206 235  135 206 235  135 206 235  135 206 235  135 206 235  135 206 235  135 206 235  135 206 235  135 206 235  135 206 235  135 206 235  135 206 235  135 206 235  135 206 235  135 206 235  135 206 235  135 206 235  135 206 235  135 206 235  135 206 235  135 206 235  135 206 235  135 206 235  135 206 235  135 206 235  135 206 235  135 206 235  135 206 235  135 206 235  135 206 235  135 206 235  135 206 235  135 206 235  135 206 235  135 206 235  135 206 235  135 206 235  135 206 235  135 206 235  135 206 235  135 206 235  135 206 235  135 206 235  135 206 235  135 206 235  135 206 235  135 206 235  135 206 235  135 206 235  135 206 235  135 206 235  135 206 235  135 206 235  135 206 235  135 206 235  135 206 235  135 206 235  135 206 235  135 206 235  135 206 235  135 206 235  135 206 235  135 206 235  135 206 235  135 206 235  135 206 235  135 206 235  135 206 235  135 206 235  135 206 235  135 206 235  135 206 235  135 206 235  135 206 235  135 206 235  135 206 235  135 206 235  135 206 235  135 206 235  135 206 235  135 206 235  135 206 235  135 206 235  135 206 235  135 206 235  135 206 235  135 206 235  135 206 235  135 206 235  135 206 235  135 206 235  135 206 235  135 206 235  135 206 235  135 206 235  135 206 235  135 206 235  135 206 235  135 206 235  135 206 235  135 206 235  135 206 235  135 206 235  135 206 235  135 206 235  135 206 235  135 206 235  135 206 235  135 206 235  135 206 235  135 206 235  135 206 235  135 206 235  135 206 235  135 206 235  135 206 235  135 206 235  135 206 235  135 206 235  135 206 235  135 206 235  135 206 235  135 206 235  135 206 235  135 206 235  135 206 235  135 206 235  135 206 235  135 206 235  135 206 235  135 206 235  135 206 235  135 206 235  135 206 235  135 206 235  135 206 235  135 206 235  135 206 235  135 206 235  135 206 235  135 206 235  135 206 235  135 206 235  135 206 235  135 206 235  135 206 235  135 206 235  135 206 235  135 206 235  135 206 235  135 206 235  135 206 235  135 206 235  135 206 235  135 206 235  135 206 235  135 206 235  135 206 235  135 206 235  135 206 235  135 206 235  135 206 235  135 206 235  135 206 235  135 206 235  135 206 235  135 206 235  135 206 235  135 206 235  135 206 235  135 206 235  135 206 235  135 206 235  135 206 235  135 206 235  135 206 235  135 206 235  135 206 235  135 206 235  135 206 235  135 206 235  135 206 235  135 206 235  135 206 235  135 206 235  135 206 235  135 206 235  135 206 235  135 206 235  135 206 235  135 206 235  135 206 235  135 206 235  135 206 235  135 206 235  135 206 235  135 206 235  135 206 235  135 206 235  135 206 235  135 206 235  135 206 235  135 206 235  135 206 235  135 206 235  135 206 235  135 206 235  135 206 235  135 206 235  135 206 235  135 206 235  135 206 235  135 206 235  135 206 235  135 206 235  135 206 235  135 206 235  135 206 235  135 206 235  135 206 235  135 206 235  135 206 235  135 206 235  135 206 235  135 206 235  135 206 235  135 206 235  135 206 235  135 206 235  135 206 235  135 206 235  135 206 235  135 206 235  135 206 235
135 206 235  135 206 235  135 206 235  135 206 235  135 206 235  135 206 235  135 206 235  135 206 235  135 206 235  135 206 235  135 206 235  135 206 235  135 206 235  135 206 235  135 206 235  135 206 235  135 206 235  135 206 235  135 206 235  135 206 235  135 206 235  135 206 235  135 206 235  135 206 235  135 206 235  135 206 235  135 206 235  135 206 235  135 206 235  135 206 235  135 206 235  135 206 235  135 206 235  135 206 235  135 206 235  135 206 235  135 206 235  135 206 235  135 206 235  135 206 235  135 206 235  135 206 235  135 206 235  135 206 235  135 206 235  135 206 235  135 206 235  135 206 235  135 206 235  135 206 235  135 206 235  135 206 235  135 206 235  135 206 235  135 206 235  135 206 235  135 206 235  135 206 235  135 206 235  135 206 235  135 206 235  135 206 235  135 206 235  135 206 235  135 206 235  135 206 235  135 206 235  135 206 235  135 206 235  135 206 235  135 206 235  135 206 235  135 206 235  135 206 235  135 206 235  135 206 235  135 206 235  135 206 235  135 206 235  135 206 235  135 206 235  135 206 235  135 206 235  135 206 235  135 206 235  135 206 235  135 206 235  135 206 235  135 206 235  135 206 235  135 206 235  135 206 235  135 206 235  135 206 235  135 206 235  135 206 235  135 206 235  135 206 235  135 206 235  135 206 235  135 206 235  135 206 235  135 206 235  135 206 235  135 206 235  135 206 235  135 206 235  135 206 235  135 206 235  135 206 235  135 206 235  135 206 235  135 206 235  135 206 235  135 206 235  135 206 235  135 206 235  135 206 235  135 206 235  135 206 235  135 206 235  135 206 235  135 206 235  135 206 235  135 206 235  135 206 235  135 206 235  135 206 235  135 206 235  135 206 235  135 206 235  135 206 235  135 206 235  135 206 235  135 206 235  135 206 235  135 206 235  135 206 235  135 206 235  135 206 235  135 206 235  135 206 235  135 206 235  135 206 235  135 206 235  135 206 235  135 206 235  135 206 235  135 206 235  135 206 235  135 206 235  135 206 235  135 206 235  135 206 235  135 206 235  135 206 235  135 206 235  135 206 235  135 206 235  135 206 235  135 206 235  135 206 235  135 206 235  135 206 235  135 206 235  135 206 235  135 206 235  135 206 235  135 206 235  135 206 235  135 206 235  135 206 235  135 206 235  135 206 235  135 206 235  135 206 235  135 206 235  135 206 235  135 206 235  135 206 235  135 206 235  135 206 235  135 206 235  135 206 235  135 206 235  135 206 235  135 206 235  135 206 235  135 206 235  135 206 235  135 206 235  135 206 235  135 206 235  135 206 235  135 206 235  135 206 235  135 206 235  135 206 235  135 206 235  135 206 235  135 206 235  135 206 235  135 206 235  135 206 235  135 206 235  135 206 235  135 206 235  135 206 235  135 206 235  135 206 235  135 206 235  135 206 235  135 206 235  135 206 235  135 206 235  135 206 235  135 206 235  135 206 235  135 206 235  135 206 235  135 206 235  135 206 235  135 206 235  135 206 235  135 206 235  135 206 235  135 206 235  135 206 235  135 206 235  135 206 235  135 206 235  135 206 235  135 206 235  135 206 235  135 206 235  135 206 235  135 206 235  135 206 235  135 206 235  135 206 235  135 206 235  135 206 235  135 206 235  135 206 235  135 206 235  135 206 235  135 206 235  135 206 235  135 206 235  135 206 235  135 206 235  135 206 235  135 206 235  135 206 235  135 206 235  135 206 235  135 206 235  135 206 235  135 206 235  135 206 235  135 206 235  135 206 235  135 206 235  135 206 235  135 206 235  135 206 235  135 206 235  135 206 235  135 206 235  135 206 235  135 206 235  135 206 235  135 206 235  135 206 235  135 206 235  135 206 235  135 206 235  135 206 235  135 206 235  135 206 235  135 206 235  135 206 235  135 206 235  135 206 235  135 206 235  135 206 235  135 206 235  135 206 235  135 206 235  135 206 235  135 206 235  135 206 235  135 206 235  135 206 235  135 206 235  135 206 235  135 206 235  135 206 235  135 206 235  135 206 235  135 206 235  135 206 235  135 206 235  135 206 235  135 206 235  135 206 235  135 206 235  135 206 235  135 206 235  135 206 235  135 206 235  135 206 235  135 206 235  135 206 235  135 206 235  135 206 235  135 206 235  135 206 235  135 206 235  135 206 235
135 206 235  135 206 235  135 206 235  135 206 235  135 206 235  135 206 235  135 206 235  135 206 235  135 206 235  135 206 235  135 206 235  135 206 235  135 206 235  135 206 235  135 206 235  135 206 235  135 206 235  135 206 235  135 206 235  135 206 235  135 206 235  135 206 235  135 206 235  135 206 235  135 206 235  135 206 235  135 206 235  135 206 235  135 206 235  135 206 235  135 206 235  135 206 235  135 206 235  135 206 235  135 206 235  135 206 235  135 206 235  135 206 235  135 206 235  135 206 235  135 206 235  135 206 235  135 206 235  135 206 235  135 206 235  135 206 235  135 206 235  135 206 235  135 206 235  135 206 235  135 206 235  135 206 235  135 206 235  135 206 235  135 206 235  135 206 235  135 206 235  135 206 235  135 206 235  135 206 235  135 206 235  135 206 235  135 206 235  135 206 235  135 206 235  135 206 235  135 206 235  135 206 235  135 206 235  135 206 235  135 206 235  135 206 235  135 206 235  135 206 235  135 206 235  135 206 235  135 206 235  135 206 235  135 206 235  135 206 235  135 206 235  135 206 235  135 206 235  135 206 235  135 206 235  135 206 235  135 206 235  135 206 235  135 206 235  135 206 235  135 206 235  135 206 235  135 206 235  135 206 235  135 206 235  135 206 235  135 206 235  135 206 235  135 206 235  135 206 235  135 206 235  135 206 235  135 206 235  135 206 235  135 206 235  135 206 235  135 206 235  135 206 235  135 206 235  135 206 235  135 206 235  135 206 235  135 206 235  135 206 235  135 206 235  135 206 235  135 206 235  135 206 235  135 206 235  135 206 235  135 206 235  135 206 235  135 206 235  135 206 235  135 206 235  135 206 235  135 206 235  135 206 235  135 206 235  135 206 235  135 206 235  135 206 235  135 206 235  135 206 235  135 206 235  135 206 235  135 206 235  135 206 235  135 206 235  135 206 235  135 206 235  135 206 235  135 206 235  135 206 235  135 206 235  135 206 235  135 206 235  135 206 235  135 206 235  135 206 235  135 206 235  135 206 235  135 206 235  135 206 235  135 206 235  135 206 235  135 206 235  135 206 235  135 206 235  135 206 235  135 206 235  135 206 235  135 206 235  135 206 235  135 206 235  135 206 235  135 206 235  135 206 235  135 206 235  135 206 235  135 206 235  135 206 235  135 206 235  135 206 235  135 206 235  135 206 235  135 206 235  135 206 235  135 206 235  135 206 235  135 206 235  135 206 235  135 206 235  135 206 235  135 206 235  135 206 235  135 206 235  135 206 235  135 206 235  135 206 235  135 206 235  135 206 235  135 206 235  135 206 235  135 206 235  135 206 235  135 206 235  135 206 235  135 206 235  135 206 235  135 206 235  135 206 235  135 206 235  135 206 235  135 206 235  135 206 235  135 206 235  135 206 235  135 206 235  135 206 235  135 206 235  135 206 235  135 206 235  135 206 235  135 206 235  135 206 235  135 206 235  135 206 235  135 206 235  135 206 235  135 206 235  135 206 235  135 206 235  135 206 235  135 206 235  135 206 235  135 206 235  135 206 235  135 206 235  135 206 235  135 206 235  135 206 235  135 206 235  135 206 235  135 206 235  135 206 235  135 206 235  135 206 235  135 206 235  135 206 235  135 206 235  135 206 235  135 206 235  135 206 235  135 206 235  135 206 235  135 206 235  135 206 235  135 206 235  135 206 235  135 206 235  135 206 235  135 206 235  135 206 235  135 206 235  135 206 235  135 206 235  135 206 235  135 206 235  135 206 235  135 206 235  135 206 235  135 206 235  135 206 235  135 206 235  135 206 235  135 206 235  135 206 235  135 206 235  135 206 235  135 206 235  135 206 235  135 206 235  135 206 235  135 206 235  135 206 235  135 206 235  135 206 235  135 206 235  135 206 235  135 206 235  135 206 235  135 206 235  135 206 235  135 206 235  135 206 235  135 206 235  135 206 235  135 206 235  135 206 235  135 206 235  135 206 235  135 206 235  135 206 235  135 206 235  135 206 235  135 206 235  135 206 235  135 206 235  135 206 235  135 206 235  135 206 235  135 206 235  135 206 235  135 206 235  135 206 235  135 206 235  135 206 235  135 206 235  135 206 235  135 206 235  135 206 235  135 206 235  135 206 235  135 206 235  135 206 235  135 206 235  135 206 235  135 206 235  135 206 235
135 206 235  135 206 235  135 206 235  135 206 235  135 206 235  135 206 235  135 206 235  135 206 235  135 206 235  135 206 235  135 206 235  135 206 235  135 206 235  135 206 235  135 206 235  135 206 235  135 206 235  135 206 235  135 206 235  135 206 235  135 206 235  135 206 235  135 206 235  135 206 235  135 206 235  135 206 235  135 206 235  135 206 235  135 206 235  135 206 235  135 206 235  135 206 235  135 206 235  135 206 235  135 206 235  135 206 235  135 206 235  135 206 235  135 206 235  135 206 235  135 206 235  135 206 235  135 206 235  135 206 235  135 206 235  135 206 235  135 206 235  135 206 235  135 206 235  135 206 235  135 206 235  135 206 235  135 206 235  135 206 235  135 206 235  135 206 235  135 206 235  135 206 235  135 206 235  135 206 235  135 206 235  135 206 235  135 206 235  135 206 235  135 206 235  135 206 235  135 206 235  135 206 235  135 206 235  135 206 235  135 206 235  135 206 235  135 206 235  135 206 235  135 206 235  135 206 235  135 206 235  135 206 235  135 206 235  135 206 235  135 206 235  135 206 235  135 206 235  135 206 235  135 206 235  135 206 235  135 206 235  135 206 235  135 206 235  135 206 235  135 206 235  135 206 235  135 206 235  135 206 235  135 206 235  135 206 235  135 206 235  135 206 235  135 206 235  135 206 235  135 206 235  135 206 235  135 206 235  135 206 235  135 206 235  135 206 235  135 206 235  135 206 235  135 206 235  135 206 235  135 206 235  135 206 235  135 206 235  135 206 235  135 206 235  135 206 235  135 206 235  135 206 235  135 206 235  135 206 235  135 206 235  135 206 235  135 206 235  135 206 235  135 206 235  135 206 235  135 206 235  135 206 235  135 206 235  135 206 235  135 206 235  135 206 235  135 206 235  135 206 235  135 206 235  135 206 235  135 206 235  135 206 235  135 206 235  135 206 235  135 206 235  135 206 235  135 206 235  135 206 235  135 206 235  135 206 235  135 206 235  135 206 235  135 206 235  135 206 235  135 206 235  135 206 235  135 206 235  135 206 235  135 206 235  135 206 235  135 206 235  135 206 235  135 206 235  135 206 235  135 206 235  135 206 235  135 206 235  135 206 235  135 206 235  135 206 235  135 206 235  135 206 235  135 206 235  135 206 235  135 206 235  135 206 235  135 206 235  135 206 235  135 206 235  135 206 235  135 206 235  135 206 235  135 206 235  135 206 235  135 206 235  135 206 235  135 206 235  135 206 235  135 206 235  135 206 235  135 206 235  135 206 235  135 206 235  135 206 235  135 206 235  135 206 235  135 206 235  135 206 235  135 206 235  135 206 235  135 206 235  135 206 235  135 206 235  135 206 235  135 206 235  135 206 235  135 206 235  135 206 235  135 206 235  135 206 235  135 206 235  135 206 235  135 206 235  135 206 235  135 206 235  135 206 235  135 206 235  135 206 235  135 206 235  135 206 235  135 206 235  135 206 235  135 206 235  135 206 235  135 206 235  135 206 235  135 206 235  135 206 235  135 206 235  135 206 235  135 206 235  135 206 235  135 206 235  135 206 235  135 206 235  135 206 235  135 206 235  135 206 235  135 206 235  135 206 235  135 206 235  135 206 235  135 206 235  135 206 235  135 206 235  135 206 235  135 206 235  135 206 235  135 206 235  135 206 235  135 206 235  135 206 235  135 206 235  135 206 235  135 206 235  135 206 235  135 206 235  135 206 235  135 206 235  135 206 235  135 206 235  135 206 235  135 206 235  135 206 235  135 206 235  135 206 235  135 206 235  135 206 235  135 206 235  135 206 235  135 206 235  135 206 235  135 206 235  135 206 235  135 206 235  135 206 235  135 206 235  135 206 235  135 206 235  135 206 235  135 206 235  135 206 235  135 206 235  135 206 235  135 206 235  135 206 235  135 206 235  135 206 235  135 206 235  135 206 235  135 206 235  135 206 235  135 206 235  135 206 235  135 206 235  135 206 235  135 206 235  135 206 235  135 206 235  135 206 235  135 206 235  135 206 235  135 206 235  135 206 235  135 206 235  135 206 235  135 206 235  135 206 235  135 206 235  135 206 235  135 206 235  135 206 235  135 206 235  135 206 235  135 206 235  135 206 235  135 206 235  135 206 235  135 206 235  135 206 235  135 206 235  135 206 235  135 206 235  135 206 235
135 206 235  135 206 235  135 206 235  135 206 235  135 206 235  135 206 235  135 206 235  135 206 235  135 206 235  135 206 235  135 206 235  135 206 235  135 206 235  135 206 235  135 206 235  135 206 235  135 206 235  135 206 235  135 206 235  135 206 235  135 206 235  135 206 235  135 206 235  135 206 235  135 206 235  135 206 235  135 206 235  135 206 235  135 206 235  135 206 235  135 206 235  135 206 235  135 206 235  135 206 235  135 206 235  135 206 235  135 206 235  135 206 235  135 206 235  135 206 235  135 206 235  135 206 235  135 206 235  135 206 235  135 206 235  135 206 235  135 206 235  135 206 235  135 206 235  135 206 235  135 206 235  135 206 235  135 206 235  135 206 235  135 206 235  135 206 235  135 206 235  135 206 235  135 206 235  135 206 235  135 206 235  135 206 235  135 206 235  135 206 235  135 206 235  135 206 235  135 206 235  135 206 235  135 206 235  135 206 235  135 206 235  135 206 235  135 206 235  135 206 235  135 206 235  135 206 235  135 206 235  135 206 235  135 206 235  135 206 235  135 206 235  135 206 235  135 206 235  135 206 235  135 206 235  135 206 235  135 206 235  135 206 235  135 206 235  135 206 235  135 206 235  135 206 235  135 206 235  135 206 235  135 206 235  135 206 235  135 206 235  135 206 235  135 206 235  135 206 235  135 206 235  135 206 235  135 206 235  135 206 235  135 206 235  135 206 235  135 206 235  135 206 235  135 206 235  135 206 235  135 206 235  135 206 235  135 206 235  135 206 235  135 206 235  135 206 235  135 206 235  135 206 235  135 206 235  135 206 235  135 206 235  135 206 235  135 206 235  135 206 235  135 206 235  135 206 235  135 206 235  135 206 235  135 206 235  135 206 235  135 206 235  135 206 235  135 206 235  135 206 235  135 206 235  135 206 235  135 206 235  135 206 235  135 206 235  135 206 235  135 206 235  135 206 235  135 206 235  135 206 235  135 206 235  135 206 235  135 206 235  135 206 235  135 206 235  135 206 235  135 206 235  135 206 235  135 206 235  135 206 235  135 206 235  135 206 235  135 206 235  135 206 235  135 206 235  135 206 235  135 206 235  135 206 235  135 206 235  135 206 235  135 206 235  135 206 235  135 206 235  135 206 235  135 206 235  135 206 235  135 206 235  135 206 235  135 206 235  135 206 235  135 206 235  135 206 235  135 206 235  135 206 235  135 206 235  135 206 235  135 206 235  135 206 235  135 206 235  135 206 235  135 206 235  135 206 235  135 206 235  135 206 235  135 206 235  135 206 235  135 206 235  135 206 235  135 206 235  135 206 235  135 206 235  135 206 235  135 206 235  135 206 235  135 206 235  135 206 235  135 206 235  135 206 235  135 206 235  135 206 235  135 206 235  135 206 235  135 206 235  135 206 235  135 206 235  135 206 235  135 206 235  135 206 235  135 206 235  135 206 235  135 206 235  135 206 235  135 206 235  135 206 235  135 206 235  135 206 235  135 206 235  135 206 235  135 206 235  135 206 235  135 206 235  135 206 235  135 206 235  135 206 235  135 206 235  135 206 235  135 206 235  135 206 235  135 206 235  135 206 235  135 206 235  135 206 235  135 206 235  135 206 235  135 206 235  135 206 235  135 206 235  135 206 235  135 206 235  135 206 235  135 206 235  135 206 235  135 206 235  135 206 235  135 206 235  135 206 235  135 206 235  135 206 235  135 206 235  135 206 235  135 206 235  135 206 235  135 206 235  135 206 235  135 206 235  135 206 235  135 206 235  135 206 235  135 206 235  135 206 235  135 206 235  135 206 235  135 206 235  135 206 235  135 206 235  135 206 235  135 206 235  135 206 235  135 206 235  135 206 235  135 206 235  135 206 235  135 206 235  135 206 235  135 206 235  135 206 235  135 206 235  135 206 235  135 206 235  135 206 235  135 206 235  135 206 235  135 206 235  135 206 235  135 206 235  135 206 235  135 206 235  135 206 235  135 206 235  135 206 235  135 206 235  135 206 235  135 206 235  135 206 235  135 206 235  135 206 235  135 206 235  135 206 235  135 206 235  135 206 235  135 206 235  135 206 235  135 206 235  135 206 235  135 206 235  135 206 235  135 206 235  135 206 235  135 206 235  135 206 235  135 206 235  135 206 235  135 206 235  135 206 235  135 206 235  135 206 235
135 206 235  135 206 235  135 206 235  135 206 235  135 206 235  135 206 235  135 206 235  135 206 235  135 206 235  135 206 235  135 206 235  135 206 235  135 206 235  135 206 235  135 206 235  135 206 235  135 206 235  135 206 235  135 206 235  135 206 235  135 206 235  135 206 235  135 206 235  135 206 235  135 206 235  135 206 235  135 206 235  135 206 235  135 206 235  135 206 235  135 206 235  135 206 235  135 206 235  135 206 235  135 206 235  135 206 235  135 206 235  135 206 235  135 206 235  135 206 235  135 206 235  135 206 235  135 206 235  135 206 235  135 206 235  135 206 235  135 206 235  135 206 235  135 206 235  135 206 235  135 206 235  135 206 235  135 206 235  135 206 235  135 206 235  135 206 235  135 206 235  135 206 235  135 206 235  135 206 235  135 206 235  135 206 235  135 206 235  135 206 235  135 206 235  135 206 235  135 206 235  135 206 235  135 206 235  135 206 235  135 206 235  135 206 235  135 206 235  135 206 235  135 206 235  135 206 235  135 206 235  135 206 235  135 206 235  135 206 235  135 206 235  135 206 235  135 206 235  135 206 235  135 206 235  135 206 235  135 206 235  135 206 235  135 206 235  135 206 235  135 206 235  135 206 235  135 206 235  135 206 235  135 206 235  135 206 235  135 206 235  135 206 235  135 206 235  135 206 235  135 206 235  135 206 235  135 206 235  135 206 235  135 206 235  135 206 235  135 206 235  135 206 235  135 206 235  135 206 235  135 206 235  135 206 235  135 206 235  135 206 235  135 206 235  135 206 235  135 206 235  135 206 235  135 206 235  135 206 235  135 206 235  135 206 235  135 206 235  135 206 235  135 206 235  135 206 235  135 206 235  135 206 235  135 206 235  135 206 235  135 206 235  135 206 235  135 206 235  135 206 235  135 206 235  135 206 235  135 206 235  135 206 235  135 206 235  135 206 235  135 206 235  135 206 235  135 206 235  135 206 235  135 206 235  135 206 235  135 206 235  135 206 235  135 206 235  135 206 235  135 206 235  135 206 235  135 206 235  135 206 235  135 206 235  135 206 235  135 206 235  135 206 235  135 206 235  135 206 235  135 206 235  135 206 235  135 206 235  135 206 235  135 206 235  135 206 235  135 206 235  135 206 235  135 206 235  135 206 235  135 206 235  135 206 235  135 206 235  135 206 235  135 206 235  135 206 235  135 206 235  135 206 235  135 206 235  135 206 235  135 206 235  135 206 235  135 206 235  135 206 235  135 206 235  135 206 235  135 206 235  135 206 235  135 206 235  135 206 235  135 206 235  135 206 235  135 206 235  135 206 235  135 206 235  135 206 235  135 206 235  135 206 235  135 206 235  135 206 235  135 206 235  135 206 235  135 206 235  135 206 235  135 206 235  135 206 235  135 206 235  135 206 235  135 206 235  135 206 235  135 206 235  135 206 235  135 206 235  135 206 235  135 206 235  135 206 235  135 206 235  135 206 235  135 206 235  135 206 235  135 206 235  135 206 235  135 206 235  135 206 235  135 206 235  135 206 235  135 206 235  135 206 235  135 206 235  135 206 235  135 206 235  135 206 235  135 206 235  135 206 235  135 206 235  135 206 235  135 206 235  135 206 235  135 206 235  135 206 235  135 206 235  135 206 235  135 206 235  135 206 235  135 206 235  135 206 235  135 206 235  135 206 235  135 206 235  135 206 235  135 206 235  135 206 235  135 206 235  135 206 235  135 206 235  135 206 235  135 206 235  135 206 235  135 206 235  135 206 235  135 206 235  135 206 235  135 206 235  135 206 235  135 206 235  135 206 235  135 206 235  135 206 235  135 206 235  135 206 235  135 206 235  135 206 235  135 206 235  135 206 235  135 206 235  135 206 235  135 206 235  135 206 235  135 206 235  135 206 235  135 206 235  135 206 235  135 206 235  135 206 235  135 206 235  135 206 235  135 206 235  135 206 235  135 206 235  135 206 235  135 206 235  135 206 235  135 206 235  135 206 235  135 206 235  135 206 235  135 206 235  135 206 235  135 206 235  135 206 235  135 206 235  135 206 235  135 206 235  135 206 235  135 206 235  135 206 235  135 206 235  135 206 235  135 206 235  135 206 235  135 206 235  135 206 235  135 206 235  135 206 235  135 206 235  135 206 235  135 206 235  135 206 235  135 206 235  135 206 235
135 206 235  135 206 235  135 206 235  135 206 235  135 206 235  135 206 235  135 206 235  135 206 235  135 206 235  135 206 235  135 206 235  135 206 235  135 206 235  135 206 235  135 206 235  135 206 235  135 206 235  135 206 235  135 206 235  135 206 235  135 206 235  135 206 235  135 206 235  135 206 235  135 206 235  135 206 235  135 206 235  135 206 235  135 206 235  135 206 235  135 206 235  135 206 235  135 206 235  135 206 235  135 206 235  135 206 235  135 206 235  135 206 235  135 206 235  135 206 235  135 206 235  135 206 235  135 206 235  135 206 235  135 206 235  135 206 235  135 206 235  135 206 235  135 206 235  135 206 235  135 206 235  135 206 235  135 206 235  135 206 235  135 206 235  135 206 235  135 206 235  135 206 235  135 206 235  135 206 235  135 206 235  135 206 235  135 206 235  135 206 235  135 206 235  135 206 235  135 206 235  135 206 235  135 206 235  135 206 235  135 206 235  135 206 235  135 206 235  135 206 235  135 206 235  135 206 235  135 206 235  135 206 235  135 206 235  135 206 235  135 206 235  135 206 235  135 206 235  135 206 235  135 206 235  135 206 235  135 206 235  135 206 235  135 206 235  135 206 235  135 206 235  135 206 235  135 206 235  135 206 235  135 206 235  135 206 235  135 206 235  135 206 235  135 206 235  135 206 235  135 206 235  135 206 235  135 206 235  135 206 235  135 206 235  135 206 235  135 206 235  135 206 235  135 206 235  135 206 235  135 206 235  135 206 235  135 206 235  135 206 235  135 206 235  135 206 235  135 206 235  135 206 235  135 206 235  135 206 235  135 206 235  135 206 235  135 206 235  135 206 235  135 206 235  135 206 235  135 206 235  135 206 235  135 206 235  135 206 235  135 206 235  135 206 235  135 206 235  135 206 235  135 206 235  135 206 235  135 206 235  135 206 235  135 206 235  135 206 235  135 206 235  135 206 235  135 206 235  135 206 235  135 206 235  135 206 235  135 206 235  135 206 235  135 206 235  135 206 235  135 206 235  135 206 235  135 206 235  135 206 235  135 206 235  135 206 235  135 206 235  135 206 235  135 206 235  135 206 235  135 206 235  135 206 235  135 206 235  135 206 235  135 206 235  135 206 235  135 206 235  135 206 235  135 206 235  135 206 235  135 206 235  135 206 235  135 206 235  135 206 235  135 206 235  135 206 235  135 206 235  135 206 235  135 206 235  135 206 235  135 206 235  135 206 235  135 206 235  135 206 235  135 206 235  135 206 235  135 206 235  135 206 235  135 206 235  135 206 235  135 206 235  135 206 235  135 206 235  135 206 235  135 206 235  135 206 235  135 206 235  135 206 235  135 206 235  135 206 235  135 206 235  135 206 235  135 206 235  135 206 235  135 206 235  135 206 235  135 206 235  135 206 235  135 206 235  135 206 235  135 206 235  135 206 235  135 206 235  135 206 235  135 206 235  135 206 235  135 206 235  135 206 235  135 206 235  135 206 235  135 206 235  135 206 235  135 206 235  135 206 235  135 206 235  135 206 235  135 206 235  135 206 235  135 206 235  135 206 235  135 206 235  135 206 235  135 206 235  135 206 235  135 206 235  135 206 235  135 206 235  135 206 235  135 206 235  135 206 235  135 206 235  135 206 235  135 206 235  135 206 235  135 206 235  135 206 235  135 206 235  135 206 235  135 206 235  135 206 235  135 206 235  135 206 235  135 206 235  135 206 235  135 206 235  135 206 235  135 206 235  135 206 235  135 206 235  135 206 235  135 206 235  135 206 235  135 206 235  135 206 235  135 206 235  135 206 235  135 206 235  135 206 235  135 206 235  135 206 235  135 206 235  135 206 235  135 206 235  135 206 235  135 206 235  135 206 235  135 206 235  135 206 235  135 206 235  135 206 235  135 206 235  135 206 235  135 206 235  135 206 235  135 206 235  135 206 235  135 206 235  135 206 235  135 206 235  135 206 235  135 206 235  135 206 235  135 206 235  135 206 235  135 206 235  135 206 235  135 206 235  135 206 235  135 206 235  135 206 235  135 206 235  135 206 235  135 206 235  135 206 235  135 206 235  135 206 235  135 206 235  135 206 235  135 206 235  135 206 235  135 206 235  135 206 235  135 206 235  135 206 235  135 206 235  135 206 235  135 206 235  135 206 235  135 206 235  135 206 235
135 206 235  135 206 235  135 206 235  135 206 235  135 206 235  135 206 235  135 206 235  135 206 235  135 206 235  135 206 235  135 206 235  135 206 235  135 206 235  135 206 235  135 206 235  135 206 235  135 206 235  135 206 235  135 206 235  135 206 235  135 206 235  135 206 235  135 206 235  135 206 235  135 206 235  135 206 235  135 206 235  135 206 235  135 206 235  135 206 235  135 206 235  135 206 235  135 206 235  135 206 235  135 206 235  135 206 235  135 206 235  135 206 235  135 206 235  135 206 235  135 206 235  135 206 235  135 206 235  135 206 235  135 206 235  135 206 235  135 206 235  135 206 235  135 206 235  135 206 235  135 206 235  135 206 235  135 206 235  135 206 235  135 206 235  135 206 235  135 206 235  135 206 235  135 206 235  135 206 235  135 206 235  135 206 235  135 206 235  135 206 235  135 206 235  135 206 235  135 206 235  135 206 235  135 206 235  135 206 235  135 206 235  135 206 235  135 206 235  135 206 235  135 206 235  135 206 235  135 206 235  135 206 235  135 206 235  135 206 235  135 206 235  135 206 235  135 206 235  135 206 235  135 206 235  135 206 235  135 206 235  135 206 235  135 206 235  135 206 235  135 206 235  135 206 235  135 206 235  135 206 235  135 206 235  135 206 235  135 206 235  135 206 235  135 206 235  135 206 235  135 206 235  135 206 235  135 206 235  135 206 235  135 206 235  135 206 235  135 206 235  135 206 235  135 206 235  135 206 235  135 206 235  135 206 235  135 206 235  135 206 235  135 206 235  135 206 235  135 206 235  135 206 235  135 206 235  135 206 235  135 206 235  135 206 235  135 206 235  135 206 235  135 206 235  135 206 235  135 206 235  135 206 235  135 206 235  135 206 235  135 206 235  135 206 235  135 206 235  135 206 235  135 206 235  135 206 235  135 206 235  135 206 235  135 206 235  135 206 235  135 206 235  135 206 235  135 206 235  135 206 235  135 206 235  135 206 235  135 206 235  135 206 235  135 206 235  135 206 235  135 206 235  135 206 235  135 206 235  135 206 235  135 206 235  135 206 235  135 206 235  135 206 235  135 206 235  135 206 235  135 206 235  135 206 235  135 206 235  135 206 235  135 206 235  135 206 235  135 206 235  135 206 235  135 206 235  135 206 235  135 206 235  135 206 235  135 206 235  135 206 235  135 206 235  135 206 235  135 206 235  135 206 235  135 206 235  135 206 235  135 206 235  135 206 235  135 206 235  135 206 235  135 206 235  135 206 235  135 206 235  135 206 235  135 206 235  135 206 235  135 206 235  135 206 235  135 206 235  135 206 235  135 206 235  135 206 235  135 206 235  135 206 235  135 206 235  135 206 235  135 206 235  135 206 235  135 206 235  135 206 235  135 206 235  135 206 235  135 206 235  135 206 235  135 206 235  135 206 235  135 206 235  135 206 235  135 206 235  135 206 235  135 206 235  135 206 235  135 206 235  135 206 235  135 206 235  135 206 235  135 206 235  135 206 235  135 206 235  135 206 235  135 206 235  135 206 235  135 206 235  135 206 235  135 206 235  135 206 235  135 206 235  135 206 235  135 206 235  135 206 235  135 206 235  135 206 235  135 206 235  135 206 235  135 206 235  135 206 235  135 206 235  135 206 235  135 206 235  135 206 235  135 206 235  135 206 235  135 206 235  135 206 235  135 206 235  135 206 235  135 206 235  135 206 235  135 206 235  135 206 235  135 206 235  135 206 235  135 206 235  135 206 235  135 206 235  135 206 235  135 206 235  135 206 235  135 206 235  135 206 235  135 206 235  135 206 235  135 206 235  135 206 235  135 206 235  135 206 235  135 206 235  135 206 235  135 206 235  135 206 235  135 206 235  135 206 235  135 206 235  135 206 235  135 206 235  135 206 235  135 206 235  135 206 235  135 206 235  135 206 235  135 206 235  135 206 235  135 206 235  135 206 235  135 206 235  135 206 235  135 206 235  135 206 235  135 206 235  135 206 235  135 206 235  135 206 235  135 206 235  135 206 235  135 206 235  135 206 235  135 206 235  135 206 235  135 206 235  135 206 235  135 206 235  135 206 235  135 206 235  135 206 235  135 206 235  135 206 235  135 206 235  135 206 235  135 206 235  135 206 235  135 206 235  135 206 235  135 206 235  135 206 235  135 206 235  135 206 235
135 206 235  135 206 235  135 206 235  135 206 235  135 206 235  135 206 235  135 206 235  135 206 235  135 206 235  135 206 235  135 206 235  135 206 235  135 206 235  135 206 235  135 206 235  135 206 235  135 206 235  135 206 235  135 206 235  135 206 235  135 206 235  135 206 235  135 206 235  135 206 235  135 206 235  135 206 235  135 206 235  135 206 235  135 206 235  135 206 235  135 206 235  135 206 235  135 206 235  135 206 235  135 206 235  135 206 235  135 206 235  135 206 235  135 206 235  135 206 235  135 206 235  135 206 235  135 206 235  135 206 235  135 206 235  135 206 235  135 206 235  135 206 235  135 206 235  135 206 235  135 206 235  135 206 235  135 206 235  135 206 235  135 206 235  135 206 235  135 206 235  135 206 235  135 206 235  135 206 235  135 206 235  135 206 235  135 206 235  135 206 235  135 206 235  135 206 235  135 206 235  135 206 235  135 206 235  135 206 235  135 206 235  135 206 235  135 206 235  135 206 235  135 206 235  135 206 235  135 206 235  135 206 235  135 206 235  135 206 235  135 206 235  135 206 235  135 206 235  135 206 235  135 206 235  135 206 235  135 206 235  135 206 235  135 206 235  135 206 235  135 206 235  135 206 235  135 206 235  135 206 235  135 206 235  135 206 235  135 206 235  135 206 235  135 206 235  135 206 235  135 206 235  135 206 235  135 206 235  135 206 235  135 206 235  135 206 235  135 206 235  135 206 235  135 206 235  135 206 235  135 206 235  135 206 235  135 206 235  135 206 235  135 206 235  135 206 235  135 206 235  135 206 235  135 206 235  135 206 235  135 206 235  135 206 235  135 206 235  135 206 235  135 206 235  135 206 235  135 206 235  135 206 235  135 206 235  135 206 235  135 206 235  135 206 235  135 206 235  135 206 235  135 206 235  135 206 235  135 206 235  135 206 235  135 206 235  135 206 235  135 206 235  135 206 235  135 206 235  135 206 235  135 206 235  135 206 235  135 206 235  135 206 235  135 206 235  135 206 235  135 206 235  135 206 235  135 206 235  135 206 235  135 206 235  135 206 235  135 206 235  135 206 235  135 206 235  135 206 235  135 206 235  135 206 235  135 206 235  135 206 235  135 206 235  135 206 235  135 206 235  135 206 235  135 206 235  135 206 235  135 206 235  135 206 235  135 206 235  135 206 235  135 206 235  135 206 235  135 206 235  135 206 235  135 206 235  135 206 235  135 206 235  135 206 235  135 206 235  135 206 235  135 206 235  135 206 235  135 206 235  135 206 235  135 206 235  135 206 235  135 206 235  135 206 235  135 206 235  135 206 235  135 206 235  135 206 235  135 206 235  135 206 235  135 206 235  135 206 235  135 206 235  135 206 235  135 206 235  135 206 235  135 206 235  135 206 235  135 206 235  135 206 235  135 206 235  135 206 235  135 206 235  135 206 235  135 206 235  135 206 235  135 206 235  135 206 235  135 206 235  135 206 235  135 206 235  135 206 235  135 206 235  135 206 235  135 206 235  135 206 235  135 206 235  135 206 235  135 206 235  135 206 235  135 206 235  135 206 235  135 206 235  135 206 235  135 206 235  135 206 235  135 206 235  135 206 235  135 206 235  135 206 235  135 206 235  135 206 235  135 206 235  135 206 235  135 206 235  135 206 235  135 206 235  135 206 235  135 206 235  135 206 235  135 206 235  135 206 235  135 206 235  135 206 235  135 206 235  135 206 235  135 206 235  135 206 235  135 206 235  135 206 235  135 206 235  135 206 235  135 206 235  135 206 235  135 206 235  135 206 235  135 206 235  135 206 235  135 206 235  135 206 235  135 206 235  135 206 235  135 206 235  135 206 235  135 206 235  135 206 235  135 206 235  135 206 235  135 206 235  135 206 235  135 206 235  135 206 235  135 206 235  135 206 235  135 206 235  135 206 235  135 206 235  135 206 235  135 206 235  135 206 235  135 206 235  135 206 235  135 206 235  135 206 235  135 206 235  135 206 235  135 206 235  135 206 235  135 206 235  135 206 235  135 206 235  135 206 235  135 206 235  135 206 235  135 206 235  135 206 235  135 206 235  135 206 235  135 206 235  135 206 235  135 206 235  135 206 235  135 206 235  135 206 235  135 206 235  135 206 235  135 206 235  135 206 235  135 206 235  135 206 235  135 206 235  135 206 235
135 206 235  135 206 235  135 206 235  135 206 235  135 206 235  135 206 235  135 206 235  135 206 235  135 206 235  135 206 235  135 206 235  135 206 235  135 206 235  135 206 235  135 206 235  135 206 235  135 206 235  135 206 235  135 206 235  135 206 235  135 206 235  135 206 235  135 206 235  135 206 235  135 206 235  135 206 235  135 206 235  135 206 235  135 206 235  135 206 235  135 206 235  135 206 235  135 206 235  135 206 235  135 206 235  135 206 235  135 206 235  135 206 235  135 206 235  135 206 235  135 206 235  135 206 235  135 206 235  135 206 235  135 206 235  135 206 235  135 206 235  135 206 235  135 206 235  135 206 235  135 206 235  135 206 235  135 206 235  135 206 235  135 206 235  135 206 235  135 206 235  135 206 235  135 206 235  135 206 235  135 206 235  135 206 235  135 206 235  135 206 235  135 206 235  135 206 235  135 206 235  135 206 235  135 206 235  135 206 235  135 206 235  135 206 235  135 206 235  135 206 235  135 206 235  135 206 235  135 206 235  135 206 235  135 206 235  135 206 235  135 206 235  135 206 235  135 206 235  135 206 235  135 206 235  135 206 235  135 206 235  135 206 235  135 206 235  135 206 235  135 206 235  135 206 235  135 206 235  135 206 235  135 206 235  135 206 235  135 206 235  135 206 235  135 206 235  135 206 235  135 206 235  135 206 235  135 206 235  135 206 235  135 206 235  135 206 235  135 206 235  135 206 235  135 206 235  135 206 235  135 206 235  135 206 235  135 206 235  135 206 235  135 206 235  135 206 235  135 206 235  135 206 235  135 206 235  135 206 235  135 206 235  135 206 235  135 206 235  135 206 235  135 206 235  135 206 235  135 206 235  135 206 235  135 206 235  135 206 235  135 206 235  135 206 235  135 206 235  135 206 235  135 206 235  135 206 235  135 206 235  135 206 235  135 206 235  135 206 235  135 206 235  135 206 235  135 206 235  135 206 235  135 206 235  135 206 235  135 206 235  135 206 235  135 206 235  135 206 235  135 206 235  135 206 235  135 206 235  135 206 235  135 206 235  135 206 235  135 206 235  135 206 235  135 206 235  135 206 235  135 206 235  135 206 235  135 206 235  135 206 235  135 206 235  135 206 235  135 206 235  135 206 235  135 206 235  135 206 235  135 206 235  135 206 235  135 206 235  135 206 235  135 206 235  135 206 235  135 206 235  135 206 235  135 206 235  135 206 235  135 206 235  135 206 235  135 206 235  135 206 235  135 206 235  135 206 235  135 206 235  135 206 235  135 206 235  135 206 235  135 206 235  135 206 235  135 206 235  135 206 235  135 206 235  135 206 235  135 206 235  135 206 235  135 206 235  135 206 235  135 206 235  135 206 235  135 206 235  135 206 235  135 206 235  135 206 235  135 206 235  135 206 235  135 206 235  135 206 235  135 206 235  135 206 235  135 206 235  135 206 235  135 206 235  135 206 235  135 206 235  135 206 235  135 206 235  135 206 235  135 206 235  135 206 235  135 206 235  135 206 235  135 206 235  135 206 235  135 206 235  135 206 235  135 206 235  135 206 235  135 206 235  135 206 235  135 206 235  135 206 235  135 206 235  135 206 235  135 206 235  135 206 235  135 206 235  135 206 235  135 206 235  135 206 235  135 206 235  135 206 235  135 206 235  135 206 235  135 206 235  135 206 235  135 206 235  135 206 235  135 206 235  135 206 235  135 206 235  135 206 235  135 206 235  135 206 235  135 206 235  135 206 235  135 206 235  135 206 235  135 206 235  135 206 235  135 206 235  135 206 235  135 206 235  135 206 235  135 206 235  135 206 235  135 206 235  135 206 235  135 206 235  135 206 235  135 206 235  135 206 235  135 206 235  135 206 235  135 206 235  135 206 235  135 206 235  135 206 235  135 206 235  135 206 235  135 206 235  135 206 235  135 206 235  135 206 235  135 206 235  135 206 235  135 206 235  135 206 235  135 206 235  135 206 235  135 206 235  135 206 235  135 206 235  135 206 235  135 206 235  135 206 235  135 206 235  135 206 235  135 206 235  135 206 235  135 206 235  135 206 235  135 206 235  135 206 235  135 206 235  135 206 235  135 206 235  135 206 235  135 206 235  135 206 235  135 206 235  135 206 235  135 206 235  135 206 235  135 206 235  135 206 235  135 206 235  135 206 235
135 206 235  135 206 235  135 206 235  135 206 235  135 206 235  135 206 235  135 206 235  135 206 235  135 206 235  135 206 235  135 206 235  135 206 235  135 206 235  135 206 235  135 206 235  135 206 235  135 206 235  135 206 235  135 206 235  135 206 235  135 206 235  135 206 235  135 206 235  135 206 235  135 206 235  135 206 235  135 206 235  135 206 235  135 206 235  135 206 235  135 206 235  135 206 235  135 206 235  135 206 235  135 206 235  135 206 235  135 206 235  135 206 235  135 206 235  135 206 235  135 206 235  135 206 235  135 206 235  135 206 235  135 206 235  135 206 235  135 206 235  135 206 235  135 206 235  135 206 235  135 206 235  135 206 235  135 206 235  135 206 235  135 206 235  135 206 235  135 206 235  135 206 235  135 206 235  135 206 235  135 206 235  135 206 235  135 206 235  135 206 235  135 206 235  135 206 235  135 206 235  135 206 235  135 206 235  135 206 235  135 206 235  135 206 235  135 206 235  135 206 235  135 206 235  135 206 235  135 206 235  135 206 235  135 206 235  135 206 235  135 206 235  135 206 235  135 206 235  135 206 235  135 206 235  135 206 235  135 206 235  135 206 235  135 206 235  135 206 235  135 206 235  135 206 235  135 206 235  135 206 235  135 206 235  135 206 235  135 206 235  135 206 235  135 206 235  135 206 235  135 206 235  135 206 235  135 206 235  135 206 235  135 206 235  135 206 235  135 206 235  135 206 235  135 206 235  135 206 235  135 206 235  135 206 235  135 206 235  135 206 235  135 206 235  135 206 235  135 206 235  135 206 235  135 206 235  135 206 235  135 206 235  135 206 235  135 206 235  135 206 235  135 206 235  135 206 235  135 206 235  135 206 235  135 206 235  135 206 235  135 206 235  135 206 235  135 206 235  135 206 235  135 206 235  135 206 235  135 206 235  135 206 235  135 206 235  135 206 235  135 206 235  135 206 235  135 206 235  135 206 235  135 206 235  135 206 235  135 206 235  135 206 235  135 206 235  135 206 235  135 206 235  135 206 235  135 206 235  135 206 235  135 206 235  135 206 235  135 206 235  135 206 235  135 206 235  135 206 235  135 206 235  135 206 235  135 206 235  135 206 235  135 206 235  135 206 235  135 206 235  135 206 235  135 206 235  135 206 235  135 206 235  135 206 235  135 206 235  135 206 235  135 206 235  135 206 235  135 206 235  135 206 235  135 206 235  135 206 235  135 206 235  135 206 235  135 206 235  135 206 235  135 206 235  135 206 235  135 206 235  135 206 235  135 206 235  135 206 235  135 206 235  135 206 235  135 206 235  135 206 235  135 206 235  135 206 235  135 206 235  135 206 235  135 206 235  135 206 235  135 206 235  135 206 235  135 206 235  135 206 235  135 206 235  135 206 235  135 206 235  135 206 235  135 206 235  135 206 235  135 206 235  135 206 235  135 206 235  135 206 235  135 206 235  135 206 235  135 206 235  135 206 235  135 206 235  135 206 235  135 206 235  135 206 235  135 206 235  135 206 235  135 206 235  135 206 235  135 206 235  135 206 235  135 206 235  135 206 235  135 206 235  135 206 235  135 206 235  135 206 235  135 206 235  135 206 235  135 206 235  135 206 235  135 206 235  135 206 235  135 206 235  135 206 235  135 206 235  135 206 235  135 206 235  135 206 235  135 206 235  135 206 235  135 206 235  135 206 235  135 206 235  135 206 235  135 206 235  135 206 235  135 206 235  135 206 235  135 206 235  135 206 235  135 206 235  135 206 235  135 206 235  135 206 235  135 206 235  135 206 235  135 206 235  135 206 235  135 206 235  135 206 235  135 206 235  135 206 235  135 206 235  135 206 235  135 206 235  135 206 235  135 206 235  135 206 235  135 206 235  135 206 235  135 206 235  135 206 235  135 206 235  135 206 235  135 206 235  135 206 235  135 206 235  135 206 235  135 206 235  135 206 235  135 206 235  135 206 235  135 206 235  135 206 235  135 206 235  135 206 235  135 206 235  135 206 235  135 206 235  135 206 235  135 206 235  135 206 235  135 206 235  135 206 235  135 206 235  135 206 235  135 206 235  135 206 235  135 206 235  135 206 235  135 206 235  135 206 235  135 206 235  135 206 235  135 206 235  135 206 235  135 206 235  135 206 235  135 206 235  135 206 235  135 206 235  135 206 235
135 206 235  135 206 235  135 206 235  135 206 235  135 206 235  135 206 235  135 206 235  135 206 235  135 206 235  135 206 235  135 206 235  135 206 235  135 206 235  135 206 235  135 206 235  135 206 235  135 206 235  135 206 235  135 206 235  135 206 235  135 206 235  135 206 235  135 206 235  135 206 235  135 206 235  135 206 235  135 206 235  135 206 235  135 206 235  135 206 235  135 206 235  135 206 235  135 206 235  135 206 235  135 206 235  135 206 235  135 206 235  135 206 235  135 206 235  135 206 235  135 206 235  135 206 235  135 206 235  135 206 235  135 206 235  135 206 235  135 206 235  135 206 235  135 206 235  135 206 235  135 206 235  135 206 235  135 206 235  135 206 235  135 206 235  135 206 235  135 206 235  135 206 235  135 206 235  135 206 235  135 206 235  135 206 235  135 206 235  135 206 235  135 206 235  135 206 235  135 206 235  135 206 235  135 206 235  135 206 235  135 206 235  135 206 235  135 206 235  135 206 235  135 206 235  135 206 235  135 206 235  135 206 235  135 206 235  135 206 235  135 206 235  135 206 235  135 206 235  135 206 235  135 206 235  135 206 235  135 206 235  135 206 235  135 206 235  135 206 235  135 206 235  135 206 235  135 206 235  135 206 235  135 206 235  135 206 235  135 206 235  135 206 235  135 206 235  135 206 235  135 206 235  135 206 235  135 206 235  135 206 235  135 206 235  135 206 235  135 206 235  135 206 235  135 206 235  135 206 235  135 206 235  135 206 235  135 206 235  135 206 235  135 206 235  135 206 235  135 206 235  135 206 235  135 206 235  135 206 235  135 206 235  135 206 235  135 206 235  135 206 235  135 206 235  135 206 235  135 206 235  135 206 235  135 206 235  135 206 235  135 206 235  135 206 235  135 206 235  135 206 235  135 206 235  135 206 235  135 206 235  135 206 235  135 206 235  135 206 235  135 206 235  135 206 235  135 206 235  135 206 235  135 206 235  135 206 235  135 206 235  135 206 235  135 206 235  135 206 235  135 206 235  135 206 235  135 206 235  135 206 235  135 206 235  135 206 235  135 206 235  135 206 235  135 206 235  135 206 235  135 206 235  135 206 235  135 206 235  135 206 235  135 206 235  135 206 235  135 206 235  135 206 235  135 206 235  135 206 235  135 206 235  135 206 235  135 206 235  135 206 235  135 206 235  135 206 235  135 206 235  135 206 235  135 206 235  135 206 235  135 206 235  135 206 235  135 206 235  135 206 235  135 206 235  135 206 235  135 206 235  135 206 235  135 206 235  135 206 235  135 206 235  135 206 235  135 206 235  135 206 235  135 206 235  135 206 235  135 206 235  135 206 235  135 206 235  135 206 235  135 206 235  135 206 235  135 206 235  135 206 235  135 206 235  135 206 235  135 206 235  135 206 235  135 206 235  135 206 235  135 206 235  135 206 235  135 206 235  135 206 235  135 206 235  135 206 235  135 206 235  135 206 235  135 206 235  135 206 235  135 206 235  135 206 235  135 206 235  135 206 235  135 206 235  135 206 235  135 206 235  135 206 235  135 206 235  135 206 235  135 206 235  135 206 235  135 206 235  135 206 235  135 206 235  135 206 235  135 206 235  135 206 235  135 206 235  135 206 235  135 206 235  135 206 235  135 206 235  135 206 235  135 206 235  135 206 235  135 206 235  135 206 235  135 206 235  135 206 235  135 206 235  135 206 235  135 206 235  135 206 235  135 206 235  135 206 235  135 206 235  135 206 235  135 206 235  135 206 235  135 206 235  135 206 235  135 206 235  135 206 235  135 206 235  135 206 235  135 206 235  135 206 235  135 206 235  135 206 235  135 206 235  135 206 235  135 206 235  135 206 235  135 206 235  135 206 235  135 206 235  135 206 235  135 206 235  135 206 235  135 206 235  135 206 235  135 206 235  135 206 235  135 206 235  135 206 235  135 206 235  135 206 235  135 206 235  135 206 235  135 206 235  135 206 235  135 206 235  135 206 235  135 206 235  135 206 235  135 206 235  135 206 235  135 206 235  135 206 235  135 206 235  135 206 235  135 206 235  135 206 235  135 206 235  135 206 235  135 206 235  135 206 235  135 206 235  135 206 235  135 206 235  135 206 235  135 206 235  135 206 235  135 206 235  135 206 235  135 206 235  135 206 235  135 206 235  135 206 235
135 206 235  135 206 235  135 206 235  135 206 235  135 206 235  135 206 235  135 206 235  135 206 235  135 206 235  135 206 235  135 206 235  135 206 235  135 206 235  135 206 235  135 206 235  135 206 235  135 206 235  135 206 235  135 206 235  135 206 235  135 206 235  135 206 235  135 206 235  135 206 235  135 206 235  135 206 235  135 206 235  135 206 235  135 206 235  135 206 235  135 206 235  135 206 235  135 206 235  135 206 235  135 206 235  135 206 235  135 206 235  135 206 235  135 206 235  135 206 235  135 206 235  135 206 235  135 206 235  135 206 235  135 206 235  135 206 235  135 206 235  135 206 235  135 206 235  135 206 235  135 206 235  135 206 235  135 206 235  135 206 235  135 206 235  135 206 235  135 206 235  135 206 235  135 206 235  135 206 235  135 206 235  135 206 235  135 206 235  135 206 235  135 206 235  135 206 235  135 206 235  135 206 235  135 206 235  135 206 235  135 206 235  135 206 235  135 206 235  135 206 235  135 206 235  135 206 235  135 206 235  135 206 235  135 206 235  135 206 235  135 206 235  135 206 235  135 206 235  135 206 235  135 206 235  135 206 235  135 206 235  135 206 235  135 206 235  135 206 235  135 206 235  135 206 235  135 206 235  135 206 235  135 206 235  135 206 235  135 206 235  135 206 235  135 206 235  135 206 235  135 206 235  135 206 235  135 206 235  135 206 235  135 206 235  135 206 235  135 206 235  135 206 235  135 206 235  135 206 235  135 206 235  135 206 235  135 206 235  135 206 235  135 206 235  135 206 235  135 206 235  135 206 235  135 206 235  135 206 235  135 206 235  135 206 235  135 206 235  135 206 235  135 206 235  135 206 235  135 206 235  135 206 235  135 206 235  135 206 235  135 206 235  135 206 235  135 206 235  135 206 235  135 206 235  135 206 235  135 206 235  135 206 235  135 206 235  135 206 235  135 206 235  135 206 235  135 206 235  135 206 235  135 206 235  135 206 235  135 206 235  135 206 235  135 206 235  135 206 235  135 206 235  135 206 235  135 206 235  135 206 235  135 206 235  135 206 235  135 206 235  135 206 235  135 206 235  135 206 235  135 206 235  135 206 235  135 206 235  135 206 235  135 206 235  135 206 235  135 206 235  135 206 235  135 206 235  135 206 235  135 206 235  135 206 235  135 206 235  135 206 235  135 206 235  135 206 235  135 206 235  135 206 235  135 206 235  135 206 235  135 206 235  135 206 235  135 206 235  135 206 235  135 206 235  135 206 235  135 206 235  135 206 235  135 206 235  135 206 235  135 206 235  135 206 235  135 206 235  135 206 235  135 206 235  135 206 235  135 206 235  135 206 235  135 206 235  135 206 235  135 206 235  135 206 235  135 206 235  135 206 235  135 206 235  135 206 235  135 206 235  135 206 235  135 206 235  135 206 235  135 206 235  135 206 235  135 206 235  135 206 235  135 206 235  135 206 235  135 206 235  135 206 235  135 206 235  135 206 235  135 206 235  135 206 235  135 206 235  135 206 235  135 206 235  135 206 235  135 206 235  135 206 235  135 206 235  135 206 235  135 206 235  135 206 235  135 206 235  135 206 235  135 206 235  135 206 235  135 206 235  135 206 235  135 206 235  135 206 235  135 206 235  135 206 235  135 206 235  135 206 235  135 206 235  135 206 235  135 206 235  135 206 235  135 206 235  135 206 235  135 206 235  135 206 235  135 206 235  135 206 235  135 206 235  135 206 235  135 206 235  135 206 235  135 206 235  135 206 235  135 206 235  135 206 235  135 206 235  135 206 235  135 206 235  135 206 235  135 206 235  135 206 235  135 206 235  135 206 235  135 206 235  135 206 235  135 206 235  135 206 235  135 206 235  135 206 235  135 206 235  135 206 235  135 206 235  135 206 235  135 206 235  135 206 235  135 206 235  135 206 235  135 206 235  135 206 235  135 206 235  135 206 235  135 206 235  135 206 235  135 206 235  135 206 235  135 206 235  135 206 235  135 206 235  135 206 235  135 206 235  135 206 235  135 206 235  135 206 235  135 206 235  135 206 235  135 206 235  135 206 235  135 206 235  135 206 235  135 206 235  135 206 235  135 206 235  135 206 235  135 206 235  135 206 235  135 206 235  135 206 235  135 206 235  135 206 235  135 206 235  135 206 235  135 206 235  135 206 235
135 206 235  135 206 235  135 206 235  135 206 235  135 206 235  135 206 235  135 206 235  135 206 235  135 206 235  135 206 235  135 206 235  135 206 235  135 206 235  135 206 235  135 206 235  135 206 235  135 206 235  135 206 235  135 206 235  135 206 235  135 206 235  135 206 235  135 206 235  135 206 235  135 206 235  135 206 235  135 206 235  135 206 235  135 206 235  135 206 235  135 206 235  135 206 235  135 206 235  135 206 235  135 206 235  135 206 235  135 206 235  135 206 235  135 206 235  135 206 235  135 206 235  135 206 235  135 206 235  135 206 235  135 206 235  135 206 235  135 206 235  135 206 235  135 206 235  135 206 235  135 206 235  135 206 235  135 206 235  135 206 235  135 206 235  135 206 235  135 206 235  135 206 235  135 206 235  135 206 235  135 206 235  135 206 235  135 206 235  135 206 235  135 206 235  135 206 235  135 206 235  135 206 235  135 206 235  135 206 235  135 206 235  135 206 235  135 206 235  135 206 235  135 206 235  135 206 235  135 206 235  135 206 235  135 206 235  135 206 235  135 206 235  135 206 235  135 206 235  135 206 235  135 206 235  135 206 235  135 206 235  135 206 235  135 206 235  135 206 235  135 206 235  135 206 235  135 206 235  135 206 235  135 206 235  135 206 235  135 206 235  135 206 235  135 206 235  135 206 235  135 206 235  135 206 235  135 206 235  135 206 235  135 206 235  135 206 235  135 206 235  135 206 235  135 206 235  135 206 235  135 206 235  135 206 235  135 206 235  135 206 235  135 206 235  135 206 235  135 206 235  135 206 235  135 206 235  135 206 235  135 206 235  135 206 235  135 206 235  135 206 235  135 206 235  135 206 235  135 206 235  135 206 235  135 206 235  135 206 235  135 206 235  135 206 235  135 206 235  135 206 235  135 206 235  135 206 235  135 206 235  135 206 235  135 206 235  135 206 235  135 206 235  135 206 235  135 206 235  135 206 235  135 206 235  135 206 235  135 206 235  135 206 235  135 206 235  135 206 235  135 206 235  135 206 235  135 206 235  135 206 235  135 206 235  135 206 235  135 206 235  135 206 235  135 206 235  135 206 235  135 206 235  135 206 235  135 206 235  135 206 235  135 206 235  135 206 235  135 206 235  135 206 235  135 206 235  135 206 235  135 206 235  135 206 235  135 206 235  135 206 235  135 206 235  135 206 235  135 206 235  135 206 235  135 206 235  135 206 235  135 206 235  135 206 235  135 206 235  135 206 235  135 206 235  135 206 235  135 206 235  135 206 235  135 206 235  135 206 235  135 206 235  135 206 235  135 206 235  135 206 235  135 206 235  135 206 235  135 206 235  135 206 235  135 206 235  135 206 235  135 206 235  135 206 235  135 206 235  135 206 235  135 206 235  135 206 235  135 206 235  135 206 235  135 206 235  135 206 235  135 206 235  135 206 235  135 206 235  135 206 235  135 206 235  135 206 235  135 206 235  135 206 235  135 206 235  135 206 235  135 206 235  135 206 235  135 206 235  135 206 235  135 206 235  135 206 235  135 206 235  135 206 235  135 206 235  135 206 235  135 206 235  135 206 235  135 206 235  135 206 235  135 206 235  135 206 235  135 206 235  135 206 235  135 206 235  135 206 235  135 206 235  135 206 235  135 206 235  135 206 235  135 206 235  135 206 235  135 206 235  135 206 235  135 206 235  135 206 235  135 206 235  135 206 235  135 206 235  135 206 235  135 206 235  135 206 235  135 206 235  135 206 235  135 206 235  135 206 235  135 206 235  135 206 235  135 206 235  135 206 235  135 206 235  135 206 235  135 206 235  135 206 235  135 206 235  135 206 235  135 206 235  135 206 235  135 206 235  135 206 235  135 206 235  135 206 235  135 206 235  135 206 235  135 206 235  135 206 235  135 206 235  135 206 235  135 206 235  135 206 235  135 206 235  135 206 235  135 206 235  135 206 235  135 206 235  135 206 235  135 206 235  135 206 235  135 206 235  135 206 235  135 206 235  135 206 235  135 206 235  135 206 235  135 206 235  135 206 235  135 206 235  135 206 235  135 206 235  135 206 235  135 206 235  135 206 235  135 206 235  135 206 235  135 206 235  135 206 235  135 206 235  135 206 235  135 206 235  135 206 235  135 206 235  135 206 235  135 206 235  135 206 235  135 206 235  135 206 235
135 206 235  135 206 235  135 206 235  135 206 235  135 206 235  135 206 235  135 206 235  135 206 235  135 206 235  135 206 235  135 206 235  135 206 235  135 206 235  135 206 235  135 206 235  135 206 235  135 206 235  135 206 235  135 206 235  135 206 235  135 206 235  135 206 235  135 206 235  135 206 235  135 206 235  135 206 235  135 206 235  135 206 235  135 206 235  135 206 235  135 206 235  135 206 235  135 206 235  135 206 235  135 206 235  135 206 235  135 206 235  135 206 235  135 206 235  135 206 235  135 206 235  135 206 235  135 206 235  135 206 235  135 206 235  135 206 235  135 206 235  135 206 235  135 206 235  135 206 235  135 206 235  135 206 235  135 206 235  135 206 235  135 206 235  135 206 235  135 206 235  135 206 235  135 206 235  135 206 235  135 206 235  135 206 235  135 206 235  135 206 235  135 206 235  135 206 235  135 206 235  135 206 235  135 206 235  135 206 235  135 206 235  135 206 235  135 206 235  135 206 235  135 206 235  135 206 235  135 206 235  135 206 235  135 206 235  135 206 235  135 206 235  135 206 235  135 206 235  135 206 235  135 206 235  135 206 235  135 206 235  135 206 235  135 206 235  135 206 235  135 206 235  135 206 235  135 206 235  135 206 235  135 206 235  135 206 235  135 206 235  135 206 235  135 206 235  135 206 235  135 206 235  135 206 235  135 206 235  135 206 235  135 206 235  135 206 235  135 206 235  135 206 235  135 206 235  135 206 235  135 206 235  135 206 235  135 206 235  135 206 235  135 206 235  135 206 235  135 206 235  135 206 235  135 206 235  135 206 235  135 206 235  135 206 235  135 206 235  135 206 235  135 206 235  135 206 235  135 206 235  135 206 235  135 206 235  135 206 235  135 206 235  135 206 235  135 206 235  135 206 235  135 206 235  135 206 235  135 206 235  135 206 235  135 206 235  135 206 235  135 206 235  135 206 235  135 206 235  135 206 235  135 206 235  135 206 235  135 206 235  135 206 235  135 206 235  135 206 235  135 206 235  135 206 235  135 206 235  135 206 235  135 206 235  135 206 235  135 206 235  135 206 235  135 206 235  135 206 235  135 206 235  135 206 235  135 206 235  135 206 235  135 206 235  135 206 235  135 206 235  135 206 235  135 206 235  135 206 235  135 206 235  135 206 235  135 206 235  135 206 235  135 206 235  135 206 235  135 206 235  135 206 235  135 206 235  135 206 235  135 206 235  135 206 235  135 206 235  135 206 235  135 206 235  135 206 235  135 206 235  135 206 235  135 206 235  135 206 235  135 206 235  135 206 235  135 206 235  135 206 235  135 206 235  135 206 235  135 206 235  135 206 235  135 206 235  135 206 235  135 206 235  135 206 235  135 206 235  135 206 235  135 206 235  135 206 235  135 206 235  135 206 235  135 206 235  135 206 235  135 206 235  135 206 235  135 206 235  135 206 235  135 206 235  135 206 235  135 206 235  135 206 235  135 206 235  135 206 235  135 206 235  135 206 235  135 206 235  135 206 235  135 206 235  135 206 235  135 206 235  135 206 235  135 206 235  135 206 235  135 206 235  135 206 235  135 206 235  135 206 235  135 206 235  135 206 235  135 206 235  135 206 235  135 206 235  135 206 235  135 206 235  135 206 235  135 206 235  135 206 235  135 206 235  135 206 235  135 206 235  135 206 235  135 206 235  135 206 235  135 206 235  135 206 235  135 206 235  135 206 235  135 206 235  135 206 235  135 206 235  135 206 235  135 206 235  135 206 235  135 206 235  135 206 235  135 206 235  135 206 235  135 206 235  135 206 235  135 206 235  135 206 235  135 206 235  135 206 235  135 206 235  135 206 235  135 206 235  135 206 235  135 206 235  135 206 235  135 206 235  135 206 235  135 206 235  135 206 235  135 206 235  135 206 235  135 206 235  135 206 235  135 206 235  135 206 235  135 206 235  135 206 235  135 206 235  135 206 235  135 206 235  135 206 235  135 206 235  135 206 235  135 206 235  135 206 235  135 206 235  135 206 235  135 206 235  135 206 235  135 206 235  135 206 235  135 206 235  135 206 235  135 206 235  135 206 235  135 206 235  135 206 235  135 206 235  135 206 235  135 206 235  135 206 235  135 206 235  135 206 235  135 206 235  135 206 235  135 206 235  135 206 235  135 206 235  135 206 235
135 206 235  135 206 235  135 206 235  135 206 235  135 206 235  135 206 235  135 206 235  135 206 235  135 206 235  135 206 235  135 206 235  135 206 235  135 206 235  135 206 235  135 206 235  135 206 235  135 206 235  135 206 235  135 206 235  135 206 235  135 206 235  135 206 235  135 206 235  135 206 235  135 206 235  135 206 235  135 206 235  135 206 235  135 206 235  135 206 235  135 206 235  135 206 235  135 206 235  135 206 235  135 206 235  135 206 235  135 206 235  135 206 235  135 206 235  135 206 235  135 206 235  135 206 235  135 206 235  135 206 235  135 206 235  135 206 235  135 206 235  135 206 235  135 206 235  135 206 235  135 206 235  135 206 235  135 206 235  135 206 235  135 206 235  135 206 235  135 206 235  135 206 235  135 206 235  135 206 235  135 206 235  135 206 235  135 206 235  135 206 235  135 206 235  135 206 235  135 206 235  135 206 235  135 206 235  135 206 235  135 206 235  135 206 235  135 206 235  135 206 235  135 206 235  135 206 235  135 206 235  135 206 235  135 206 235  135 206 235  135 206 235  135 206 235  135 206 235  135 206 235  135 206 235  135 206 235  135 206 235  135 206 235  135 206 235  135 206 235  135 206 235  135 206 235  135 206 235  135 206 235  135 206 235  135 206 235  135 206 235  135 206 235  135 206 235  135 206 235  135 206 235  135 206 235  135 206 235  135 206 235  135 206 235  135 206 235  135 206 235  135 206 235  135 206 235  135 206 235  135 206 235  135 206 235  135 206 235  135 206 235  135 206 235  135 206 235  135 206 235  135 206 235  135 206 235  135 206 235  135 206 235  135 206 235  135 206 235  135 206 235  135 206 235  135 206 235  135 206 235  135 206 235  135 206 235  135 206 235  135 206 235  135 206 235  135 206 235  135 206 235  135 206 235  135 206 235  135 206 235  135 206 235  135 206 235  135 206 235  135 206 235  135 206 235  135 206 235  135 206 235  135 206 235  135 206 235  135 206 235  135 206 235  135 206 235  135 206 235  135 206 235  135 206 235  135 206 235  135 206 235  135 206 235  135 206 235  135 206 235  135 206 235  135 206 235  135 206 235  135 206 235  135 206 235  135 206 235  135 206 235  135 206 235  135 206 235  135 206 235  135 206 235  135 206 235  135 206 235  135 206 235  135 206 235  135 206 235  135 206 235  135 206 235  135 206 235  135 206 235  135 206 235  135 206 235  135 206 235  135 206 235  135 206 235  135 206 235  135 206 235  135 206 235  135 206 235  135 206 235  135 206 235  135 206 235  135 206 235  135 206 235  135 206 235  135 206 235  135 206 235  135 206 235  135 206 235  135 206 235  135 206 235  135 206 235  135 206 235  135 206 235  135 206 235  135 206 235  135 206 235  135 206 235  135 206 235  135 206 235  135 206 235  135 206 235  135 206 235  135 206 235  135 206 235  135 206 235  135 206 235  135 206 235  135 206 235  135 206 235  135 206 235  135 206 235  135 206 235  135 206 235  135 206 235  135 206 235  135 206 235  135 206 235  135 206 235  135 206 235  135 206 235  135 206 235  135 206 235  135 206 235  135 206 235  135 206 235  135 206 235  135 206 235  135 206 235  135 206 235  135 206 235  135 206 235  135 206 235  135 206 235  135 206 235  135 206 235  135 206 235  135 206 235  135 206 235  135 206 235  135 206 235  135 206 235  135 206 235  135 206 235  135 206 235  135 206 235  135 206 235  135 206 235  135 206 235  135 206 235  135 206 235  135 206 235  135 206 235  135 206 235  135 206 235  135 206 235  135 206 235  135 206 235  135 206 235  135 206 235  135 206 235  135 206 235  135 206 235  135 206 235  135 206 235  135 206 235  135 206 235  135 206 235  135 206 235  135 206 235  135 206 235  135 206 235  135 206 235  135 206 235  135 206 235  135 206 235  135 206 235  135 206 235  135 206 235  135 206 235  135 206 235  135 206 235  135 206 235  135 206 235  135 206 235  135 206 235  135 206 235  135 206 235  135 206 235  135 206 235  135 206 235  135 206 235  135 206 235  135 206 235  135 206 235  135 206 235  135 206 235  135 206 235  135 206 235  135 206 235  135 206 235  135 206 235  135 206 235  135 206 235  135 206 235  135 206 235  135 206 235  135 206 235  135 206 235  135 206 235  135 206 235  135 206 235  135 206 235
135 206 235  135 206 235  135 206 235  135 206 235  135 206 235  135 206 235  135 206 235  135 206 235  135 206 235  135 206 235  135 206 235  135 206 235  135 206 235  135 206 235  135 206 235  135 206 235  135 206 235  135 206 235  135 206 235  135 206 235  135 206 235  135 206 235  135 206 235  135 206 235  135 206 235  135 206 235  135 206 235  135 206 235  135 206 235  135 206 235  135 206 235  135 206 235  135 206 235  135 206 235  135 206 235  135 206 235  135 206 235  135 206 235  135 206 235  135 206 235  135 206 235  135 206 235  135 206 235  135 206 235  135 206 235  135 206 235  135 206 235  135 206 235  135 206 235  135 206 235  135 206 235  135 206 235  135 206 235  135 206 235  135 206 235  135 206 235  135 206 235  135 206 235  135 206 235  135 206 235  135 206 235  135 206 235  135 206 235  135 206 235  135 206 235  135 206 235  135 206 235  135 206 235  135 206 235  135 206 235  135 206 235  135 206 235  135 206 235  135 206 235  135 206 235  135 206 235  135 206 235  135 206 235  135 206 235  135 206 235  135 206 235  135 206 235  135 206 235  135 206 235  135 206 235  135 206 235  135 206 235  135 206 235  135 206 235  135 206 235  135 206 235  135 206 235  135 206 235  135 206 235  135 206 235  135 206 235  135 206 235  135 206 235  135 206 235  135 206 235  135 206 235  135 206 235  135 206 235  135 206 235  135 206 235  135 206 235  135 206 235  135 206 235  135 206 235  135 206 235  135 206 235  135 206 235  135 206 235  135 206 235  135 206 235  135 206 235  135 206 235  135 206 235  135 206 235  135 206 235  135 206 235  135 206 235  135 206 235  135 206 235  135 206 235  135 206 235  135 206 235  135 206 235  135 206 235  135 206 235  135 206 235  135 206 235  135 206 235  135 206 235  135 206 235  135 206 235  135 206 235  135 206 235  135 206 235  135 206 235  135 206 235  135 206 235  135 206 235  135 206 235  135 206 235  135 206 235  135 206 235  135 206 235  135 206 235  135 206 235  135 206 235  135 206 235  135 206 235  135 206 235  135 206 235  135 206 235  135 206 235  135 206 235  135 206 235  135 206 235  135 206 235  135 206 235  135 206 235  135 206 235  135 206 235  135 206 235  135 206 235  135 206 235  135 206 235  135 206 235  135 206 235  135 206 235  135 206 235  135 206 235  135 206 235  135 206 235  135 206 235  135 206 235  135 206 235  135 206 235  135 206 235  135 206 235  135 206 235  135 206 235  135 206 235  135 206 235  135 206 235  135 206 235  135 206 235  135 206 235  135 206 235  135 206 235  135 206 235  135 206 235  135 206 235  135 206 235  135 206 235  135 206 235  135 206 235  135 206 235  135 206 235  135 206 235  135 206 235  135 206 235  135 206 235  135 206 235  135 206 235  135 206 235  135 206 235  135 206 235  135 206 235  135 206 235  135 206 235  135 206 235  135 206 235  135 206 235  135 206 235  135 206 235  135 206 235  135 206 235  135 206 235  135 206 235  135 206 235  135 206 235  135 206 235  135 206 235  135 206 235  135 206 235  135 206 235  135 206 235  135 206 235  135 206 235  135 206 235  135 206 235  135 206 235  135 206 235  135 206 235  135 206 235  135 206 235  135 206 235  135 206 235  135 206 235  135 206 235  135 206 235  135 206 235  135 206 235  135 206 235  135 206 235  135 206 235  135 206 235  135 206 235  135 206 235  135 206 235  135 206 235  135 206 235  135 206 235  135 206 235  135 206 235  135 206 235  135 206 235  135 206 235  135 206 235  135 206 235  135 206 235  135 206 235  135 206 235  135 206 235  135 206 235  135 206 235  135 206 235  135 206 235  135 206 235  135 206 235  135 206 235  135 206 235  135 206 235  135 206 235  135 206 235  135 206 235  135 206 235  135 206 235  135 206 235  135 206 235  135 206 235  135 206 235  135 206 235  135 206 235  135 206 235  135 206 235  135 206 235  135 206 235  135 206 235  135 206 235  135 206 235  135 206 235  135 206 235  135 206 235  135 206 235  135 206 235  135 206 235  135 206 235  135 206 235  135 206 235  135 206 235  135 206 235  135 206 235  135 206 235  135 206 235  135 206 235  135 206 235  135 206 235  135 206 235  135 206 235  135 206 235  135 206 235  135 206 235  135 206 235  135 206 235  135 206 235  135 206 235
135 206 235  135 206 235  135 206 235  135 206 235  135 206 235  135 206 235  135 206 235  135 206 235  135 206 235  135 206 235  135 206 235  135 206 235  135 206 235  135 206 235  135 206 235  135 206 235  135 206 235  135 206 235  135 206 235  135 206 235  135 206 235  135 206 235  135 206 235  135 206 235  135 206 235  135 206 235  135 206 235  135 206 235  135 206 235  135 206 235  135 206 235  135 206 235  135 206 235  135 206 235  135 206 235  135 206 235  135 206 235  135 206 235  135 206 235  135 206 235  135 206 235  135 206 235  135 206 235  135 206 235  135 206 235  135 206 235  135 206 235  135 206 235  135 206 235  135 206 235  135 206 235  135 206 235  135 206 235  135 206 235  135 206 235  135 206 235  135 206 235  135 206 235  135 206 235  135 206 235  135 206 235  135 206 235  135 206 235  135 206 235  135 206 235  135 206 235  135 206 235  135 206 235  135 206 235  135 206 235  135 206 235  135 206 235  135 206 235  135 206 235  135 206 235  135 206 235  135 206 235  135 206 235  135 206 235  135 206 235  135 206 235  135 206 235  135 206 235  135 206 235  135 206 235  135 206 235  135 206 235  135 206 235  135 206 235  135 206 235  135 206 235  135 206 235  135 206 235  135 206 235  135 206 235  135 206 235  135 206 235  135 206 235  135 206 235  135 206 235  135 206 235  135 206 235  135 206 235  135 206 235  135 206 235  135 206 235  135 206 235  135 206 235  135 206 235  135 206 235  135 206 235  135 206 235  135 206 235  135 206 235  135 206 235  135 206 235  135 206 235  135 206 235  135 206 235  135 206 235  135 206 235  135 206 235  135 206 235  135 206 235  135 206 235  135 206 235  135 206 235  135 206 235  135 206 235  135 206 235  135 206 235  135 206 235  135 206 235  135 206 235  135 206 235  135 206 235  135 206 235  135 206 235  135 206 235  135 206 235  135 206 235  135 206 235  135 206 235  135 206 235  135 206 235  135 206 235  135 206 235  135 206 235  135 206 235  135 206 235  135 206 235  135 206 235  135 206 235  135 206 235  135 206 235  135 206 235  135 206 235  135 206 235  135 206 235  135 206 235  135 206 235  135 206 235  135 206 235  135 206 235  135 206 235  135 206 235  135 206 235  135 206 235  135 206 235  135 206 235  135 206 235  135 206 235  135 206 235  135 206 235  135 206 235  135 206 235  135 206 235  135 206 235  135 206 235  135 206 235  135 206 235  135 206 235  135 206 235  135 206 235  135 206 235  135 206 235  135 206 235  135 206 235  135 206 235  135 206 235  135 206 235  135 206 235  135 206 235  135 206 235  135 206 235  135 206 235  135 206 235  135 206 235  135 206 235  135 206 235  135 206 235  135 206 235  135 206 235  135 206 235  135 206 235  135 206 235  135 206 235  135 206 235  135 206 235  135 206 235  135 206 235  135 206 235  135 206 235  135 206 235  135 206 235  135 206 235  135 206 235  135 206 235  135 206 235  135 206 235  135 206 235  135 206 235  135 206 235  135 206 235  135 206 235  135 206 235  135 206 235  135 206 235  135 206 235  135 206 235  135 206 235  135 206 235  135 206 235  135 206 235  135 206 235  135 206 235  135 206 235  135 206 235  135 206 235  135 206 235  135 206 235  135 206 235  135 206 235  135 206 235  135 206 235  135 206 235  135 206 235  135 206 235  135 206 235  135 206 235  135 206 235  135 206 235  135 206 235  135 206 235  135 206 235  135 206 235  135 206 235  135 206 235  135 206 235  135 206 235  135 206 235  135 206 235  135 206 235  135 206 235  135 206 235  135 206 235  135 206 235  135 206 235  135 206 235  135 206 235  135 206 235  135 206 235  135 206 235  135 206 235  135 206 235  135 206 235  135 206 235  135 206 235  135 206 235  135 206 235  135 206 235  135 206 235  135 206 235  135 206 235  135 206 235  135 206 235  135 206 235  135 206 235  135 206 235  135 206 235  135 206 235  135 206 235  135 206 235  135 206 235  135 206 235  135 206 235  135 206 235  135 206 235  135 206 235  135 206 235  135 206 235  135 206 235  135 206 235  135 206 235  135 206 235  135 206 235  135 206 235  135 206 235  135 206 235  135 206 235  135 206 235  135 206 235  135 206 235  135 206 235  135 206 235  135 206 235  135 206 235  135 206 235  135 206 235  135 206 235
135 206 235  135 206 235  135 206 235  135 206 235  135 206 235  135 206 235  135 206 235  135 206 235  135 206 235  135 206 235  135 206 235  135 206 235  135 206 235  135 206 235  135 206 235  135 206 235  135 206 235  135 206 235  135 206 235  135 206 235  135 206 235  135 206 235  135 206 235  135 206 235  135 206 235  135 206 235  135 206 235  135 206 235  135 206 235  135 206 235  135 206 235  135 206 235  135 206 235  135 206 235  135 206 235  135 206 235  135 206 235  135 206 235  135 206 235  135 206 235  135 206 235  135 206 235  135 206 235  135 206 235  135 206 235  135 206 235  135 206 235  135 206 235  135 206 235  135 206 235  135 206 235  135 206 235  135 206 235  135 206 235  135 206 235  135 206 235  135 206 235  135 206 235  135 206 235  135 206 235  135 206 235  135 206 235  135 206 235  135 206 235  135 206 235  135 206 235  135 206 235  135 206 235  135 206 235  135 206 235  135 206 235  135 206 235  135 206 235  135 206 235  135 206 235  135 206 235  135 206 235  135 206 235  135 206 235  135 206 235  135 206 235  135 206 235  135 206 235  135 206 235  135 206 235  135 206 235  135 206 235  135 206 235  135 206 235  135 206 235  135 206 235  135 206 235  135 206 235  135 206 235  135 206 235  135 206 235  135 206 235  135 206 235  135 206 235  135 206 235  135 206 235  135 206 235  135 206 235  135 206 235  135 206 235  135 206 235  135 206 235  135 206 235  135 206 235  135 206 235  135 206 235  135 206 235  135 206 235  135 206 235  135 206 235  135 206 235  135 206 235  135 206 235  135 206 235  135 206 235  135 206 235  135 206 235  135 206 235  135 206 235  135 206 235  135 206 235  135 206 235  135 206 235  135 206 235  135 206 235  135 206 235  135 206 235  135 206 235  135 206 235  135 206 235  135 206 235  135 206 235  135 206 235  135 206 235  135 206 235  135 206 235  135 206 235  135 206 235  135 206 235  135 206 235  135 206 235  135 206 235  135 206 235  135 206 235  135 206 235  135 206 235  135 206 235  135 206 235  135 206 235  135 206 235  135 206 235  135 206 235  135 206 235  135 206 235  135 206 235  135 206 235  135 206 235  135 206 235  135 206 235  135 206 235  135 206 235  135 206 235  135 206 235  135 206 235  135 206 235  135 206 235  135 206 235  135 206 235  135 206 235  135 206 235  135 206 235  135 206 235  135 206 235  135 206 235  135 206 235  135 206 235  135 206 235  135 206 235  135 206 235  135 206 235  135 206 235  135 206 235  135 206 235  135 206 235  135 206 235  135 206 235  135 206 235  135 206 235  135 206 235  135 206 235  135 206 235  135 206 235  135 206 235  135 206 235  135 206 235  135 206 235  135 206 235  135 206 235  135 206 235  135 206 235  135 206 235  135 206 235  135 206 235  135 206 235  135 206 235  135 206 235  135 206 235  135 206 235  135 206 235  135 206 235  135 206 235  135 206 235  135 206 235  135 206 235  135 206 235  135 206 235  135 206 235  135 206 235  135 206 235  135 206 235  135 206 235  135 206 235  135 206 235  135 206 235  135 206 235  135 206 235  135 206 235  135 206 235  135 206 235  135 206 235  135 206 235  135 206 235  135 206 235  135 206 235  135 206 235  135 206 235  135 206 235  135 206 235  135 206 235  135 206 235  135 206 235  135 206 235  135 206 235  135 206 235  135 206 235  135 206 235  135 206 235  135 206 235  135 206 235  135 206 235  135 206 235  135 206 235  135 206 235  135 206 235  135 206 235  135 206 235  135 206 235  135 206 235  135 206 235  135 206 235  135 206 235  135 206 235  135 206 235  135 206 235  135 206 235  135 206 235  135 206 235  135 206 235  135 206 235  135 206 235  135 206 235  135 206 235  135 206 235  135 206 235  135 206 235  135 206 235  135 206 235  135 206 235  135 206 235  135 206 235  135 206 235  135 206 235  135 206 235  135 206 235  135 206 235  135 206 235  135 206 235  135 206 235  135 206 235  135 206 235  135 206 235  135 206 235  135 206 235  135 206 235  135 206 235  135 206 235  135 206 235  135 206 235  135 206 235  135 206 235  135 206 235  135 206 235  135 206 235  135 206 235  135 206 235  135 206 235  135 206 235  135 206 235  135 206 235  135 206 235  135 206 235  135 206 235  135 206 235  135 206 235  135 206 235
135 206 235  135 206 235  135 206 235  135 206 235  135 206 235  135 206 235  135 206 235  135 206 235  135 206 235  135 206 235  135 206 235  135 206 235  135 206 235  135 206 235  135 206 235  135 206 235  135 206 235  135 206 235  135 206 235  135 206 235  135 206 235  135 206 235  135 206 235  135 206 235  135 206 235  135 206 235  135 206 235  135 206 235  135 206 235  135 206 235  135 206 235  135 206 235  135 206 235  135 206 235  135 206 235  135 206 235  135 206 235  135 206 235  135 206 235  135 206 235  135 206 235  135 206 235  135 206 235  135 206 235  135 206 235  135 206 235  135 206 235  135 206 235  135 206 235  135 206 235  135 206 235  135 206 235  135 206 235  135 206 235  135 206 235  135 206 235  135 206 235  135 206 235  135 206 235  135 206 235  135 206 235  135 206 235  135 206 235  135 206 235  135 206 235  135 206 235  135 206 235  135 206 235  135 206 235  135 206 235  135 206 235  135 206 235  135 206 235  135 206 235  135 206 235  135 206 235  135 206 235  135 206 235  135 206 235  135 206 235  135 206 235  135 206 235  135 206 235  135 206 235  135 206 235  135 206 235  135 206 235  135 206 235  135 206 235  135 206 235  135 206 235  135 206 235  135 206 235  135 206 235  135 206 235  135 206 235  135 206 235  135 206 235  135 206 235  135 206 235  135 206 235  135 206 235  135 206 235  135 206 235  135 206 235  135 206 235  135 206 235  135 206 235  135 206 235  135 206 235  135 206 235  135 206 235  135 206 235  135 206 235  135 206 235  135 206 235  135 206 235  135 206 235  135 206 235  135 206 235  135 206 235  135 206 235  135 206 235  135 206 235  135 206 235  135 206 235  135 206 235  135 206 235  135 206 235  135 206 235  135 206 235  135 206 235  135 206 235  135 206 235  135 206 235  135 206 235  135 206 235  135 206 235  135 206 235  135 206 235  135 206 235  135 206 235  135 206 235  135 206 235  135 206 235  135 206 235  135 206 235  135 206 235  135 206 235  135 206 235  135 206 235  135 206 235  135 206 235  135 206 235  135 206 235  135 206 235  135 206 235  135 206 235  135 206 235  135 206 235  135 206 235  135 206 235  135 206 235  135 206 235  135 206 235  135 206 235  135 206 235  135 206 235  135 206 235  135 206 235  135 206 235  135 206 235  135 206 235  135 206 235  135 206 235  135 206 235  135 206 235  135 206 235  135 206 235  135 206 235  135 206 235  135 206 235  135 206 235  135 206 235  135 206 235  135 206 235  135 206 235  135 206 235  135 206 235  135 206 235  135 206 235  135 206 235  135 206 235  135 206 235  135 206 235  135 206 235  135 206 235  135 206 235  135 206 235  135 206 235  135 206 235  135 206 235  135 206 235  135 206 235  135 206 235  135 206 235  135 206 235  135 206 235  135 206 235  135 206 235  135 206 235  135 206 235  135 206 235  135 206 235  135 206 235  135 206 235  135 206 235  135 206 235  135 206 235  135 206 235  135 206 235  135 206 235  135 206 235  135 206 235  135 206 235  135 206 235  135 206 235  135 206 235  135 206 235  135 206 235  135 206 235  135 206 235  135 206 235  135 206 235  135 206 235  135 206 235  135 206 235  135 206 235  135 206 235  135 206 235  135 206 235  135 206 235  135 206 235  135 206 235  135 206 235  135 206 235  135 206 235  135 206 235  135 206 235  135 206 235  135 206 235  135 206 235  135 206 235  135 206 235  135 206 235  135 206 235  135 206 235  135 206 235  135 206 235  135 206 235  135 206 235  135 206 235  135 206 235  135 206 235  135 206 235  135 206 235  135 206 235  135 206 235  135 206 235  135 206 235  135 206 235  135 206 235  135 206 235  135 206 235  135 206 235  135 206 235  135 206 235  135 206 235  135 206 235  135 206 235  135 206 235  135 206 235  135 206 235  135 206 235  135 206 235  135 206 235  135 206 235  135 206 235  135 206 235  135 206 235  135 206 235  135 206 235  135 206 235  135 206 235  135 206 235  135 206 235  135 206 235  135 206 235  135 206 235  135 206 235  135 206 235  135 206 235  135 206 235  135 206 235  135 206 235  135 206 235  135 206 235  135 206 235  135 206 235  135 206 235  135 206 235  135 206 235  135 206 235  135 206 235  135 206 235  135 206 235  135 206 235  135 206 235  135 206 235  135 206 235
135 206 235  135 206 235  135 206 235  135 206 235  135 206 235  135 206 235  135 206 235  135 206 235  135 206 235  135 206 235  135 206 235  135 206 235  135 206 235  135 206 235  135 206 235  135 206 235  135 206 235  135 206 235  135 206 235  135 206 235  135 206 235  135 206 235  135 206 235  135 206 235  135 206 235  135 206 235  135 206 235  135 206 235  135 206 235  135 206 235  135 206 235  135 206 235  135 206 235  135 206 235  135 206 235  135 206 235  135 206 235  135 206 235  135 206 235  135 206 235  135 206 235  135 206 235  135 206 235  135 206 235  135 206 235  135 206 235  135 206 235  135 206 235  135 206 235  135 206 235  135 206 235  135 206 235  135 206 235  135 206 235  135 206 235  135 206 235  135 206 235  135 206 235  135 206 235  135 206 235  135 206 235  135 206 235  135 206 235  135 206 235  135 206 235  135 206 235  135 206 235  135 206 235  135 206 235  135 206 235  135 206 235  135 206 235  135 206 235  135 206 235  135 206 235  135 206 235  135 206 235  135 206 235  135 206 235  135 206 235  135 206 235  135 206 235  135 206 235  135 206 235  135 206 235  135 206 235  135 206 235  135 206 235  135 206 235  135 206 235  135 206 235  135 206 235  135 206 235  135 206 235  135 206 235  135 206 235  135 206 235  135 206 235  135 206 235  135 206 235  135 206 235  135 206 235  135 206 235  135 206 235  135 206 235  135 206 235  135 206 235  135 206 235  135 206 235  135 206 235  135 206 235  135 206 235  135 206 235  135 206 235  135 206 235  135 206 235  135 206 235  135 206 235  135 206 235  135 206 235  135 206 235  135 206 235  135 206 235  135 206 235  135 206 235  135 206 235  135 206 235  135 206 235  135 206 235  135 206 235  135 206 235  135 206 235  135 206 235  135 206 235  135 206 235  135 206 235  135 206 235  135 206 235  135 206 235  135 206 235  135 206 235  135 206 235  135 206 235  135 206 235  135 206 235  135 206 235  135 206 235  135 206 235  135 206 235  135 206 235  135 206 235  135 206 235  135 206 235  135 206 235  135 206 235  135 206 235  135 206 235  135 206 235  135 206 235  135 206 235  135 206 235  135 206 235  135 206 235  135 206 235  135 206 235  135 206 235  135 206 235  135 206 235  135 206 235  135 206 235  135 206 235  135 206 235  135 206 235  135 206 235  135 206 235  135 206 235  135 206 235  135 206 235  135 206 235  135 206 235  135 206 235  135 206 235  135 206 235  135 206 235  135 206 235  135 206 235  135 206 235  135 206 235  135 206 235  135 206 235  135 206 235  135 206 235  135 206 235  135 206 235  135 206 235  135 206 235  135 206 235  135 206 235  135 206 235  135 206 235  135 206 235  135 206 235  135 206 235  135 206 235  135 206 235  135 206 235  135 206 235  135 206 235  135 206 235  135 206 235  135 206 235  135 206 235  135 206 235  135 206 235  135 206 235  135 206 235  135 206 235  135 206 235  135 206 235  135 206 235  135 206 235  135 206 235  135 206 235  135 206 235  135 206 235  135 206 235  135 206 235  135 206 235  135 206 235  135 206 235  135 206 235  135 206 235  135 206 235  135 206 235  135 206 235  135 206 235  135 206 235  135 206 235  135 206 235  135 206 235  135 206 235  135 206 235  135 206 235  135 206 235  135 206 235  135 206 235  135 206 235  135 206 235  135 206 235  135 206 235  135 206 235  135 206 235  135 206 235  135 206 235  135 206 235  135 206 235  135 206 235  135 206 235  135 206 235  135 206 235  135 206 235  135 206 235  135 206 235  135 206 235  135 206 235  135 206 235  135 206 235  135 206 235  135 206 235  135 206 235  135 206 235  135 206 235  135 206 235  135 206 235  135 206 235  135 206 235  135 206 235  135 206 235  135 206 235  135 206 235  135 206 235  135 206 235  135 206 235  135 206 235  135 206 235  135 206 235  135 206 235  135 206 235  135 206 235  135 206 235  135 206 235  135 206 235  135 206 235  135 206 235  135 206 235  135 206 235  135 206 235  135 206 235  135 206 235  135 206 235  135 206 235  135 206 235  135 206 235  135 206 235  135 206 235  135 206 235  135 206 235  135 206 235  135 206 235  135 206 235  135 206 235  135 206 235  135 206 235  135 206 235  135 206 235  135 206 235  135 206 235  135 206 235  135 206 235  135 206 235
135 206 235  135 206 235  135 206 235  135 206 235  135 206 235  135 206 235  135 206 235  135 206 235  135 206 235  135 206 235  135 206 235  135 206 235  135 206 235  135 206 235  135 206 235  135 206 235  135 206 235  135 206 235  135 206 235  135 206 235  135 206 235  135 206 235  135 206 235  135 206 235  135 206 235  135 206 235  135 206 235  135 206 235  135 206 235  135 206 235  135 206 235  135 206 235  135 206 235  135 206 235  135 206 235  135 206 235  135 206 235  135 206 235  135 206 235  135 206 235  135 206 235  135 206 235  135 206 235  135 206 235  135 206 235  135 206 235  135 206 235  135 206 235  135 206 235  135 206 235  135 206 235  135 206 235  135 206 235  135 206 235  135 206 235  135 206 235  135 206 235  135 206 235  135 206 235  135 206 235  135 206 235  135 206 235  135 206 235  135 206 235  135 206 235  135 206 235  135 206 235  135 206 235  135 206 235  135 206 235  135 206 235  135 206 235  135 206 235  135 206 235  135 206 235  135 206 235  135 206 235  135 206 235  135 206 235  135 206 235  135 206 235  135 206 235  135 206 235  135 206 235  135 206 235  135 206 235  135 206 235  135 206 235  135 206 235  135 206 235  135 206 235  135 206 235  135 206 235  135 206 235  135 206 235  135 206 235  135 206 235  135 206 235  135 206 235  135 206 235  135 206 235  135 206 235  135 206 235  135 206 235  135 206 235  135 206 235  135 206 235  135 206 235  135 206 235  135 206 235  135 206 235  135 206 235  135 206 235  135 206 235  135 206 235  135 206 235  135 206 235  135 206 235  135 206 235  135 206 235  135 206 235  135 206 235  135 206 235  135 206 235  135 206 235  135 206 235  135 206 235  135 206 235  135 206 235  135 206 235  135 206 235  135 206 235  135 206 235  135 206 235  135 206 235  135 206 235  135 206 235  135 206 235  135 206 235  135 206 235  135 206 235  135 206 235  135 206 235  135 206 235  135 206 235  135 206 235  135 206 235  135 206 235  135 206 235  135 206 235  135 206 235  135 206 235  135 206 235  135 206 235  135 206 235  135 206 235  135 206 235  135 206 235  135 206 235  135 206 235  135 206 235  135 206 235  135 206 235  135 206 235  135 206 235  135 206 235  135 206 235  135 206 235  135 206 235  135 206 235  135 206 235  135 206 235  135 206 235  135 206 235  135 206 235  135 206 235  135 206 235  135 206 235  135 206 235  135 206 235  135 206 235  135 206 235  135 206 235  135 206 235  135 206 235  135 206 235  135 206 235  135 206 235  135 206 235  135 206 235  135 206 235  135 206 235  135 206 235  135 206 235  135 206 235  135 206 235  135 206 235  135 206 235  135 206 235  135 206 235  135 206 235  135 206 235  135 206 235  135 206 235  135 206 235  135 206 235  135 206 235  135 206 235  135 206 235  135 206 235  135 206 235  135 206 235  135 206 235  135 206 235  135 206 235  135 206 235  135 206 235  135 206 235  135 206 235  135 206 235  135 206 235  135 206 235  135 206 235  135 206 235  135 206 235  135 206 235  135 206 235  135 206 235  135 206 235  135 206 235  135 206 235  135 206 235  135 206 235  135 206 235  135 206 235  135 206 235  135 206 235  135 206 235  135 206 235  135 206 235  135 206 235  135 206 235  135 206 235  135 206 235  135 206 235  135 206 235  135 206 235  135 206 235  135 206 235  135 206 235  135 206 235  135 206 235  135 206 235  135 206 235  135 206 235  135 206 235  135 206 235  135 206 235  135 206 235  135 206 235  135 206 235  135 206 235  135 206 235  135 206 235  135 206 235  135 206 235  135 206 235  135 206 235  135 206 235  135 206 235  135 206 235  135 206 235  135 206 235  135 206 235  135 206 235  135 206 235  135 206 235  135 206 235  135 206 235  135 206 235  135 206 235  135 206 235  135 206 235  135 206 235  135 206 235  135 206 235  135 206 235  135 206 235  135 206 235  135 206 235  135 206 235  135 206 235  135 206 235  135 206 235  135 206 235  135 206 235  135 206 235  135 206 235  135 206 235  135 206 235  135 206 235  135 206 235  135 206 235  135 206 235  135 206 235  135 206 235  135 206 235  135 206 235  135 206 235  135 206 235  135 206 235  135 206 235  135 206 235  135 206 235  135 206 235  135 206 235  135 206 235  135 206 235  135 206 235  135 206 235
135 206 235  135 206 235  135 206 235  135 206 235  135 206 235  135 206 235  135 206 235  135 206 235  135 206 235  135 206 235  135 206 235  135 206 235  135 206 235  135 206 235  135 206 235  135 206 235  135 206 235  135 206 235  135 206 235  135 206 235  135 206 235  135 206 235  135 206 235  135 206 235  135 206 235  135 206 235  135 206 235  135 206 235  135 206 235  135 206 235  135 206 235  135 206 235  135 206 235  135 206 235  135 206 235  135 206 235  135 206 235  135 206 235  135 206 235  135 206 235  135 206 235  135 206 235  135 206 235  135 206 235  135 206 235  135 206 235  135 206 235  135 206 235  135 206 235  135 206 235  135 206 235  135 206 235  135 206 235  135 206 235  135 206 235  135 206 235  135 206 235  135 206 235  135 206 235  135 206 235  135 206 235  135 206 235  135 206 235  135 206 235  135 206 235  135 206 235  135 206 235  135 206 235  135 206 235  135 206 235  135 206 235  135 206 235  135 206 235  135 206 235  135 206 235  135 206 235  135 206 235  135 206 235  135 206 235  135 206 235  135 206 235  135 206 235  135 206 235  135 206 235  135 206 235  135 206 235  135 206 235  135 206 235  135 206 235  135 206 235  135 206 235  135 206 235  135 206 235  135 206 235  135 206 235  135 206 235  135 206 235  135 206 235  135 206 235  135 206 235  135 206 235  135 206 235  135 206 235  135 206 235  135 206 235  135 206 235  135 206 235  135 206 235  135 206 235  135 206 235  135 206 235  135 206 235  135 206 235  135 206 235  135 206 235  135 206 235  135 206 235  135 206 235  135 206 235  135 206 235  135 206 235  135 206 235  135 206 235  135 206 235  135 206 235  135 206 235  135 206 235  135 206 235  135 206 235  135 206 235  135 206 235  135 206 235  135 206 235  135 206 235  135 206 235  135 206 235  135 206 235  135 206 235  135 206 235  135 206 235  135 206 235  135 206 235  135 206 235  135 206 235  135 206 235  135 206 235  135 206 235  135 206 235  135 206 235  135 206 235  135 206 235  135 206 235  135 206 235  135 206 235  135 206 235  135 206 235  135 206 235  135 206 235  135 206 235  135 206 235  135 206 235  135 206 235  135 206 235  135 206 235  135 206 235  135 206 235  135 206 235  135 206 235  135 206 235  135 206 235  135 206 235  135 206 235  135 206 235  135 206 235  135 206 235  135 206 235  135 206 235  135 206 235  135 206 235  135 206 235  135 206 235  135 206 235  135 206 235  135 206 235  135 206 235  135 206 235  135 206 235  135 206 235  135 206 235  135 206 235  135 206 235  135 206 235  135 206 235  135 206 235  135 206 235  135 206 235  135 206 235  135 206 235  135 206 235  135 206 235  135 206 235  135 206 235  135 206 235  135 206 235  135 206 235  135 206 235  135 206 235  135 206 235  135 206 235  135 206 235  135 206 235  135 206 235  135 206 235  135 206 235  135 206 235  135 206 235  135 206 235  135 206 235  135 206 235  135 206 235  135 206 235  135 206 235  135 206 235  135 206 235  135 206 235  135 206 235  135 206 235  135 206 235  135 206 235  135 206 235  135 206 235  135 206 235  135 206 235  135 206 235  135 206 235  135 206 235  135 206 235  135 206 235  135 206 235  135 206 235  135 206 235  135 206 235  135 206 235  135 206 235  135 206 235  135 206 235  135 206 235  135 206 235  135 206 235  135 206 235  135 206 235  135 206 235  135 206 235  135 206 235  135 206 235  135 206 235  135 206 235  135 206 235  135 206 235  135 206 235  135 206 235  135 206 235  135 206 235  135 206 235  135 206 235  135 206 235  135 206 235  135 206 235  135 206 235  135 206 235  135 206 235  135 206 235  135 206 235  135 206 235  135 206 235  135 206 235  135 206 235  135 206 235  135 206 235  135 206 235  135 206 235  135 206 235  135 206 235  135 206 235  135 206 235  135 206 235  135 206 235  135 206 235  135 206 235  135 206 235  135 206 235  135 206 235  135 206 235  135 206 235  135 206 235  135 206 235  135 206 235  135 206 235  135 206 235  135 206 235  135 206 235  135 206 235  135 206 235  135 206 235  135 206 235  135 206 235  135 206 235  135 206 235  135 206 235  135 206 235  135 206 235  135 206 235  135 206 235  135 206 235  135 206 235  135 206 235  135 206 235  135 206 235  135 206 235  135 206 235
135 206 235  135 206 235  135 206 235  135 206 235  135 206 235  135 206 235  135 206 235  135 206 235  135 206 235  135 206 235  135 206 235  135 206 235  135 206 235  135 206 235  135 206 235  135 206 235  135 206 235  135 206 235  135 206 235  135 206 235  135 206 235  135 206 235  135 206 235  135 206 235  135 206 235  135 206 235  135 206 235  135 206 235  135 206 235  135 206 235  135 206 235  135 206 235  135 206 235  135 206 235  135 206 235  135 206 235  135 206 235  135 206 235  135 206 235  135 206 235  135 206 235  135 206 235  135 206 235  135 206 235  135 206 235  135 206 235  135 206 235  135 206 235  135 206 235  135 206 235  135 206 235  135 206 235  135 206 235  135 206 235  135 206 235  135 206 235  135 206 235  135 206 235  135 206 235  135 206 235  135 206 235  135 206 235  135 206 235  135 206 235  135 206 235  135 206 235  135 206 235  135 206 235  135 206 235  135 206 235  135 206 235  135 206 235  135 206 235  135 206 235  135 206 235  135 206 235  135 206 235  135 206 235  135 206 235  135 206 235  135 206 235  135 206 235  135 206 235  135 206 235  135 206 235  135 206 235  135 206 235  135 206 235  135 206 235  135 206 235  135 206 235  135 206 235  135 206 235  135 206 235  135 206 235  135 206 235  135 206 235  135 206 235  135 206 235  135 206 235  135 206 235  135 206 235  135 206 235  135 206 235  135 206 235  135 206 235  135 206 235  135 206 235  135 206 235  135 206 235  135 206 235  135 206 235  135 206 235  135 206 235  135 206 235  135 206 235  135 206 235  135 206 235  135 206 235  135 206 235  135 206 235  135 206 235  135 206 235  135 206 235  135 206 235  135 206 235  135 206 235  135 206 235  135 206 235  135 206 235  135 206 235  135 206 235  135 206 235  135 206 235  135 206 235  135 206 235  135 206 235  135 206 235  135 206 235  135 206 235  135 206 235  135 206 235  135 206 235  135 206 235  135 206 235  135 206 235  135 206 235  135 206 235  135 206 235  135 206 235  135 206 235  135 206 235  135 206 235  135 206 235  135 206 235  135 206 235  135 206 235  135 206 235  135 206 235  135 206 235  135 206 235  135 206 235  135 206 235  135 206 235  135 206 235  135 206 235  135 206 235  135 206 235  135 206 235  135 206 235  135 206 235  135 206 235  135 206 235  135 206 235  135 206 235  135 206 235  135 206 235  135 206 235  135 206 235  135 206 235  135 206 235  135 206 235  135 206 235  135 206 235  135 206 235  135 206 235  135 206 235  135 206 235  135 206 235  135 206 235  135 206 235  135 206 235  135 206 235  135 206 235  135 206 235  135 206 235  135 206 235  135 206 235  135 206 235  135 206 235  135 206 235  135 206 235  135 206 235  135 206 235  135 206 235  135 206 235  135 206 235  135 206 235  135 206 235  135 206 235  135 206 235  135 206 235  135 206 235  135 206 235  135 206 235  135 206 235  135 206 235  135 206 235  135 206 235  135 206 235  135 206 235  135 206 235  135 206 235  135 206 235  135 206 235  135 206 235  135 206 235  135 206 235  135 206 235  135 206 235  135 206 235  135 206 235  135 206 235  135 206 235  135 206 235  135 206 235  135 206 235  135 206 235  135 206 235  135 206 235  135 206 235  135 206 235  135 206 235  135 206 235  135 206 235  135 206 235  135 206 235  135 206 235  135 206 235  135 206 235  135 206 235  135 206 235  135 206 235  135 206 235  135 206 235  135 206 235  135 206 235  135 206 235  135 206 235  135 206 235  135 206 235  135 206 235  135 206 235  135 206 235  135 206 235  135 206 235  135 206 235  135 206 235  135 206 235  135 206 235  135 206 235  135 206 235  135 206 235  135 206 235  135 206 235  135 206 235  135 206 235  135 206 235  135 206 235  135 206 235  135 206 235  135 206 235  135 206 235  135 206 235  135 206 235  135 206 235  135 206 235  135 206 235  135 206 235  135 206 235  135 206 235  135 206 235  135 206 235  135 206 235  135 206 235  135 206 235  135 206 235  135 206 235  135 206 235  135 206 235  135 206 235  135 206 235  135 206 235  135 206 235  135 206 235  135 206 235  135 206 235  135 206 235  135 206 235  135 206 235  135 206 235  135 206 235  135 206 235  135 206 235  135 206 235  135 206 235  135 206 235  135 206 235  135 206 235  135 206 235
135 206 235  135 206 235  135 206 235  135 206 235  135 206 235  135 206 235  135 206 235  135 206 235  135 206 235  135 206 235  135 206 235  135 206 235  135 206 235  135 206 235  135 206 235  135 206 235  135 206 235  135 206 235  135 206 235  135 206 235  135 206 235  135 206 235  135 206 235  135 206 235  135 206 235  135 206 235  135 206 235  135 206 235  135 206 235  135 206 235  135 206 235  135 206 235  135 206 235  135 206 235  135 206 235  135 206 235  135 206 235  135 206 235  135 206 235  135 206 235  135 206 235  135 206 235  135 206 235  135 206 235  135 206 235  135 206 235  135 206 235  135 206 235  135 206 235  135 206 235  135 206 235  135 206 235  135 206 235  135 206 235  135 206 235  135 206 235  135 206 235  135 206 235  135 206 235  135 206 235  135 206 235  135 206 235  135 206 235  135 206 235  135 206 235  135 206 235  135 206 235  135 206 235  135 206 235  135 206 235  135 206 235  135 206 235  135 206 235  135 206 235  135 206 235  135 206 235  135 206 235  135 206 235  135 206 235  135 206 235  135 206 235  135 206 235  135 206 235  135 206 235  135 206 235  135 206 235  135 206 235  135 206 235  135 206 235  135 206 235  135 206 235  135 206 235  135 206 235  135 206 235  135 206 235  135 206 235  135 206 235  135 206 235  135 206 235  135 206 235  135 206 235  135 206 235  135 206 235  135 206 235  135 206 235  135 206 235  135 206 235  135 206 235  135 206 235  135 206 235  135 206 235  135 206 235  135 206 235  135 206 235  135 206 235  135 206 235  135 206 235  135 206 235  135 206 235  135 206 235  135 206 235  135 206 235  135 206 235  135 206 235  135 206 235  135 206 235  135 206 235  135 206 235  135 206 235  135 206 235  135 206 235  135 206 235  135 206 235  135 206 235  135 206 235  135 206 235  135 206 235  135 206 235  135 206 235  135 206 235  135 206 235  135 206 235  135 206 235  135 206 235  135 206 235  135 206 235  135 206 235  135 206 235  135 206 235  135 206 235  135 206 235  135 206 235  135 206 235  135 206 235  135 206 235  135 206 235  135 206 235  135 206 235  135 206 235  135 206 235  135 206 235  135 206 235  135 206 235  135 206 235  135 206 235  135 206 235  135 206 235  135 206 235  135 206 235  135 206 235  135 206 235  135 206 235  135 206 235  135 206 235  135 206 235  135 206 235  135 206 235  135 206 235  135 206 235  135 206 235  135 206 235  135 206 235  135 206 235  135 206 235  135 206 235  135 206 235  135 206 235  135 206 235  135 206 235  135 206 235  135 206 235  135 206 235  135 206 235  135 206 235  135 206 235  135 206 235  135 206 235  135 206 235  135 206 235  135 206 235  135 206 235  135 206 235  135 206 235  135 206 235  135 206 235  135 206 235  135 206 235  135 206 235  135 206 235  135 206 235  135 206 235  135 206 235  135 206 235  135 206 235  135 206 235  135 206 235  135 206 235  135 206 235  135 206 235  135 206 235  135 206 235  135 206 235  135 206 235  135 206 235  135 206 235  135 206 235  135 206 235  135 206 235  135 206 235  135 206 235  135 206 235  135 206 235  135 206 235  135 206 235  135 206 235  135 206 235  135 206 235  135 206 235  135 206 235  135 206 235  135 206 235  135 206 235  135 206 235  135 206 235  135 206 235  135 206 235  135 206 235  135 206 235  135 206 235  135 206 235  135 206 235  135 206 235  135 206 235  135 206 235  135 206 235  135 206 235  135 206 235  135 206 235  135 206 235  135 206 235  135 206 235  135 206 235  135 206 235  135 206 235  135 206 235  135 206 235  135 206 235  135 206 235  135 206 235  135 206 235  135 206 235  135 206 235  135 206 235  135 206 235  135 206 235  135 206 235  135 206 235  135 206 235  135 206 235  135 206 235  135 206 235  135 206 235  135 206 235  135 206 235  135 206 235  135 206 235  135 206 235  135 206 235  135 206 235  135 206 235  135 206 235  135 206 235  135 206 235  135 206 235  135 206 235  135 206 235  135 206 235  135 206 235  135 206 235  135 206 235  135 206 235  135 206 235  135 206 235  135 206 235  135 206 235  135 206 235  135 206 235  135 206 235  135 206 235  135 206 235  135 206 235  135 206 235  135 206 235  135 206 235  135 206 235  135 206 235  135 206 235  135 206 235  135 206 235  135 206 235
135 206 235  135 206 235  135 206 235  135 206 235  135 206 235  135 206 235  135 206 235  135 206 235  135 206 235  135 206 235  135 206 235  135 206 235  135 206 235  135 206 235  135 206 235  135 206 235  135 206 235  135 206 235  135 206 235  135 206 235  135 206 235  135 206 235  135 206 235  135 206 235  135 206 235  135 206 235  135 206 235  135 206 235  135 206 235  135 206 235  135 206 235  135 206 235  135 206 235  135 206 235  135 206 235  135 206 235  135 206 235  135 206 235  135 206 235  135 206 235  135 206 235  135 206 235  135 206 235  135 206 235  135 206 235  135 206 235  135 206 235  135 206 235  135 206 235  135 206 235  135 206 235  135 206 235  135 206 235  135 206 235  135 206 235  135 206 235  135 206 235  135 206 235  135 206 235  135 206 235  135 206 235  135 206 235  135 206 235  135 206 235  135 206 235  135 206 235  135 206 235  135 206 235  135 206 235  135 206 235  135 206 235  135 206 235  135 206 235  135 206 235  135 206 235  135 206 235  135 206 235  135 206 235  135 206 235  135 206 235  135 206 235  135 206 235  135 206 235  135 206 235  135 206 235  135 206 235  135 206 235  135 206 235  135 206 235  135 206 235  135 206 235  135 206 235  135 206 235  135 206 235  135 206 235  135 206 235  135 206 235  135 206 235  135 206 235  135 206 235  135 206 235  135 206 235  135 206 235  135 206 235  135 206 235  135 206 235  135 206 235  135 206 235  135 206 235  135 206 235  135 206 235  135 206 235  135 206 235  135 206 235  135 206 235  135 206 235  135 206 235  135 206 235  135 206 235  135 206 235  135 206 235  135 206 235  135 206 235  135 206 235  135 206 235  135 206 235  135 206 235  135 206 235  135 206 235  135 206 235  135 206 235  135 206 235  135 206 235  135 206 235  135 206 235  135 206 235  135 206 235  135 206 235  135 206 235  135 206 235  135 206 235  135 206 235  135 206 235  135 206 235  135 206 235  135 206 235  135 206 235  135 206 235  135 206 235  135 206 235  135 206 235  135 206 235  135 206 235  135 206 235  135 206 235  135 206 235  135 206 235  135 206 235  135 206 235  135 206 235  135 206 235  135 206 235  135 206 235  135 206 235  135 206 235  135 206 235  135 206 235  135 206 235  135 206 235  135 206 235  135 206 235  135 206 235  135 206 235  135 206 235  135 206 235  135 206 235  135 206 235  135 206 235  135 206 235  135 206 235  135 206 235  135 206 235  135 206 235  135 206 235  135 206 235  135 206 235  135 206 235  135 206 235  135 206 235  135 206 235  135 206 235  135 206 235  135 206 235  135 206 235  135 206 235  135 206 235  135 206 235  135 206 235  135 206 235  135 206 235  135 206 235  135 206 235  135 206 235  135 206 235  135 206 235  135 206 235  135 206 235  135 206 235  135 206 235  135 206 235  135 206 235  135 206 235  135 206 235  135 206 235  135 206 235  135 206 235  135 206 235  135 206 235  135 206 235  135 206 235  135 206 235  135 206 235  135 206 235  135 206 235  135 206 235  135 206 235  135 206 235  135 206 235  135 206 235  135 206 235  135 206 235  135 206 235  135 206 235  135 206 235  135 206 235  135 206 235  135 206 235  135 206 235  135 206 235  135 206 235  135 206 235  135 206 235  135 206 235  135 206 235  135 206 235  135 206 235  135 206 235  135 206 235  135 206 235  135 206 235  135 206 235  135 206 235  135 206 235  135 206 235  135 206 235  135 206 235  135 206 235  135 206 235  135 206 235  135 206 235  135 206 235  135 206 235  135 206 235  135 206 235  135 206 235  135 206 235  135 206 235  135 206 235  135 206 235  135 206 235  135 206 235  135 206 235  135 206 235  135 206 235  135 206 235  135 206 235  135 206 235  135 206 235  135 206 235  135 206 235  135 206 235  135 206 235  135 206 235  135 206 235  135 206 235  135 206 235  135 206 235  135 206 235  135 206 235  135 206 235  135 206 235  135 206 235  135 206 235  135 206 235  135 206 235  135 206 235  135 206 235  135 206 235  135 206 235  135 206 235  135 206 235  135 206 235  135 206 235  135 206 235  135 206 235  135 206 235  135 206 235  135 206 235  135 206 235  135 206 235  135 206 235  135 206 235  135 206 235  135 206 235  135 206 235  135 206 235  135 206 235  135 206 235  135 206 235  135 206 235
135 206 235  135 206 235  135 206 235  135 206 235  135 206 235  135 206 235  135 206 235  135 206 235  135 206 235  135 206 235  135 206 235  135 206 235  135 206 235  135 206 235  135 206 235  135 206 235  135 206 235  135 206 235  135 206 235  135 206 235  135 206 235  135 206 235  135 206 235  135 206 235  135 206 235  135 206 235  135 206 235  135 206 235  135 206 235  135 206 235  135 206 235  135 206 235  135 206 235  135 206 235  135 206 235  135 206 235  135 206 235  135 206 235  135 206 235  135 206 235  135 206 235  135 206 235  135 206 235  135 206 235  135 206 235  135 206 235  135 206 235  135 206 235  135 206 235  135 206 235  135 206 235  135 206 235  135 206 235  135 206 235  135 206 235  135 206 235  135 206 235  135 206 235  135 206 235  135 206 235  135 206 235  135 206 235  135 206 235  135 206 235  135 206 235  135 206 235  135 206 235  135 206 235  135 206 235  135 206 235  135 206 235  135 206 235  135 206 235  135 206 235  135 206 235  135 206 235  135 206 235  135 206 235  135 206 235  135 206 235  135 206 235  135 206 235  135 206 235  135 206 235  135 206 235  135 206 235  135 206 235  135 206 235  135 206 235  135 206 235  135 206 235  135 206 235  135 206 235  135 206 235  135 206 235  135 206 235  135 206 235  135 206 235  135 206 235  135 206 235  135 206 235  135 206 235  135 206 235  135 206 235  135 206 235  135 206 235  135 206 235  135 206 235  135 206 235  135 206 235  135 206 235  135 206 235  135 206 235  135 206 235  135 206 235  135 206 235  135 206 235  135 206 235  135 206 235  135 206 235  135 206 235  135 206 235  135 206 235  135 206 235  135 206 235  135 206 235  135 206 235  135 206 235  135 206 235  135 206 235  135 206 235  135 206 235  135 206 235  135 206 235  135 206 235  135 206 235  135 206 235  135 206 235  135 206 235  135 206 235  135 206 235  135 206 235  135 206 235  135 206 235  135 206 235  135 206 235  135 206 235  135 206 235  135 206 235  135 206 235  135 206 235  135 206 235  135 206 235  135 206 235  135 206 235  135 206 235  135 206 235  135 206 235  135 206 235  135 206 235  135 206 235  135 206 235  135 206 235  135 206 235  135 206 235  135 206 235  135 206 235  135 206 235  135 206 235  135 206 235  135 206 235  135 206 235  135 206 235  135 206 235  135 206 235  135 206 235  135 206 235  135 206 235  135 206 235  135 206 235  135 206 235  135 206 235  135 206 235  135 206 235  135 206 235  135 206 235  135 206 235  135 206 235  135 206 235  135 206 235  135 206 235  135 206 235  135 206 235  135 206 235  135 206 235  135 206 235  135 206 235  135 206 235  135 206 235  135 206 235  135 206 235  135 206 235  135 206 235  135 206 235  135 206 235  135 206 235  135 206 235  135 206 235  135 206 235  135 206 235  135 206 235  135 206 235  135 206 235  135 206 235  135 206 235  135 206 235  135 206 235  135 206 235  135 206 235  135 206 235  135 206 235  135 206 235  135 206 235  135 206 235  135 206 235  135 206 235  135 206 235  135 206 235  135 206 235  135 206 235  135 206 235  135 206 235  135 206 235  135 206 235  135 206 235  135 206 235  135 206 235  135 206 235  135 206 235  135 206 235  135 206 235  135 206 235  135 206 235  135 206 235  135 206 235  135 206 235  135 206 235  135 206 235  135 206 235  135 206 235  135 206 235  135 206 235  135 206 235  135 206 235  135 206 235  135 206 235  135 206 235  135 206 235  135 206 235  135 206 235  135 206 235  135 206 235  135 206 235  135 206 235  135 206 235  135 206 235  135 206 235  135 206 235  135 206 235  135 206 235  135 206 235  135 206 235  135 206 235  135 206 235  135 206 235  135 206 235  135 206 235  135 206 235  135 206 235  135 206 235  135 206 235  135 206 235  135 206 235  135 206 235  135 206 235  135 206 235  135 206 235  135 206 235  135 206 235  135 206 235  135 206 235  135 206 235  135 206 235  135 206 235  135 206 235  135 206 235  135 206 235  135 206 235  135 206 235  135 206 235  135 206 235  135 206 235  135 206 235  135 206 235  135 206 235  135 206 235  135 206 235  135 206 235  135 206 235  135 206 235  135 206 235  135 206 235  135 206 235  135 206 235  135 206 235  135 206 235  135 206 235  135 206 235  135 206 235  135 206 235
135 206 235  135 206 235  135 206 235  135 206 235  135 206 235  135 206 235  135 206 235  135 206 235  135 206 235  135 206 235  135 206 235  135 206 235  135 206 235  135 206 235  135 206 235  135 206 235  135 206 235  135 206 235  135 206 235  135 206 235  135 206 235  135 206 235  135 206 235  135 206 235  135 206 235  135 206 235  135 206 235  135 206 235  135 206 235  135 206 235  135 206 235  135 206 235  135 206 235  135 206 235  135 206 235  135 206 235  135 206 235  135 206 235  135 206 235  135 206 235  135 206 235  135 206 235  135 206 235  135 206 235  135 206 235  135 206 235  135 206 235  135 206 235  135 206 235  135 206 235  135 206 235  135 206 235  135 206 235  135 206 235  135 206 235  135 206 235  135 206 235  135 206 235  135 206 235  135 206 235  135 206 235  135 206 235  135 206 235  135 206 235  135 206 235  135 206 235  135 206 235  135 206 235  135 206 235  135 206 235  135 206 235  135 206 235  135 206 235  135 206 235  135 206 235  135 206 235  135 206 235  135 206 235  135 206 235  135 206 235  135 206 235  135 206 235  135 206 235  135 206 235  135 206 235  135 206 235  135 206 235  135 206 235  135 206 235  135 206 235  135 206 235  135 206 235  135 206 235  135 206 235  135 206 235  135 206 235  135 206 235  135 206 235  135 206 235  135 206 235  135 206 235  135 206 235  135 206 235  135 206 235  135 206 235  135 206 235  135 206 235  135 206 235  135 206 235  135 206 235  135 206 235  135 206 235  135 206 235  135 206 235  135 206 235  135 206 235  135 206 235  135 206 235  135 206 235  135 206 235  135 206 235  135 206 235  135 206 235  135 206 235  135 206 235  135 206 235  135 206 235  135 206 235  135 206 235  135 206 235  135 206 235  135 206 235  135 206 235  135 206 235  135 206 235  135 206 235  135 206 235  135 206 235  135 206 235  135 206 235  135 206 235  135 206 235  135 206 235  135 206 235  135 206 235  135 206 235  135 206 235  135 206 235  135 206 235  135 206 235  135 206 235  135 206 235  135 206 235  135 206 235  135 206 235  135 206 235  135 206 235  135 206 235  135 206 235  135 206 235  135 206 235  135 206 235  135 206 235  135 206 235  135 206 235  135 206 235  135 206 235  135 206 235  135 206 235  135 206 235  135 206 235  135 206 235  135 206 235  135 206 235  135 206 235  135 206 235  135 206 235  135 206 235  135 206 235  135 206 235  135 206 235  135 206 235  135 206 235  135 206 235  135 206 235  135 206 235  135 206 235  135 206 235  135 206 235  135 206 235  135 206 235  135 206 235  135 206 235  135 206 235  135 206 235  135 206 235  135 206 235  135 206 235  135 206 235  135 206 235  135 206 235  135 206 235  135 206 235  135 206 235  135 206 235  135 206 235  135 206 235  135 206 235  135 206 235  135 206 235  135 206 235  135 206 235  135 206 235  135 206 235  135 206 235  135 206 235  135 206 235  135 206 235  135 206 235  135 206 235  135 206 235  135 206 235  135 206 235  135 206 235  135 206 235  135 206 235  135 206 235  135 206 235  135 206 235  135 206 235  135 206 235  135 206 235  135 206 235  135 206 235  135 206 235  135 206 235  135 206 235  135 206 235  135 206 235  135 206 235  135 206 235  135 206 235  135 206 235  135 206 235  135 206 235  135 206 235  135 206 235  135 206 235  135 206 235  135 206 235  135 206 235  135 206 235  135 206 235  135 206 235  135 206 235  135 206 235  135 206 235  135 206 235  135 206 235  135 206 235  135 206 235  135 206 235  135 206 235  135 206 235  135 206 235  135 206 235  135 206 235  135 206 235  135 206 235  135 206 235  135 206 235  135 206 235  135 206 235  135 206 235  135 206 235  135 206 235  135 206 235  135 206 235  135 206 235  135 206 235  135 206 235  135 206 235  135 206 235  135 206 235  135 206 235  135 206 235  135 206 235  135 206 235  135 206 235  135 206 235  135 206 235  135 206 235  135 206 235  135 206 235  135 206 235  135 206 235  135 206 235  135 206 235  135 206 235  135 206 235  135 206 235  135 206 235  135 206 235  135 206 235  135 206 235  135 206 235  135 206 235  135 206 235  135 206 235  135 206 235  135 206 235  135 206 235  135 206 235  135 206 235  135 206 235  135 206 235  135 206 235  135 206 235  135 206 235  135 206 235
135 206 235  135 206 235  135 206 235  135 206 235  135 206 235  135 206 235  135 206 235  135 206 235  135 206 235  135 206 235  135 206 235  135 206 235  135 206 235  135 206 235  135 206 235  135 206 235  135 206 235  135 206 235  135 206 235  135 206 235  135 206 235  135 206 235  135 206 235  135 206 235  135 206 235  135 206 235  135 206 235  135 206 235  135 206 235  135 206 235  135 206 235  135 206 235  135 206 235  135 206 235  135 206 235  135 206 235  135 206 235  135 206 235  135 206 235  135 206 235  135 206 235  135 206 235  135 206 235  135 206 235  135 206 235  135 206 235  135 206 235  135 206 235  135 206 235  135 206 235  135 206 235  135 206 235  135 206 235  135 206 235  135 206 235  135 206 235  135 206 235  135 206 235  135 206 235  135 206 235  135 206 235  135 206 235  135 206 235  135 206 235  135 206 235  135 206 235  135 206 235  135 206 235  135 206 235  135 206 235  135 206 235  135 206 235  135 206 235  135 206 235  135 206 235  135 206 235  135 206 235  135 206 235  135 206 235  135 206 235  135 206 235  135 206 235  135 206 235  135 206 235  135 206 235  135 206 235  135 206 235  135 206 235  135 206 235  135 206 235  135 206 235  135 206 235  135 206 235  135 206 235  135 206 235  135 206 235  135 206 235  135 206 235  135 206 235  135 206 235  135 206 235  135 206 235  135 206 235  135 206 235  135 206 235  135 206 235  135 206 235  135 206 235  135 206 235  135 206 235  135 206 235  135 206 235  135 206 235  135 206 235  135 206 235  135 206 235  135 206 235  135 206 235  135 206 235  135 206 235  135 206 235  135 206 235  135 206 235  135 206 235  135 206 235  135 206 235  135 206 235  135 206 235  135 206 235  135 206 235  135 206 235  135 206 235  135 206 235  135 206 235  135 206 235  135 206 235  135 206 235  135 206 235  135 206 235  135 206 235  135 206 235  135 206 235  135 206 235  135 206 235  135 206 235  135 206 235  135 206 235  135 206 235  135 206 235  135 206 235  135 206 235  135 206 235  135 206 235  135 206 235  135 206 235  135 206 235  135 206 235  135 206 235  135 206 235  135 206 235  135 206 235  135 206 235  135 206 235  135 206 235  135 206 235  135 206 235  135 206 235  135 206 235  135 206 235  135 206 235  135 206 235  135 206 235  135 206 235  135 206 235  135 206 235  135 206 235  135 206 235  135 206 235  135 206 235  135 206 235  135 206 235  135 206 235  135 206 235  135 206 235  135 206 235  135 206 235  135 206 235  135 206 235  135 206 235  135 206 235  135 206 235  135 206 235  135 206 235  135 206 235  135 206 235  135 206 235  135 206 235  135 206 235  135 206 235  135 206 235  135 206 235  135 206 235  135 206 235  135 206 235  135 206 235  135 206 235  135 206 235  135 206 235  135 206 235  135 206 235  135 206 235  135 206 235  135 206 235  135 206 235  135 206 235  135 206 235  135 206 235  135 206 235  135 206 235  135 206 235  135 206 235  135 206 235  135 206 235  135 206 235  135 206 235  135 206 235  135 206 235  135 206 235  135 206 235  135 206 235  135 206 235  135 206 235  135 206 235  135 206 235  135 206 235  135 206 235  135 206 235  135 206 235  135 206 235  135 206 235  135 206 235  135 206 235  135 206 235  135 206 235  135 206 235  135 206 235  135 206 235  135 206 235  135 206 235  135 206 235  135 206 235  135 206 235  135 206 235  135 206 235  135 206 235  135 206 235  135 206 235  135 206 235  135 206 235  135 206 235  135 206 235  135 206 235  135 206 235  135 206 235  135 206 235  135 206 235  135 206 235  135 206 235  135 206 235  135 206 235  135 206 235  135 206 235  135 206 235  135 206 235  135 206 235  135 206 235  135 206 235  135 206 235  135 206 235  135 206 235  135 206 235  135 206 235  135 206 235  135 206 235  135 206 235  135 206 235  135 206 235  135 206 235  135 206 235  135 206 235  135 206 235  135 206 235  135 206 235  135 206 235  135 206 235  135 206 235  135 206 235  135 206 235  135 206 235  135 206 235  135 206 235  135 206 235  135 206 235  135 206 235  135 206 235  135 206 235  135 206 235  135 206 235  135 206 235  135 206 235  135 206 235  135 206 235  135 206 235  135 206 235  135 206 235  135 206 235  135 206 235  135 206 235  135 206 235  135 206 235
135 206 235  135 206 235  135 206 235  135 206 235  135 206 235  135 206 235  135 206 235  135 206 235  135 206 235  135 206 235  135 206 235  135 206 235  135 206 235  135 206 235  135 206 235  135 206 235  135 206 235  135 206 235  135 206 235  135 206 235  135 206 235  135 206 235  135 206 235  135 206 235  135 206 235  135 206 235  135 206 235  135 206 235  135 206 235  135 206 235  135 206 235  135 206 235  135 206 235  135 206 235  135 206 235  135 206 235  135 206 235  135 206 235  135 206 235  135 206 235  135 206 235  135 206 235  135 206 235  135 206 235  135 206 235  135 206 235  135 206 235  135 206 235  135 206 235  135 206 235  135 206 235  135 206 235  135 206 235  135 206 235  135 206 235  135 206 235  135 206 235  135 206 235  135 206 235  135 206 235  135 206 235  135 206 235  135 206 235  135 206 235  135 206 235  135 206 235  135 206 235  135 206 235  135 206 235  135 206 235  135 206 235  135 206 235  135 206 235  135 206 235  135 206 235  135 206 235  135 206 235  135 206 235  135 206 235  135 206 235  135 206 235  135 206 235  135 206 235  135 206 235  135 206 235  135 206 235  135 206 235  135 206 235  135 206 235  135 206 235  135 206 235  135 206 235  135 206 235  135 206 235  135 206 235  135 206 235  135 206 235  135 206 235  135 206 235  135 206 235  135 206 235  135 206 235  135 206 235  135 206 235  135 206 235  135 206 235  135 206 235  135 206 235  135 206 235  135 206 235  135 206 235  135 206 235  135 206 235  135 206 235  135 206 235  135 206 235  135 206 235  135 206 235  135 206 235  135 206 235  135 206 235  135 206 235  135 206 235  135 206 235  135 206 235  135 206 235  135 206 235  135 206 235  135 206 235  135 206 235  135 206 235  135 206 235  135 206 235  135 206 235  135 206 235  135 206 235  135 206 235  135 206 235  135 206 235  135 206 235  135 206 235  135 206 235  135 206 235  135 206 235  135 206 235  135 206 235  135 206 235  135 206 235  135 206 235  135 206 235  135 206 235  135 206 235  135 206 235  135 206 235  135 206 235  135 206 235  135 206 235  135 206 235  135 206 235  135 206 235  135 206 235  135 206 235  135 206 235  135 206 235  135 206 235  135 206 235  135 206 235  135 206 235  135 206 235  135 206 235  135 206 235  135 206 235  135 206 235  135 206 235  135 206 235  135 206 235  135 206 235  135 206 235  135 206 235  135 206 235  135 206 235  135 206 235  135 206 235  135 206 235  135 206 235  135 206 235  135 206 235  135 206 235  135 206 235  135 206 235  135 206 235  135 206 235  135 206 235  135 206 235  135 206 235  135 206 235  135 206 235  135 206 235  135 206 235  135 206 235  135 206 235  135 206 235  135 206 235  135 206 235  135 206 235  135 206 235  135 206 235  135 206 235  135 206 235  135 206 235  135 206 235  135 206 235  135 206 235  135 206 235  135 206 235  135 206 235  135 206 235  135 206 235  135 206 235  135 206 235  135 206 235  135 206 235  135 206 235  135 206 235  135 206 235  135 206 235  135 206 235  135 206 235  135 206 235  135 206 235  135 206 235  135 206 235  135 206 235  135 206 235  135 206 235  135 206 235  135 206 235  135 206 235  135 206 235  135 206 235  135 206 235  135 206 235  135 206 235  135 206 235  135 206 235  135 206 235  135 206 235  135 206 235  135 206 235  135 206 235  135 206 235  135 206 235  135 206 235  135 206 235  135 206 235  135 206 235  135 206 235  135 206 235  135 206 235  135 206 235  135 206 235  135 206 235  135 206 235  135 206 235  135 206 235  135 206 235  135 206 235  135 206 235  135 206 235  135 206 235  135 206 235  135 206 235  135 206 235  135 206 235  135 206 235  135 206 235  135 206 235  135 206 235  135 206 235  135 206 235  135 206 235  135 206 235  135 206 235  135 206 235  135 206 235  135 206 235  135 206 235  135 206 235  135 206 235  135 206 235  135 206 235  135 206 235  135 206 235  135 206 235  135 206 235  135 206 235  135 206 235  135 206 235  135 206 235  135 206 235  135 206 235  135 206 235  135 206 235  135 206 235  135 206 235  135 206 235  135 206 235  135 206 235  135 206 235  135 206 235  135 206 235  135 206 235  135 206 235  135 206 235  135 206 235  135 206 235  135 206 235  135 206 235  135 206 235  135 206 235
135 206 235  135 206 235  135 206 235  135 206 235  135 206 235  135 206 235  135 206 235  135 206 235  135 206 235  135 206 235  135 206 235  135 206 235  135 206 235  135 206 235  135 206 235  135 206 235  135 206 235  135 206 235  135 206 235  135 206 235  135 206 235  135 206 235  135 206 235  135 206 235  135 206 235  135 206 235  135 206 235  135 206 235  135 206 235  135 206 235  135 206 235  135 206 235  135 206 235  135 206 235  135 206 235  135 206 235  135 206 235  135 206 235  135 206 235  135 206 235  135 206 235  135 206 235  135 206 235  135 206 235  135 206 235  135 206 235  135 206 235  135 206 235  135 206 235  135 206 235  135 206 235  135 206 235  135 206 235  135 206 235  135 206 235  135 206 235  135 206 235  135 206 235  135 206 235  135 206 235  135 206 235  135 206 235  135 206 235  135 206 235  135 206 235  135 206 235  135 206 235  135 206 235  135 206 235  135 206 235  135 206 235  135 206 235  135 206 235  135 206 235  135 206 235  135 206 235  135 206 235  135 206 235  135 206 235  135 206 235  135 206 235  135 206 235  135 206 235  135 206 235  135 206 235  135 206 235  135 206 235  135 206 235  135 206 235  135 206 235  135 206 235  135 206 235  135 206 235  135 206 235  135 206 235  135 206 235  135 206 235  135 206 235  135 206 235  135 206 235  135 206 235  135 206 235  135 206 235  135 206 235  135 206 235  135 206 235  135 206 235  135 206 235  135 206 235  135 206 235  135 206 235  135 206 235  135 206 235  135 206 235  135 206 235  135 206 235  135 206 235  135 206 235  135 206 235  135 206 235  135 206 235  135 206 235  135 206 235  135 206 235  135 206 235  135 206 235  135 206 235  135 206 235  135 206 235  135 206 235  135 206 235  135 206 235  135 206 235  135 206 235  135 206 235  135 206 235  135 206 235  135 206 235  135 206 235  135 206 235  135 206 235  135 206 235  135 206 235  135 206 235  135 206 235  135 206 235  135 206 235  135 206 235  135 206 235  135 206 235  135 206 235  135 206 235  135 206 235  135 206 235  135 206 235  135 206 235  135 206 235  135 206 235  135 206 235  135 206 235  135 206 235  135 206 235  135 206 235  135 206 235  135 206 235  135 206 235  135 206 235  135 206 235  135 206 235  135 206 235  135 206 235  135 206 235  135 206 235  135 206 235  135 206 235  135 206 235  135 206 235  135 206 235  135 206 235  135 206 235  135 206 235  135 206 235  135 206 235  135 206 235  135 206 235  135 206 235  135 206 235  135 206 235  135 206 235  135 206 235  135 206 235  135 206 235  135 206 235  135 206 235  135 206 235  135 206 235  135 206 235  135 206 235  135 206 235  135 206 235  135 206 235  135 206 235  135 206 235  135 206 235  135 206 235  135 206 235  135 206 235  135 206 235  135 206 235  135 206 235  135 206 235  135 206 235  135 206 235  135 206 235  135 206 235  135 206 235  135 206 235  135 206 235  135 206 235  135 206 235  135 206 235  135 206 235  135 206 235  135 206 235  135 206 235  135 206 235  135 206 235  135 206 235  135 206 235  135 206 235  135 206 235  135 206 235  135 206 235  135 206 235  135 206 235  135 206 235  135 206 235  135 206 235  135 206 235  135 206 235  135 206 235  135 206 235  135 206 235  135 206 235  135 206 235  135 206 235  135 206 235  135 206 235  135 206 235  135 206 235  135 206 235  135 206 235  135 206 235  135 206 235  135 206 235  135 206 235  135 206 235  135 206 235  135 206 235  135 206 235  135 206 235  135 206 235  135 206 235  135 206 235  135 206 235  135 206 235  135 206 235  135 206 235  135 206 235  135 206 235  135 206 235  135 206 235  135 206 235  135 206 235  135 206 235  135 206 235  135 206 235  135 206 235  135 206 235  135 206 235  135 206 235  135 206 235  135 206 235  135 206 235  135 206 235  135 206 235  135 206 235  135 206 235  135 206 235  135 206 235  135 206 235  135 206 235  135 206 235  135 206 235  135 206 235  135 206 235  135 206 235  135 206 235  135 206 235  135 206 235  135 206 235  135 206 235  135 206 235  135 206 235  135 206 235  135 206 235  135 206 235  135 206 235  135 206 235  135 206 235  135 206 235  135 206 235  135 206 235  135 206 235  135 206 235  135 206 235  135 206 235  135 206 235  135 206 235  135 206 235
135 206 235  135 206 235  135 206 235  135 206 235  135 206 235  135 206 235  135 206 235  135 206 235  135 206 235  135 206 235  135 206 235  135 206 235  135 206 235  135 206 235  135 206 235  135 206 235  135 206 235  135 206 235  135 206 235  135 206 235  135 206 235  135 206 235  135 206 235  135 206 235  135 206 235  135 206 235  135 206 235  135 206 235  135 206 235  135 206 235  135 206 235  135 206 235  135 206 235  135 206 235  135 206 235  135 206 235  135 206 235  135 206 235  135 206 235  135 206 235  135 206 235  135 206 235  135 206 235  135 206 235  135 206 235  135 206 235  135 206 235  135 206 235  135 206 235  135 206 235  135 206 235  135 206 235  135 206 235  135 206 235  135 206 235  135 206 235  135 206 235  135 206 235  135 206 235  135 206 235  135 206 235  135 206 235  135 206 235  135 206 235  135 206 235  135 206 235  135 206 235  135 206 235  135 206 235  135 206 235  135 206 235  135 206 235  135 206 235  135 206 235  135 206 235  135 206 235  135 206 235  135 206 235  135 206 235  135 206 235  135 206 235  135 206 235  135 206 235  135 206 235  135 206 235  135 206 235  135 206 235  135 206 235  135 206 235  135 206 235  135 206 235  135 206 235  135 206 235  135 206 235  135 206 235  135 206 235  135 206 235  135 206 235  135 206 235  135 206 235  135 206 235  135 206 235  135 206 235  135 206 235  135 206 235  135 206 235  135 206 235  135 206 235  135 206 235  135 206 235  135 206 235  135 206 235  135 206 235  135 206 235  135 206 235  135 206 235  135 206 235  135 206 235  135 206 235  135 206 235  135 206 235  135 206 235  135 206 235  135 206 235  135 206 235  135 206 235  135 206 235  135 206 235  135 206 235  135 206 235  135 206 235  135 206 235  135 206 235  135 206 235  135 206 235  135 206 235  135 206 235  135 206 235  135 206 235  135 206 235  135 206 235  135 206 235  135 206 235  135 206 235  135 206 235  135 206 235  135 206 235  135 206 235  135 206 235  135 206 235  135 206 235  135 206 235  135 206 235  135 206 235  135 206 235  135 206 235  135 206 235  135 206 235  135 206 235  135 206 235  135 206 235  135 206 235  135 206 235  135 206 235  135 206 235  135 206 235  135 206 235  135 206 235  135 206 235  135 206 235  135 206 235  135 206 235  135 206 235  135 206 235  135 206 235  135 206 235  135 206 235  135 206 235  135 206 235  135 206 235  135 206 235  135 206 235  135 206 235  135 206 235  135 206 235  135 206 235  135 206 235  135 206 235  135 206 235  135 206 235  135 206 235  135 206 235  135 206 235  135 206 235  135 206 235  135 206 235  135 206 235  135 206 235  135 206 235  135 206 235  135 206 235  135 206 235  135 206 235  135 206 235  135 206 235  135 206 235  135 206 235  135 206 235  135 206 235  135 206 235  135 206 235  135 206 235  135 206 235  135 206 235  135 206 235  135 206 235  135 206 235  135 206 235  135 206 235  135 206 235  135 206 235  135 206 235  135 206 235  135 206 235  135 206 235  135 206 235  135 206 235  135 206 235  135 206 235  135 206 235  135 206 235  135 206 235  135 206 235  135 206 235  135 206 235  135 206 235  135 206 235  135 206 235  135 206 235  135 206 235  135 206 235  135 206 235  135 206 235  135 206 235  135 206 235  135 206 235  135 206 235  135 206 235  135 206 235  135 206 235  135 206 235  135 206 235  135 206 235  135 206 235  135 206 235  135 206 235  135 206 235  135 206 235  135 206 235  135 206 235  135 206 235  135 206 235  135 206 235  135 206 235  135 206 235  135 206 235  135 206 235  135 206 235  135 206 235  135 206 235  135 206 235  135 206 235  135 206 235  135 206 235  135 206 235  135 206 235  135 206 235  135 206 235  135 206 235  135 206 235  135 206 235  135 206 235  135 206 235  135 206 235  135 206 235  135 206 235  135 206 235  135 206 235  135 206 235  135 206 235  135 206 235  135 206 235  135 206 235  135 206 235  135 206 235  135 206 235  135 206 235  135 206 235  135 206 235  135 206 235  135 206 235  135 206 235  135 206 235  135 206 235  135 206 235  135 206 235  135 206 235  135 206 235  135 206 235  135 206 235  135 206 235  135 206 235  135 206 235  135 206 235  135 206 235  135 206 235  135 206 235  135 206 235  135 206 235  135 206 235
135 206 235  135 206 235  135 206 235  135 206 235  135 206 235  135 206 235  135 206 235  135 206 235  135 206 235  135 206 235  135 206 235  135 206 235  135 206 235  135 206 235  135 206 235  135 206 235  135 206 235  135 206 235  135 206 235  135 206 235  135 206 235  135 206 235  135 206 235  135 206 235  135 206 235  135 206 235  135 206 235  135 206 235  135 206 235  135 206 235  135 206 235  135 206 235  135 206 235  135 206 235  135 206 235  135 206 235  135 206 235  135 206 235  135 206 235  135 206 235  135 206 235  135 206 235  135 206 235  135 206 235  135 206 235  135 206 235  135 206 235  135 206 235  135 206 235  135 206 235  135 206 235  135 206 235  135 206 235  135 206 235  135 206 235  135 206 235  135 206 235  135 206 235  135 206 235  135 206 235  135 206 235  135 206 235  135 206 235  135 206 235  135 206 235  135 206 235  135 206 235  135 206 235  135 206 235  135 206 235  135 206 235  135 206 235  135 206 235  135 206 235  135 206 235  135 206 235  135 206 235  135 206 235  135 206 235  135 206 235  135 206 235  135 206 235  135 206 235  135 206 235  135 206 235  135 206 235  135 206 235  135 206 235  135 206 235  135 206 235  135 206 235  135 206 235  135 206 235  135 206 235  135 206 235  135 206 235  135 206 235  135 206 235  135 206 235  135 206 235  135 206 235  135 206 235  135 206 235  135 206 235  135 206 235  135 206 235  135 206 235  135 206 235  135 206 235  135 206 235  135 206 235  135 206 235  135 206 235  135 206 235  135 206 235  135 206 235  135 206 235  135 206 235  135 206 235  135 206 235  135 206 235  135 206 235  135 206 235  135 206 235  135 206 235  135 206 235  135 206 235  135 206 235  135 206 235  135 206 235  135 206 235  135 206 235  135 206 235  135 206 235  135 206 235  135 206 235  135 206 235  135 206 235  135 206 235  135 206 235  135 206 235  135 206 235  135 206 235  135 206 235  135 206 235  135 206 235  135 206 235  135 206 235  135 206 235  135 206 235  135 206 235  135 206 235  135 206 235  135 206 235  135 206 235  135 206 235  135 206 235  135 206 235  135 206 235  135 206 235  135 206 235  135 206 235  135 206 235  135 206 235  135 206 235  135 206 235  135 206 235  135 206 235  135 206 235  135 206 235  135 206 235  135 206 235  135 206 235  135 206 235  135 206 235  135 206 235  135 206 235  135 206 235  135 206 235  135 206 235  135 206 235  135 206 235  135 206 235  135 206 235  135 206 235  135 206 235  135 206 235  135 206 235  135 206 235  135 206 235  135 206 235  135 206 235  135 206 235  135 206 235  135 206 235  135 206 235  135 206 235  135 206 235  135 206 235  135 206 235  135 206 235  135 206 235  135 206 235  135 206 235  135 206 235  135 206 235  135 206 235  135 206 235  135 206 235  135 206 235  135 206 235  135 206 235  135 206 235  135 206 235  135 206 235  135 206 235  135 206 235  135 206 235  135 206 235  135 206 235  135 206 235  135 206 235  135 206 235  135 206 235  135 206 235  135 206 235  135 206 235  135 206 235  135 206 235  135 206 235  135 206 235  135 206 235  135 206 235  135 206 235  135 206 235  135 206 235  135 206 235  135 206 235  135 206 235  135 206 235  135 206 235  135 206 235  135 206 235  135 206 235  135 206 235  135 206 235  135 206 235  135 206 235  135 206 235  135 206 235  135 206 235  135 206 235  135 206 235  135 206 235  135 206 235  135 206 235  135 206 235  135 206 235  135 206 235  135 206 235  135 206 235  135 206 235  135 206 235  135 206 235  135 206 235  135 206 235  135 206 235  135 206 235  135 206 235  135 206 235  135 206 235  135 206 235  135 206 235  135 206 235  135 206 235  135 206 235  135 206 235  135 206 235  135 206 235  135 206 235  135 206 235  135 206 235  135 206 235  135 206 235  135 206 235  135 206 235  135 206 235  135 206 235  135 206 235  135 206 235  135 206 235  135 206 235  135 206 235  135 206 235  135 206 235  135 206 235  135 206 235  135 206 235  135 206 235  135 206 235  135 206 235  135 206 235  135 206 235  135 206 235  135 206 235  135 206 235  135 206 235  135 206 235  135 206 235  135 206 235  135 206 235  135 206 235  135 206 235  135 206 235  135 206 235  135 206 235  135 206 235  135 206 235  135 206 235  135 206 235
135 206 235  135 206 235  135 206 235  135 206 235  135 206 235  135 206 235  135 206 235  135 206 235  135 206 235  135 206 235  135 206 235  135 206 235  135 206 235  135 206 235  135 206 235  135 206 235  135 206 235  135 206 235  135 206 235  135 206 235  135 206 235  135 206 235  135 206 235  135 206 235  135 206 235  135 206 235  135 206 235  135 206 235  135 206 235  135 206 235  135 206 235  135 206 235  135 206 235  135 206 235  135 206 235  135 206 235  135 206 235  135 206 235  135 206 235  135 206 235  135 206 235  135 206 235  135 206 235  135 206 235  135 206 235  135 206 235  135 206 235  135 206 235  135 206 235  135 206 235  135 206 235  135 206 235  135 206 235  135 206 235  135 206 235  135 206 235  135 206 235  135 206 235  135 206 235  135 206 235  135 206 235  135 206 235  135 206 235  135 206 235  135 206 235  135 206 235  135 206 235  135 206 235  135 206 235  135 206 235  135 206 235  135 206 235  135 206 235  135 206 235  135 206 235  135 206 235  135 206 235  135 206 235  135 206 235  135 206 235  135 206 235  135 206 235  135 206 235  135 206 235  135 206 235  135 206 235  135 206 235  135 206 235  135 206 235  135 206 235  135 206 235  135 206 235  135 206 235  135 206 235  135 206 235  135 206 235  135 206 235  135 206 235  135 206 235  135 206 235  135 206 235  135 206 235  135 206 235  135 206 235  135 206 235  135 206 235  135 206 235  135 206 235  135 206 235  135 206 235  135 206 235  135 206 235  135 206 235  135 206 235  135 206 235  135 206 235  135 206 235  135 206 235  135 206 235  135 206 235  135 206 235  135 206 235  135 206 235  135 206 235  135 206 235  135 206 235  135 206 235  135 206 235  135 206 235  135 206 235  135 206 235  135 206 235  135 206 235  135 206 235  135 206 235  135 206 235  135 206 235  135 206 235  135 206 235  135 206 235  135 206 235  135 206 235  135 206 235  135 206 235  135 206 235  135 206 235  135 206 235  135 206 235  135 206 235  135 206 235  135 206 235  135 206 235  135 206 235  135 206 235  135 206 235  135 206 235  135 206 235  135 206 235  135 206 235  135 206 235  135 206 235  135 206 235  135 206 235  135 206 235  135 206 235  135 206 235  135 206 235  135 206 235  135 206 235  135 206 235  135 206 235  135 206 235  135 206 235  135 206 235  135 206 235  135 206 235  135 206 235  135 206 235  135 206 235  135 206 235  135 206 235  135 206 235  135 206 235  135 206 235  135 206 235  135 206 235  135 206 235  135 206 235  135 206 235  135 206 235  135 206 235  135 206 235  135 206 235  135 206 235  135 206 235  135 206 235  135 206 235  135 206 235  135 206 235  135 206 235  135 206 235  135 206 235  135 206 235  135 206 235  135 206 235  135 206 235  135 206 235  135 206 235  135 206 235  135 206 235  135 206 235  135 206 235  135 206 235  135 206 235  135 206 235  135 206 235  135 206 235  135 206 235  135 206 235  135 206 235  135 206 235  135 206 235  135 206 235  135 206 235  135 206 235  135 206 235  135 206 235  135 206 235  135 206 235  135 206 235  135 206 235  135 206 235  135 206 235  135 206 235  135 206 235  135 206 235  135 206 235  135 206 235  135 206 235  135 206 235  135 206 235  135 206 235  135 206 235  135 206 235  135 206 235  135 206 235  135 206 235  135 206 235  135 206 235  135 206 235  135 206 235  135 206 235  135 206 235  135 206 235  135 206 235  135 206 235  135 206 235  135 206 235  135 206 235  135 206 235  135 206 235  135 206 235  135 206 235  135 206 235  135 206 235  135 206 235  135 206 235  135 206 235  135 206 235  135 206 235  135 206 235  135 206 235  135 206 235  135 206 235  135 206 235  135 206 235  135 206 235  135 206 235  135 206 235  135 206 235  135 206 235  135 206 235  135 206 235  135 206 235  135 206 235  135 206 235  135 206 235  135 206 235  135 206 235  135 206 235  135 206 235  135 206 235  135 206 235  135 206 235  135 206 235  135 206 235  135 206 235  135 206 235  135 206 235  135 206 235  135 206 235  135 206 235  135 206 235  135 206 235  135 206 235  135 206 235  135 206 235  135 206 235  135 206 235  135 206 235  135 206 235  135 206 235  135 206 235  135 206 235  135 206 235  135 206 235  135 206 235  135 206 235  135 206 235  135 206 235
135 206 235  135 206 235  135 206 235  135 206 235  135 206 235  135 206 235  135 206 235  135 206 235  135 206 235  135 206 235  135 206 235  135 206 235  135 206 235  135 206 235  135 206 235  135 206 235  135 206 235  135 206 235  135 206 235  135 206 235  135 206 235  135 206 235  135 206 235  135 206 235  135 206 235  135 206 235  135 206 235  135 206 235  135 206 235  135 206 235  135 206 235  135 206 235  135 206 235  135 206 235  135 206 235  135 206 235  135 206 235  135 206 235  135 206 235  135 206 235  135 206 235  135 206 235  135 206 235  135 206 235  135 206 235  135 206 235  135 206 235  135 206 235  135 206 235  135 206 235  135 206 235  135 206 235  135 206 235  135 206 235  135 206 235  135 206 235  135 206 235  135 206 235  135 206 235  135 206 235  135 206 235  135 206 235  135 206 235  135 206 235  135 206 235  135 206 235  135 206 235  135 206 235  135 206 235  135 206 235  135 206 235  135 206 235  135 206 235  135 206 235  135 206 235  135 206 235  135 206 235  135 206 235  135 206 235  135 206 235  135 206 235  135 206 235  135 206 235  135 206 235  135 206 235  135 206 235  135 206 235  135 206 235  135 206 235  135 206 235  135 206 235  135 206 235  135 206 235  135 206 235  135 206 235  135 206 235  135 206 235  135 206 235  135 206 235  135 206 235  135 206 235  135 206 235  135 206 235  135 206 235  135 206 235  135 206 235  135 206 235  135 206 235  135 206 235  135 206 235  135 206 235  135 206 235  135 206 235  135 206 235  135 206 235  135 206 235  135 206 235  135 206 235  135 206 235  135 206 235  135 206 235  135 206 235  135 206 235  135 206 235  135 206 235  135 206 235  135 206 235  135 206 235  135 206 235  135 206 235  135 206 235  135 206 235  135 206 235  135 206 235  135 206 235  135 206 235  135 206 235  135 206 235  135 206 235  135 206 235  135 206 235  135 206 235  135 206 235  135 206 235  135 206 235  135 206 235  135 206 235  135 206 235  135 206 235  135 206 235  135 206 235  135 206 235  135 206 235  135 206 235  135 206 235  135 206 235  135 206 235  135 206 235  135 206 235  135 206 235  135 206 235  135 206 235  135 206 235  135 206 235  135 206 235  135 206 235  135 206 235  135 206 235  135 206 235  135 206 235  135 206 235  135 206 235  135 206 235  135 206 235  135 206 235  135 206 235  135 206 235  135 206 235  135 206 235  135 206 235  135 206 235  135 206 235  135 206 235  135 206 235  135 206 235  135 206 235  135 206 235  135 206 235  135 206 235  135 206 235  135 206 235  135 206 235  135 206 235  135 206 235  135 206 235  135 206 235  135 206 235  135 206 235  135 206 235  135 206 235  135 206 235  135 206 235  135 206 235  135 206 235  135 206 235  135 206 235  135 206 235  135 206 235  135 206 235  135 206 235  135 206 235  135 206 235  135 206 235  135 206 235  135 206 235  135 206 235  135 206 235  135 206 235  135 206 235  135 206 235  135 206 235  135 206 235  135 206 235  135 206 235  135 206 235  135 206 235  135 206 235  135 206 235  135 206 235  135 206 235  135 206 235  135 206 235  135 206 235  135 206 235  135 206 235  135 206 235  135 206 235  135 206 235  135 206 235  135 206 235  135 206 235  135 206 235  135 206 235  135 206 235  135 206 235  135 206 235  135 206 235  135 206 235  135 206 235  135 206 235  135 206 235  135 206 235  135 206 235  135 206 235  135 206 235  135 206 235  135 206 235  135 206 235  135 206 235  135 206 235  135 206 235  135 206 235  135 206 235  135 206 235  135 206 235  135 206 235  135 206 235  135 206 235  135 206 235  135 206 235  135 206 235  135 206 235  135 206 235  135 206 235  135 206 235  135 206 235  135 206 235  135 206 235  135 206 235  135 206 235  135 206 235  135 206 235  135 206 235  135 206 235  135 206 235  135 206 235  135 206 235  135 206 235  135 206 235  135 206 235  135 206 235  135 206 235  135 206 235  135 206 235  135 206 235  135 206 235  135 206 235  135 206 235  135 206 235  135 206 235  135 206 235  135 206 235  135 206 235  135 206 235  135 206 235  135 206 235  135 206 235  135 206 235  135 206 235  135 206 235  135 206 235  135 206 235  135 206 235  135 206 235  135 206 235  135 206 235  135 206 235  135 206 235  135 206 235  135 206 235
135 206 235  135 206 235  135 206 235  135 206 235  135 206 235  135 206 235  135 206 235  135 206 235  135 206 235  135 206 235  135 206 235  135 206 235  135 206 235  135 206 235  135 206 235  135 206 235  135 206 235  135 206 235  135 206 235  135 206 235  135 206 235  135 206 235  135 206 235  135 206 235  135 206 235  135 206 235  135 206 235  135 206 235  135 206 235  135 206 235  135 206 235  135 206 235  135 206 235  135 206 235  135 206 235  135 206 235  135 206 235  135 206 235  135 206 235  135 206 235  135 206 235  135 206 235  135 206 235  135 206 235  135 206 235  135 206 235  135 206 235  135 206 235  135 206 235  135 206 235  135 206 235  135 206 235  135 206 235  135 206 235  135 206 235  135 206 235  135 206 235  135 206 235  135 206 235  135 206 235  135 206 235  135 206 235  135 206 235  135 206 235  135 206 235  135 206 235  135 206 235  135 206 235  135 206 235  135 206 235  135 206 235  135 206 235  135 206 235  135 206 235  135 206 235  135 206 235  135 206 235  135 206 235  135 206 235  135 206 235  135 206 235  135 206 235  135 206 235  135 206 235  135 206 235  135 206 235  135 206 235  135 206 235  135 206 235  135 206 235  135 206 235  135 206 235  135 206 235  135 206 235  135 206 235  135 206 235  135 206 235  135 206 235  135 206 235  135 206 235  135 206 235  135 206 235  135 206 235  135 206 235  135 206 235  135 206 235  135 206 235  135 206 235  135 206 235  135 206 235  135 206 235  135 206 235  135 206 235  135 206 235  135 206 235  135 206 235  135 206 235  135 206 235  135 206 235  135 206 235  135 206 235  135 206 235  135 206 235  135 206 235  135 206 235  135 206 235  135 206 235  135 206 235  135 206 235  135 206 235  135 206 235  135 206 235  135 206 235  135 206 235  135 206 235  135 206 235  135 206 235  135 206 235  135 206 235  135 206 235  135 206 235  135 206 235  135 206 235  135 206 235  135 206 235  135 206 235  135 206 235  135 206 235  135 206 235  135 206 235  135 206 235  135 206 235  135 206 235  135 206 235  135 206 235  135 206 235  135 206 235  135 206 235  135 206 235  135 206 235  135 206 235  135 206 235  135 206 235  135 206 235  135 206 235  135 206 235  135 206 235  135 206 235  135 206 235  135 206 235  135 206 235  135 206 235  135 206 235  135 206 235  135 206 235  135 206 235  135 206 235  135 206 235  135 206 235  135 206 235  135 206 235  135 206 235  135 206 235  135 206 235  135 206 235  135 206 235  135 206 235  135 206 235  135 206 235  135 206 235  135 206 235  135 206 235  135 206 235  135 206 235  135 206 235  135 206 235  135 206 235  135 206 235  135 206 235  135 206 235  135 206 235  135 206 235  135 206 235  135 206 235  135 206 235  135 206 235  135 206 235  135 206 235  135 206 235  135 206 235  135 206 235  135 206 235  135 206 235  135 206 235  135 206 235  135 206 235  135 206 235  135 206 235  135 206 235  135 206 235  135 206 235  135 206 235  135 206 235  135 206 235  135 206 235  135 206 235  135 206 235  135 206 235  135 206 235  135 206 235  135 206 235  135 206 235  135 206 235  135 206 235  135 206 235  135 206 235  135 206 235  135 206 235  135 206 235  135 206 235  135 206 235  135 206 235  135 206 235  135 206 235  135 206 235  135 206 235  135 206 235  135 206 235  135 206 235  135 206 235  135 206 235  135 206 235  135 206 235  135 206 235  135 206 235  135 206 235  135 206 235  135 206 235  135 206 235  135 206 235  135 206 235  135 206 235  135 206 235  135 206 235  135 206 235  135 206 235  135 206 235  135 206 235  135 206 235  135 206 235  135 206 235  135 206 235  135 206 235  135 206 235  135 206 235  135 206 235  135 206 235  135 206 235  135 206 235  135 206 235  135 206 235  135 206 235  135 206 235  135 206 235  135 206 235  135 206 235  135 206 235  135 206 235  135 206 235  135 206 235  135 206 235  135 206 235  135 206 235  135 206 235  135 206 235  135 206 235  135 206 235  135 206 235  135 206 235  135 206 235  135 206 235  135 206 235  135 206 235  135 206 235  135 206 235  135 206 235  135 206 235  135 206 235  135 206 235  135 206 235  135 206 235  135 206 235  135 206 235  135 206 235  135 206 235  135 206 235  135 206 235  135 206 235  135 206 235  135 206 235
135 206 235  135 206 235  135 206 235  135 206 235  135 206 235  135 206 235  135 206 235  135 206 235  135 206 235  135 206 235  135 206 235  135 206 235  135 206 235  135 206 235  135 206 235  135 206 235  135 206 235  135 206 235  135 206 235  135 206 235  135 206 235  135 206 235  135 206 235  135 206 235  135 206 235  135 206 235  135 206 235  135 206 235  135 206 235  135 206 235  135 206 235  135 206 235  135 206 235  135 206 235  135 206 235  135 206 235  135 206 235  135 206 235  135 206 235  135 206 235  135 206 235  135 206 235  135 206 235  135 206 235  135 206 235  135 206 235  135 206 235  135 206 235  135 206 235  135 206 235  135 206 235  135 206 235  135 206 235  135 206 235  135 206 235  135 206 235  135 206 235  135 206 235  135 206 235  135 206 235  135 206 235  135 206 235  135 206 235  135 206 235  135 206 235  135 206 235  135 206 235  135 206 235  135 206 235  135 206 235  135 206 235  135 206 235  135 206 235  135 206 235  135 206 235  135 206 235  135 206 235  135 206 235  135 206 235  135 206 235  135 206 235  135 206 235  135 206 235  135 206 235  135 206 235  135 206 235  135 206 235  135 206 235  135 206 235  135 206 235  135 206 235  135 206 235  135 206 235  135 206 235  135 206 235  135 206 235  135 206 235  135 206 235  135 206 235  135 206 235  135 206 235  135 206 235  135 206 235  135 206 235  135 206 235  135 206 235  135 206 235  135 206 235  135 206 235  135 206 235  135 206 235  135 206 235  135 206 235  135 206 235  135 206 235  135 206 235  135 206 235  135 206 235  135 206 235  135 206 235  135 206 235  135 206 235  135 206 235  135 206 235  135 206 235  135 206 235  135 206 235  135 206 235  135 206 235  135 206 235  135 206 235  135 206 235  135 206 235  135 206 235  135 206 235  135 206 235  135 206 235  135 206 235  135 206 235  135 206 235  135 206 235  135 206 235  135 206 235  135 206 235  135 206 235  135 206 235  135 206 235  135 206 235  135 206 235  135 206 235  135 206 235  135 206 235  135 206 235  135 206 235  135 206 235  135 206 235  135 206 235  135 206 235  135 206 235  135 206 235  135 206 235  135 206 235  135 206 235  135 206 235  135 206 235  135 206 235  135 206 235  135 206 235  135 206 235  135 206 235  135 206 235  135 206 235  135 206 235  135 206 235  135 206 235  135 206 235  135 206 235  135 206 235  135 206 235  135 206 235  135 206 235  135 206 235  135 206 235  135 206 235  135 206 235  135 206 235  135 206 235  135 206 235  135 206 235  135 206 235  135 206 235  135 206 235  135 206 235  135 206 235  135 206 235  135 206 235  135 206 235  135 206 235  135 206 235  135 206 235  135 206 235  135 206 235  135 206 235  135 206 235  135 206 235  135 206 235  135 206 235  135 206 235  135 206 235  135 206 235  135 206 235  135 206 235  135 206 235  135 206 235  135 206 235  135 206 235  135 206 235  135 206 235  135 206 235  135 206 235  135 206 235  135 206 235  135 206 235  135 206 235  135 206 235  135 206 235  135 206 235  135 206 235  135 206 235  135 206 235  135 206 235  135 206 235  135 206 235  135 206 235  135 206 235  135 206 235  135 206 235  135 206 235  135 206 235  135 206 235  135 206 235  135 206 235  135 206 235  135 206 235  135 206 235  135 206 235  135 206 235  135 206 235  135 206 235  135 206 235  135 206 235  135 206 235  135 206 235  135 206 235  135 206 235  135 206 235  135 206 235  135 206 235  135 206 235  135 206 235  135 206 235  135 206 235  135 206 235  135 206 235  135 206 235  135 206 235  135 206 235  135 206 235  135 206 235  135 206 235  135 206 235  135 206 235  135 206 235  135 206 235  135 206 235  135 206 235  135 206 235  135 206 235  135 206 235  135 206 235  135 206 235  135 206 235  135 206 235  135 206 235  135 206 235  135 206 235  135 206 235  135 206 235  135 206 235  135 206 235  135 206 235  135 206 235  135 206 235  135 206 235  135 206 235  135 206 235  135 206 235  135 206 235  135 206 235  135 206 235  135 206 235  135 206 235  135 206 235  135 206 235  135 206 235  135 206 235  135 206 235  135 206 235  135 206 235  135 206 235  135 206 235  135 206 235  135 206 235  135 206 235  135 206 235  135 206 235  135 206 235  135 206 235  135 206 235  135 206 235
135 206 235  135 206 235  135 206 235  135 206 235  135 206 235  135 206 235  135 206 235  135 206 235  135 206 235  135 206 235  135 206 235  135 206 235  135 206 235  135 206 235  135 206 235  135 206 235  135 206 235  135 206 235  135 206 235  135 206 235  135 206 235  135 206 235  135 206 235  135 206 235  135 206 235  135 206 235  135 206 235  135 206 235  135 206 235  135 206 235  135 206 235  135 206 235  135 206 235  135 206 235  135 206 235  135 206 235  135 206 235  135 206 235  135 206 235  135 206 235  135 206 235  135 206 235  135 206 235  135 206 235  135 206 235  135 206 235  135 206 235  135 206 235  135 206 235  135 206 235  135 206 235  135 206 235  135 206 235  135 206 235  135 206 235  135 206 235  135 206 235  135 206 235  135 206 235  135 206 235  135 206 235  135 206 235  135 206 235  135 206 235  135 206 235  135 206 235  135 206 235  135 206 235  135 206 235  135 206 235  135 206 235  135 206 235  135 206 235  135 206 235  135 206 235  135 206 235  135 206 235  135 206 235  135 206 235  135 206 235  135 206 235  135 206 235  135 206 235  135 206 235  135 206 235  135 206 235  135 206 235  135 206 235  135 206 235  135 206 235  135 206 235  135 206 235  135 206 235  135 206 235  135 206 235  135 206 235  135 206 235  135 206 235  135 206 235  135 206 235  135 206 235  135 206 235  135 206 235  135 206 235  135 206 235  135 206 235  135 206 235  135 206 235  135 206 235  135 206 235  135 206 235  135 206 235  135 206 235  135 206 235  135 206 235  135 206 235  135 206 235  135 206 235  135 206 235  135 206 235  135 206 235  135 206 235  135 206 235  135 206 235  135 206 235  135 206 235  135 206 235  135 206 235  135 206 235  135 206 235  135 206 235  135 206 235  135 206 235  135 206 235  135 206 235  135 206 235  135 206 235  135 206 235  135 206 235  135 206 235  135 206 235  135 206 235  135 206 235  135 206 235  135 206 235  135 206 235  135 206 235  135 206 235  135 206 235  135 206 235  135 206 235  135 206 235  135 206 235  135 206 235  135 206 235  135 206 235  135 206 235  135 206 235  135 206 235  135 206 235  135 206 235  135 206 235  135 206 235  135 206 235  135 206 235  135 206 235  135 206 235  135 206 235  135 206 235  135 206 235  135 206 235  135 206 235  135 206 235  135 206 235  135 206 235  135 206 235  135 206 235  135 206 235  135 206 235  135 206 235  135 206 235  135 206 235  135 206 235  135 206 235  135 206 235  135 206 235  135 206 235  135 206 235  135 206 235  135 206 235  135 206 235  135 206 235  135 206 235  135 206 235  135 206 235  135 206 235  135 206 235  135 206 235  135 206 235  135 206 235  135 206 235  135 206 235  135 206 235  135 206 235  135 206 235  135 206 235  135 206 235  135 206 235  135 206 235  135 206 235  135 206 235  135 206 235  135 206 235  135 206 235  135 206 235  135 206 235  135 206 235  135 206 235  135 206 235  135 206 235  135 206 235  135 206 235  135 206 235  135 206 235  135 206 235  135 206 235  135 206 235  135 206 235  135 206 235  135 206 235  135 206 235  135 206 235  135 206 235  135 206 235  135 206 235  135 206 235  135 206 235  135 206 235  135 206 235  135 206 235  135 206 235  135 206 235  135 206 235  135 206 235  135 206 235  135 206 235  135 206 235  135 206 235  135 206 235  135 206 235  135 206 235  135 206 235  135 206 235  135 206 235  135 206 235  135 206 235  135 206 235  135 206 235  135 206 235  135 206 235  135 206 235  135 206 235  135 206 235  135 206 235  135 206 235  135 206 235  135 206 235  135 206 235  135 206 235  135 206 235  135 206 235  135 206 235  135 206 235  135 206 235  135 206 235  135 206 235  135 206 235  135 206 235  135 206 235  135 206 235  135 206 235  135 206 235  135 206 235  135 206 235  135 206 235  135 206 235  135 206 235  135 206 235  135 206 235  135 206 235  135 206 235  135 206 235  135 206 235  135 206 235  135 206 235  135 206 235  135 206 235  135 206 235  135 206 235  135 206 235  135 206 235  135 206 235  135 206 235  135 206 235  135 206 235  135 206 235  135 206 235  135 206 235  135 206 235  135 206 235  135 206 235  135 206 235  135 206 235  135 206 235  135 206 235  135 206 235  135 206 235  135 206 235  135 206 235  135 206 235
135 206 235  135 206 235  135 206 235  135 206 235  135 206 235  135 206 235  135 206 235  135 206 235  135 206 235  135 206 235  135 206 235  135 206 235  135 206 235  135 206 235  135 206 235  135 206 235  135 206 235  135 206 235  135 206 235  135 206 235  135 206 235  135 206 235  135 206 235  135 206 235  135 206 235  135 206 235  135 206 235  135 206 235  135 206 235  135 206 235  135 206 235  135 206 235  135 206 235  135 206 235  135 206 235  135 206 235  135 206 235  135 206 235  135 206 235  135 206 235  135 206 235  135 206 235  135 206 235  135 206 235  135 206 235  135 206 235  135 206 235  135 206 235  135 206 235  135 206 235  135 206 235  135 206 235  135 206 235  135 206 235  135 206 235  135 206 235  135 206 235  135 206 235  135 206 235  135 206 235  135 206 235  135 206 235  135 206 235  135 206 235  135 206 235  135 206 235  135 206 235  135 206 235  135 206 235  135 206 235  135 206 235  135 206 235  135 206 235  135 206 235  135 206 235  135 206 235  135 206 235  135 206 235  135 206 235  135 206 235  135 206 235  135 206 235  135 206 235  135 206 235  135 206 235  135 206 235  135 206 235  135 206 235  135 206 235  135 206 235  135 206 235  135 206 235  135 206 235  135 206 235  135 206 235  135 206 235  135 206 235  135 206 235  135 206 235  135 206 235  135 206 235  135 206 235  135 206 235  135 206 235  135 206 235  135 206 235  135 206 235  135 206 235  135 206 235  135 206 235  135 206 235  135 206 235  135 206 235  135 206 235  135 206 235  135 206 235  135 206 235  135 206 235  135 206 235  135 206 235  135 206 235  135 206 235  135 206 235  135 206 235  135 206 235  135 206 235  135 206 235  135 206 235  135 206 235  135 206 235  135 206 235  135 206 235  135 206 235  135 206 235  135 206 235  135 206 235  135 206 235  135 206 235  135 206 235  135 206 235  135 206 235  135 206 235  135 206 235  135 206 235  135 206 235  135 206 235  135 206 235  135 206 235  135 206 235  135 206 235  135 206 235  135 206 235  135 206 235  135 206 235  135 206 235  135 206 235  135 206 235  135 206 235  135 206 235  135 206 235  135 206 235  135 206 235  135 206 235  135 206 235  135 206 235  135 206 235  135 206 235  135 206 235  135 206 235  135 206 235  135 206 235  135 206 235  135 206 235  135 206 235  135 206 235  135 206 235  135 206 235  135 206 235  135 206 235  135 206 235  135 206 235  135 206 235  135 206 235  135 206 235  135 206 235  135 206 235  135 206 235  135 206 235  135 206 235  135 206 235  135 206 235  135 206 235  135 206 235  135 206 235  135 206 235  135 206 235  135 206 235  135 206 235  135 206 235  135 206 235  135 206 235  135 206 235  135 206 235  135 206 235  135 206 235  135 206 235  135 206 235  135 206 235  135 206 235  135 206 235  135 206 235  135 206 235  135 206 235  135 206 235  135 206 235  135 206 235  135 206 235  135 206 235  135 206 235  135 206 235  135 206 235  135 206 235  135 206 235  135 206 235  135 206 235  135 206 235  135 206 235  135 206 235  135 206 235  135 206 235  135 206 235  135 206 235  135 206 235  135 206 235  135 206 235  135 206 235  135 206 235  135 206 235  135 206 235  135 206 235  135 206 235  135 206 235  135 206 235  135 206 235  135 206 235  135 206 235  135 206 235  135 206 235  135 206 235  135 206 235  135 206 235  135 206 235  135 206 235  135 206 235  135 206 235  135 206 235  135 206 235  135 206 235  135 206 235  135 206 235  135 206 235  135 206 235  135 206 235  135 206 235  135 206 235  135 206 235  135 206 235  135 206 235  135 206 235  135 206 235  135 206 235  135 206 235  135 206 235  135 206 235  135 206 235  135 206 235  135 206 235  135 206 235  135 206 235  135 206 235  135 206 235  135 206 235  135 206 235  135 206 235  135 206 235  135 206 235  135 206 235  135 206 235  135 206 235  135 206 235  135 206 235  135 206 235  135 206 235  135 206 235  135 206 235  135 206 235  135 206 235  135 206 235  135 206 235  135 206 235  135 206 235  135 206 235  135 206 235  135 206 235  135 206 235  135 206 235  135 206 235  135 206 235  135 206 235  135 206 235  135 206 235  135 206 235  135 206 235  135 206 235  135 206 235  135 206 235  135 206 235  135 206 235  135 206 235  135 206 235
135 206 235  135 206 235  135 206 235  135 206 235  135 206 235  135 206 235  135 206 235  135 206 235  135 206 235  135 206 235  135 206 235  135 206 235  135 206 235  135 206 235  135 206 235  135 206 235  135 206 235  135 206 235  135 206 235  135 206 235  135 206 235  135 206 235  135 206 235  135 206 235  135 206 235  135 206 235  135 206 235  135 206 235  135 206 235  135 206 235  135 206 235  135 206 235  135 206 235  135 206 235  135 206 235  135 206 235  135 206 235  135 206 235  135 206 235  135 206 235  135 206 235  135 206 235  135 206 235  135 206 235  135 206 235  135 206 235  135 206 235  135 206 235  135 206 235  135 206 235  135 206 235  135 206 235  135 206 235  135 206 235  135 206 235  135 206 235  135 206 235  135 206 235  135 206 235  135 206 235  135 206 235  135 206 235  135 206 235  135 206 235  135 206 235  135 206 235  135 206 235  135 206 235  135 206 235  135 206 235  135 206 235  135 206 235  135 206 235  135 206 235  135 206 235  135 206 235  135 206 235  135 206 235  135 206 235  135 206 235  135 206 235  135 206 235  135 206 235  135 206 235  135 206 235  135 206 235  135 206 235  135 206 235  135 206 235  135 206 235  135 206 235  135 206 235  135 206 235  135 206 235  135 206 235  135 206 235  135 206 235  135 206 235  135 206 235  135 206 235  135 206 235  135 206 235  135 206 235  135 206 235  135 206 235  135 206 235  135 206 235  135 206 235  135 206 235  135 206 235  135 206 235  135 206 235  135 206 235  135 206 235  135 206 235  135 206 235  135 206 235  135 206 235  135 206 235  135 206 235  135 206 235  135 206 235  135 206 235  135 206 235  135 206 235  135 206 235  135 206 235  135 206 235  135 206 235  135 206 235  135 206 235  135 206 235  135 206 235  135 206 235  135 206 235  135 206 235  135 206 235  135 206 235  135 206 235  135 206 235  135 206 235  135 206 235  135 206 235  135 206 235  135 206 235  135 206 235  135 206 235  135 206 235  135 206 235  135 206 235  135 206 235  135 206 235  135 206 235  135 206 235  135 206 235  135 206 235  135 206 235  135 206 235  135 206 235  135 206 235  135 206 235  135 206 235  135 206 235  135 206 235  135 206 235  135 206 235  135 206 235  135 206 235  135 206 235  135 206 235  135 206 235  135 206 235  135 206 235  135 206 235  135 206 235  135 206 235  135 206 235  135 206 235  135 206 235  135 206 235  135 206 235  135 206 235  135 206 235  135 206 235  135 206 235  135 206 235  135 206 235  135 206 235  135 206 235  135 206 235  135 206 235  135 206 235  135 206 235  135 206 235  135 206 235  135 206 235  135 206 235  135 206 235  135 206 235  135 206 235  135 206 235  135 206 235  135 206 235  135 206 235  135 206 235  135 206 235  135 206 235  135 206 235  135 206 235  135 206 235  135 206 235  135 206 235  135 206 235  135 206 235  135 206 235  135 206 235  135 206 235  135 206 235  135 206 235  135 206 235  135 206 235  135 206 235  135 206 235  135 206 235  135 206 235  135 206 235  135 206 235  135 206 235  135 206 235  135 206 235  135 206 235  135 206 235  135 206 235  135 206 235  135 206 235  135 206 235  135 206 235  135 206 235  135 206 235  135 206 235  135 206 235  135 206 235  135 206 235  135 206 235  135 206 235  135 206 235  135 206 235  135 206 235  135 206 235  135 206 235  135 206 235  135 206 235  135 206 235  135 206 235  135 206 235  135 206 235  135 206 235  135 206 235  135 206 235  135 206 235  135 206 235  135 206 235  135 206 235  135 206 235  135 206 235  135 206 235  135 206 235  135 206 235  135 206 235  135 206 235  135 206 235  135 206 235  135 206 235  135 206 235  135 206 235  135 206 235  135 206 235  135 206 235  135 206 235  135 206 235  135 206 235  135 206 235  135 206 235  135 206 235  135 206 235  135 206 235  135 206 235  135 206 235  135 206 235  135 206 235  135 206 235  135 206 235  135 206 235  135 206 235  135 206 235  135 206 235  135 206 235  135 206 235  135 206 235  135 206 235  135 206 235  135 206 235  135 206 235  135 206 235  135 206 235  135 206 235  135 206 235  135 206 235  135 206 235  135 206 235  135 206 235  135 206 235  135 206 235  135 206 235  135 206 235  135 206 235  135 206 235  135 206 235  135 206 235  135 206 235
135 206 235  135 206 235  135 206 235  135 206 235  135 206 235  135 206 235  135 206 235  135 206 235  135 206 235  135 206 235  135 206 235  135 206 235  135 206 235  135 206 235  135 206 235  135 206 235  135 206 235  135 206 235  135 206 235  135 206 235  135 206 235  135 206 235  135 206 235  135 206 235  135 206 235  135 206 235  135 206 235  135 206 235  135 206 235  135 206 235  135 206 235  135 206 235  135 206 235  135 206 235  135 206 235  135 206 235  135 206 235  135 206 235  135 206 235  135 206 235  135 206 235  135 206 235  135 206 235  135 206 235  135 206 235  135 206 235  135 206 235  135 206 235  135 206 235  135 206 235  135 206 235  135 206 235  135 206 235  135 206 235  135 206 235  135 206 235  135 206 235  135 206 235  135 206 235  135 206 235  135 206 235  135 206 235  135 206 235  135 206 235  135 206 235  135 206 235  135 206 235  135 206 235  135 206 235  135 206 235  135 206 235  135 206 235  135 206 235  135 206 235  135 206 235  135 206 235  135 206 235  135 206 235  135 206 235  135 206 235  135 206 235  135 206 235  135 206 235  135 206 235  135 206 235  135 206 235  135 206 235  135 206 235  135 206 235  135 206 235  135 206 235  135 206 235  135 206 235  135 206 235  135 206 235  135 206 235  135 206 235  135 206 235  135 206 235  135 206 235  135 206 235  135 206 235  135 206 235  135 206 235  135 206 235  135 206 235  135 206 235  135 206 235  135 206 235  135 206 235  135 206 235  135 206 235  135 206 235  135 206 235  135 206 235  135 206 235  135 206 235  135 206 235  135 206 235  135 206 235  135 206 235  135 206 235  135 206 235  135 206 235  135 206 235  135 206 235  135 206 235  135 206 235  135 206 235  135 206 235  135 206 235  135 206 235  135 206 235  135 206 235  135 206 235  135 206 235  135 206 235  135 206 235  135 206 235  135 206 235  135 206 235  135 206 235  135 206 235  135 206 235  135 206 235  135 206 235  135 206 235  135 206 235  135 206 235  135 206 235  135 206 235  135 206 235  135 206 235  135 206 235  135 206 235  135 206 235  135 206 235  135 206 235  135 206 235  135 206 235  135 206 235  135 206 235  135 206 235  135 206 235  135 206 235  135 206 235  135 206 235  135 206 235  135 206 235  135 206 235  135 206 235  135 206 235  135 206 235  135 206 235  135 206 235  135 206 235  135 206 235  135 206 235  135 206 235  135 206 235  135 206 235  135 206 235  135 206 235  135 206 235  135 206 235  135 206 235  135 206 235  135 206 235  135 206 235  135 206 235  135 206 235  135 206 235  135 206 235  135 206 235  135 206 235  135 206 235  135 206 235  135 206 235  135 206 235  135 206 235  135 206 235  135 206 235  135 206 235  135 206 235  135 206 235  135 206 235  135 206 235  135 206 235  135 206 235  135 206 235  135 206 235  135 206 235  135 206 235  135 206 235  135 206 235  135 206 235  135 206 235  135 206 235  135 206 235  135 206 235  135 206 235  135 206 235  135 206 235  135 206 235  135 206 235  135 206 235  135 206 235  135 206 235  135 206 235  135 206 235  135 206 235  135 206 235  135 206 235  135 206 235  135 206 235  135 206 235  135 206 235  135 206 235  135 206 235  135 206 235  135 206 235  135 206 235  135 206 235  135 206 235  135 206 235  135 206 235  135 206 235  135 206 235  135 206 235  135 206 235  135 206 235  135 206 235  135 206 235  135 206 235  135 206 235  135 206 235  135 206 235  135 206 235  135 206 235  135 206 235  135 206 235  135 206 235  135 206 235  135 206 235  135 206 235  135 206 235  135 206 235  135 206 235  135 206 235  135 206 235  135 206 235  135 206 235  135 206 235  135 206 235  135 206 235  135 206 235  135 206 235  135 206 235  135 206 235  135 206 235  135 206 235  135 206 235  135 206 235  135 206 235  135 206 235  135 206 235  135 206 235  135 206 235  135 206 235  135 206 235  135 206 235  135 206 235  135 206 235  135 206 235  135 206 235  135 206 235  135 206 235  135 206 235  135 206 235  135 206 235  135 206 235  135 206 235  135 206 235  135 206 235  135 206 235  135 206 235  135 206 235  135 206 235  135 206 235  135 206 235  135 206 235  135 206 235  135 206 235  135 206 235  135 206 235  135 206 235  135 206 235  135 206 235  135 206 235  135 206 235
135 206 235  135 206 235  135 206 235  135 206 235  135 206 235  135 206 235  135 206 235  135 206 235  135 206 235  135 206 235  135 206 235  135 206 235  135 206 235  135 206 235  135 206 235  135 206 235  135 206 235  135 206 235  135 206 235  135 206 235  135 206 235  135 206 235  135 206 235  135 206 235  135 206 235  135 206 235  135 206 235  135 206 235  135 206 235  135 206 235  135 206 235  135 206 235  135 206 235  135 206 235  135 206 235  135 206 235  135 206 235  135 206 235  135 206 235  135 206 235  135 206 235  135 206 235  135 206 235  135 206 235  135 206 235  135 206 235  135 206 235  135 206 235  135 206 235  135 206 235  135 206 235  135 206 235  135 206 235  135 206 235  135 206 235  135 206 235  135 206 235  135 206 235  135 206 235  135 206 235  135 206 235  135 206 235  135 206 235  135 206 235  135 206 235  135 206 235  135 206 235  135 206 235  135 206 235  135 206 235  135 206 235  135 206 235  135 206 235  135 206 235  135 206 235  135 206 235  135 206 235  135 206 235  135 206 235  135 206 235  135 206 235  135 206 235  135 206 235  135 206 235  135 206 235  135 206 235  135 206 235  135 206 235  135 206 235  135 206 235  135 206 235  135 206 235  135 206 235  135 206 235  135 206 235  135 206 235  135 206 235  135 206 235  135 206 235  135 206 235  135 206 235  135 206 235  135 206 235  135 206 235  135 206 235  135 206 235  135 206 235  135 206 235  135 206 235  135 206 235  135 206 235  135 206 235  135 206 235  135 206 235  135 206 235  135 206 235  135 206 235  135 206 235  135 206 235  135 206 235  135 206 235  135 206 235  135 206 235  135 206 235  135 206 235  135 206 235  135 206 235  135 206 235  135 206 235  135 206 235  135 206 235  135 206 235  135 206 235  135 206 235  135 206 235  135 206 235  135 206 235  135 206 235  135 206 235  135 206 235  135 206 235  135 206 235  135 206 235  135 206 235  135 206 235  135 206 235  135 206 235  135 206 235  135 206 235  135 206 235  135 206 235  135 206 235  135 206 235  135 206 235  135 206 235  135 206 235  135 206 235  135 206 235  135 206 235  135 206 235  135 206 235  135 206 235  135 206 235  135 206 235  135 206 235  135 206 235  135 206 235  135 206 235  135 206 235  135 206 235  135 206 235  135 206 235  135 206 235  135 206 235  135 206 235  135 206 235  135 206 235  135 206 235  135 206 235  135 206 235  135 206 235  135 206 235  135 206 235  135 206 235  135 206 235  135 206 235  135 206 235  135 206 235  135 206 235  135 206 235  135 206 235  135 206 235  135 206 235  135 206 235  135 206 235  135 206 235  135 206 235  135 206 235  135 206 235  135 206 235  135 206 235  135 206 235  135 206 235  135 206 235  135 206 235  135 206 235  135 206 235  135 206 235  135 206 235  135 206 235  135 206 235  135 206 235  135 206 235  135 206 235  135 206 235  135 206 235  135 206 235  135 206 235  135 206 235  135 206 235  135 206 235  135 206 235  135 206 235  135 206 235  135 206 235  135 206 235  135 206 235  135 206 235  135 206 235  135 206 235  135 206 235  135 206 235  135 206 235  135 206 235  135 206 235  135 206 235  135 206 235  135 206 235  135 206 235  135 206 235  135 206 235  135 206 235  135 206 235  135 206 235  135 206 235  135 206 235  135 206 235  135 206 235  135 206 235  135 206 235  135 206 235  135 206 235  135 206 235  135 206 235  135 206 235  135 206 235  135 206 235  135 206 235  135 206 235  135 206 235  135 206 235  135 206 235  135 206 235  135 206 235  135 206 235  135 206 235  135 206 235  135 206 235  135 206 235  135 206 235  135 206 235  135 206 235  135 206 235  135 206 235  135 206 235  135 206 235  135 206 235  135 206 235  135 206 235  135 206 235  135 206 235  135 206 235  135 206 235  135 206 235  135 206 235  135 206 235  135 206 235  135 206 235  135 206 235  135 206 235  135 206 235  135 206 235  135 206 235  135 206 235  135 206 235  135 206 235  135 206 235  135 206 235  135 206 235  135 206 235  135 206 235  135 206 235  135 206 235  135 206 235  135 206 235  135 206 235  135 206 235  135 206 235  135 206 235  135 206 235  135 206 235  135 206 235  135 206 235  135 206 235  135 206 235  135 206 235  135 206 235  135 206 235  135 206 235  135 206 235
135 206 235  135 206 235  135 206 235  135 206 235  135 206 235  135 206 235  135 206 235  135 206 235  135 206 235  135 206 235  135 206 235  135 206 235  135 206 235  135 206 235  135 206 235  135 206 235  135 206 235  135 206 235  135 206 235  135 206 235  135 206 235  135 206 235  135 206 235  135 206 235  135 206 235  135 206 235  135 206 235  135 206 235  135 206 235  135 206 235  135 206 235  135 206 235  135 206 235  135 206 235  135 206 235  135 206 235  135 206 235  135 206 235  135 206 235  135 206 235  135 206 235  135 206 235  135 206 235  135 206 235  135 206 235  135 206 235  135 206 235  135 206 235  135 206 235  135 206 235  135 206 235  135 206 235  135 206 235  135 206 235  135 206 235  135 206 235  135 206 235  135 206 235  135 206 235  135 206 235  135 206 235  135 206 235  135 206 235  135 206 235  135 206 235  135 206 235  135 206 235  135 206 235  135 206 235  135 206 235  135 206 235  135 206 235  135 206 235  135 206 235  135 206 235  135 206 235  135 206 235  135 206 235  135 206 235  135 206 235  135 206 235  135 206 235  135 206 235  135 206 235  135 206 235  135 206 235  135 206 235  135 206 235  135 206 235  135 206 235  135 206 235  135 206 235  135 206 235  135 206 235  135 206 235  135 206 235  135 206 235  135 206 235  135 206 235  135 206 235  135 206 235  135 206 235  135 206 235  135 206 235  135 206 235  135 206 235  135 206 235  135 206 235  135 206 235  135 206 235  135 206 235  135 206 235  135 206 235  135 206 235  135 206 235  135 206 235  135 206 235  135 206 235  135 206 235  135 206 235  135 206 235  135 206 235  135 206 235  135 206 235  135 206 235  135 206 235  135 206 235  135 206 235  135 206 235  135 206 235  135 206 235  135 206 235  135 206 235  135 206 235  135 206 235  135 206 235  135 206 235  135 206 235  135 206 235  135 206 235  135 206 235  135 206 235  135 206 235  135 206 235  135 206 235  135 206 235  135 206 235  135 206 235  135 206 235  135 206 235  135 206 235  135 206 235  135 206 235  135 206 235  135 206 235  135 206 235  135 206 235  135 206 235  135 206 235  135 206 235  135 206 235  135 206 235  135 206 235  135 206 235  135 206 235  135 206 235  135 206 235  135 206 235  135 206 235  135 206 235  135 206 235  135 206 235  135 206 235  135 206 235  135 206 235  135 206 235  135 206 235  135 206 235  135 206 235  135 206 235  135 206 235  135 206 235  135 206 235  135 206 235  135 206 235  135 206 235  135 206 235  135 206 235  135 206 235  135 206 235  135 206 235  135 206 235  135 206 235  135 206 235  135 206 235  135 206 235  135 206 235  135 206 235  135 206 235  135 206 235  135 206 235  135 206 235  135 206 235  135 206 235  135 206 235  135 206 235  135 206 235  135 206 235  135 206 235  135 206 235  135 206 235  135 206 235  135 206 235  135 206 235  135 206 235  135 206 235  135 206 235  135 206 235  135 206 235  135 206 235  135 206 235  135 206 235  135 206 235  135 206 235  135 206 235  135 206 235  135 206 235  135 206 235  135 206 235  135 206 235  135 206 235  135 206 235  135 206 235  135 206 235  135 206 235  135 206 235  135 206 235  135 206 235  135 206 235  135 206 235  135 206 235  135 206 235  135 206 235  135 206 235  135 206 235  135 206 235  135 206 235  135 206 235  135 206 235  135 206 235  135 206 235  135 206 235  135 206 235  135 206 235  135 206 235  135 206 235  135 206 235  135 206 235  135 206 235  135 206 235  135 206 235  135 206 235  135 206 235  135 206 235  135 206 235  135 206 235  135 206 235  135 206 235  135 206 235  135 206 235  135 206 235  135 206 235  135 206 235  135 206 235  135 206 235  135 206 235  135 206 235  135 206 235  135 206 235  135 206 235  135 206 235  135 206 235  135 206 235  135 206 235  135 206 235  135 206 235  135 206 235  135 206 235  135 206 235  135 206 235  135 206 235  135 206 235  135 206 235  135 206 235  135 206 235  135 206 235  135 206 235  135 206 235  135 206 235  135 206 235  135 206 235  135 206 235  135 206 235  135 206 235  135 206 235  135 206 235  135 206 235  135 206 235  135 206 235  135 206 235  135 206 235  135 206 235  135 206 235  135 206 235  135 206 235  135 206 235  135 206 235  135 206 235  135 206 235  135 206 235
135 206 235  135 206 235  135 206 235  135 206 235  135 206 235  135 206 235  135 206 235  135 206 235  135 206 235  135 206 235  135 206 235  135 206 235  135 206 235  135 206 235  135 206 235  135 206 235  135 206 235  135 206 235  135 206 235  135 206 235  135 206 235  135 206 235  135 206 235  135 206 235  135 206 235  135 206 235  135 206 235  135 206 235  135 206 235  135 206 235  135 206 235  135 206 235  135 206 235  135 206 235  135 206 235  135 206 235  135 206 235  135 206 235  135 206 235  135 206 235  135 206 235  135 206 235  135 206 235  135 206 235  135 206 235  135 206 235  135 206 235  135 206 235  135 206 235  135 206 235  135 206 235  135 206 235  135 206 235  135 206 235  135 206 235  135 206 235  135 206 235  135 206 235  135 206 235  135 206 235  135 206 235  135 206 235  135 206 235  135 206 235  135 206 235  135 206 235  135 206 235  135 206 235  135 206 235  135 206 235  135 206 235  135 206 235  135 206 235  135 206 235  135 206 235  135 206 235  135 206 235  135 206 235  135 206 235  135 206 235  135 206 235  135 206 235  135 206 235  135 206 235  135 206 235  135 206 235  135 206 235  135 206 235  135 206 235  135 206 235  135 206 235  135 206 235  135 206 235  135 206 235  135 206 235  135 206 235  135 206 235  135 206 235  135 206 235  135 206 235  135 206 235  135 206 235  135 206 235  135 206 235  135 206 235  135 206 235  135 206 235  135 206 235  135 206 235  135 206 235  135 206 235  135 206 235  135 206 235  135 206 235  135 206 235  135 206 235  135 206 235  135 206 235  135 206 235  135 206 235  135 206 235  135 206 235  135 206 235  135 206 235  135 206 235  135 206 235  135 206 235  135 206 235  135 206 235  135 206 235  135 206 235  135 206 235  135 206 235  135 206 235  135 206 235  135 206 235  135 206 235  135 206 235  135 206 235  135 206 235  135 206 235  135 206 235  135 206 235  135 206 235  135 206 235  135 206 235  135 206 235  135 206 235  135 206 235  135 206 235  135 206 235  135 206 235  135 206 235  135 206 235  135 206 235  135 206 235  135 206 235  135 206 235  135 206 235  135 206 235  135 206 235  135 206 235  135 206 235  135 206 235  135 206 235  135 206 235  135 206 235  135 206 235  135 206 235  135 206 235  135 206 235  135 206 235  135 206 235  135 206 235  135 206 235  135 206 235  135 206 235  135 206 235  135 206 235  135 206 235  135 206 235  135 206 235  135 206 235  135 206 235  135 206 235  135 206 235  135 206 235  135 206 235  135 206 235  135 206 235  135 206 235  135 206 235  135 206 235  135 206 235  135 206 235  135 206 235  135 206 235  135 206 235  135 206 235  135 206 235  135 206 235  135 206 235  135 206 235  135 206 235  135 206 235  135 206 235  135 206 235  135 206 235  135 206 235  135 206 235  135 206 235  135 206 235  135 206 235  135 206 235  135 206 235  135 206 235  135 206 235  135 206 235  135 206 235  135 206 235  135 206 235  135 206 235  135 206 235  135 206 235  135 206 235  135 206 235  135 206 235  135 206 235  135 206 235  135 206 235  135 206 235  135 206 235  135 206 235  135 206 235  135 206 235  135 206 235  135 206 235  135 206 235  135 206 235  135 206 235  135 206 235  135 206 235  135 206 235  135 206 235  135 206 235  135 206 235  135 206 235  135 206 235  135 206 235  135 206 235  135 206 235  135 206 235  135 206 235  135 206 235  135 206 235  135 206 235  135 206 235  135 206 235  135 206 235  135 206 235  135 206 235  135 206 235  135 206 235  135 206 235  135 206 235  135 206 235  135 206 235  135 206 235  135 206 235  135 206 235  135 206 235  135 206 235  135 206 235  135 206 235  135 206 235  135 206 235  135 206 235  135 206 235  135 206 235  135 206 235  135 206 235  135 206 235  135 206 235  135 206 235  135 206 235  135 206 235  135 206 235  135 206 235  135 206 235  135 206 235  135 206 235  135 206 235  135 206 235  135 206 235  135 206 235  135 206 235  135 206 235  135 206 235  135 206 235  135 206 235  135 206 235  135 206 235  135 206 235  135 206 235  135 206 235  135 206 235  135 206 235  135 206 235  135 206 235  135 206 235  135 206 235  135 206 235  135 206 235  135 206 235  135 206 235  135 206 235  135 206 235  135 206 235  135 206 235  135 206 235
135 206 235  135 206 235  135 206 235  135 206 235  135 206 235  135 206 235  135 206 235  135 206 235  135 206 235  135 206 235  135 206 235  135 206 235  135 206 235  135 206 235  135 206 235  135 206 235  135 206 235  135 206 235  135 206 235  135 206 235  135 206 235  135 206 235  135 206 235  135 206 235  135 206 235  135 206 235  135 206 235  135 206 235  135 206 235  135 206 235  135 206 235  135 206 235  135 206 235  135 206 235  135 206 235  135 206 235  135 206 235  135 206 235  135 206 235  135 206 235  135 206 235  135 206 235  135 206 235  135 206 235  135 206 235  135 206 235  135 206 235  135 206 235  135 206 235  135 206 235  135 206 235  135 206 235  135 206 235  135 206 235  135 206 235  135 206 235  135 206 235  135 206 235  135 206 235  135 206 235  135 206 235  135 206 235  135 206 235  135 206 235  135 206 235  135 206 235  135 206 235  135 206 235  135 206 235  135 206 235  135 206 235  135 206 235  135 206 235  135 206 235  135 206 235  135 206 235  135 206 235  135 206 235  135 206 235  135 206 235  135 206 235  135 206 235  135 206 235  135 206 235  135 206 235  135 206 235  135 206 235  135 206 235  135 206 235  135 206 235  135 206 235  135 206 235  135 206 235  135 206 235  135 206 235  135 206 235  135 206 235  135 206 235  135 206 235  135 206 235  135 206 235  135 206 235  135 206 235  135 206 235  135 206 235  135 206 235  135 206 235  135 206 235  135 206 235  135 206 235  135 206 235  135 206 235  135 206 235  135 206 235  135 206 235  135 206 235  135 206 235  135 206 235  135 206 235  135 206 235  135 206 235  135 206 235  135 206 235  135 206 235  135 206 235  135 206 235  135 206 235  135 206 235  135 206 235  135 206 235  135 206 235  135 206 235  135 206 235  135 206 235  135 206 235  135 206 235  135 206 235  135 206 235  135 206 235  135 206 235  135 206 235  135 206 235  135 206 235  135 206 235  135 206 235  135 206 235  135 206 235  135 206 235  135 206 235  135 206 235  135 206 235  135 206 235  135 206 235  135 206 235  135 206 235  135 206 235  135 206 235  135 206 235  135 206 235  135 206 235  135 206 235  135 206 235  135 206 235  135 206 235  135 206 235  135 206 235  135 206 235  135 206 235  135 206 235  135 206 235  135 206 235  135 206 235  135 206 235  135 206 235  135 206 235  135 206 235  135 206 235  135 206 235  135 206 235  135 206 235  135 206 235  135 206 235  135 206 235  135 206 235  135 206 235  135 206 235  135 206 235  135 206 235  135 206 235  135 206 235  135 206 235  135 206 235  135 206 235  135 206 235  135 206 235  135 206 235  135 206 235  135 206 235  135 206 235  135 206 235  135 206 235  135 206 235  135 206 235  135 206 235  135 206 235  135 206 235  135 206 235  135 206 235  135 206 235  135 206 235  135 206 235  135 206 235  135 206 235  135 206 235  135 206 235  135 206 235  135 206 235  135 206 235  135 206 235  135 206 235  135 206 235  135 206 235  135 206 235  135 206 235  135 206 235  135 206 235  135 206 235  135 206 235  135 206 235  135 206 235  135 206 235  135 206 235  135 206 235  135 206 235  135 206 235  135 206 235  135 206 235  135 206 235  135 206 235  135 206 235  135 206 235  135 206 235  135 206 235  135 206 235  135 206 235  135 206 235  135 206 235  135 206 235  135 206 235  135 206 235  135 206 235  135 206 235  135 206 235  135 206 235  135 206 235  135 206 235  135 206 235  135 206 235  135 206 235  135 206 235  135 206 235  135 206 235  135 206 235  135 206 235  135 206 235  135 206 235  135 206 235  135 206 235  135 206 235  135 206 235  135 206 235  135 206 235  135 206 235  135 206 235  135 206 235  135 206 235  135 206 235  135 206 235  135 206 235  135 206 235  135 206 235  135 206 235  135 206 235  135 206 235  135 206 235  135 206 235  135 206 235  135 206 235  135 206 235  135 206 235  135 206 235  135 206 235  135 206 235  135 206 235  135 206 235  135 206 235  135 206 235  135 206 235  135 206 235  135 206 235  135 206 235  135 206 235  135 206 235  135 206 235  135 206 235  135 206 235  135 206 235  135 206 235  135 206 235  135 206 235  135 206 235  135 206 235  135 206 235  135 206 235  135 206 235  135 206 235  135 206 235  135 206 235  135 206 235  135 206 235
135 206 235  135 206 235  135 206 235  135 206 235  135 206 235  135 206 235  135 206 235  135 206 235  135 206 235  135 206 235  135 206 235  135 206 235  135 206 235  135 206 235  135 206 235  135 206 235  135 206 235  135 206 235  135 206 235  135 206 235  135 206 235  135 206 235  135 206 235  135 206 235  135 206 235  135 206 235  135 206 235  135 206 235  135 206 235  135 206 235  135 206 235  135 206 235  135 206 235  135 206 235  135 206 235  135 206 235  135 206 235  135 206 235  135 206 235  135 206 235  135 206 235  135 206 235  135 206 235  135 206 235  135 206 235  135 206 235  135 206 235  135 206 235  135 206 235  135 206 235  135 206 235  135 206 235  135 206 235  135 206 235  135 206 235  135 206 235  135 206 235  135 206 235  135 206 235  135 206 235  135 206 235  135 206 235  135 206 235  135 206 235  135 206 235  135 206 235  135 206 235  135 206 235  135 206 235  135 206 235  135 206 235  135 206 235  135 206 235  135 206 235  135 206 235  135 206 235  135 206 235  135 206 235  135 206 235  135 206 235  135 206 235  135 206 235  135 206 235  135 206 235  135 206 235  135 206 235  135 206 235  135 206 235  135 206 235  135 206 235  135 206 235  135 206 235  135 206 235  135 206 235  135 206 235  135 206 235  135 206 235  135 206 235  135 206 235  135 206 235  135 206 235  135 206 235  135 206 235  135 206 235  135 206 235  135 206 235  135 206 235  135 206 235  135 206 235  135 206 235  135 206 235  135 206 235  135 206 235  135 206 235  135 206 235  135 206 235  135 206 235  135 206 235  135 206 235  135 206 235  135 206 235  135 206 235  135 206 235  135 206 235  135 206 235  135 206 235  135 206 235  135 206 235  135 206 235  135 206 235  135 206 235  135 206 235  135 206 235  135 206 235  135 206 235  135 206 235  135 206 235  135 206 235  135 206 235  135 206 235  135 206 235  135 206 235  135 206 235  135 206 235  135 206 235  135 206 235  135 206 235  135 206 235  135 206 235  135 206 235  135 206 235  135 206 235  135 206 235  135 206 235  135 206 235  135 206 235  135 206 235  135 206 235  135 206 235  135 206 235  135 206 235  135 206 235  135 206 235  135 206 235  135 206 235  135 206 235  135 206 235  135 206 235  135 206 235  135 206 235  135 206 235  135 206 235  135 206 235  135 206 235  135 206 235  135 206 235  135 206 235  135 206 235  135 206 235  135 206 235  135 206 235  135 206 235  135 206 235  135 206 235  135 206 235  135 206 235  135 206 235  135 206 235  135 206 235  135 206 235  135 206 235  135 206 235  135 206 235  135 206 235  135 206 235  135 206 235  135 206 235  135 206 235  135 206 235  135 206 235  135 206 235  135 206 235  135 206 235  135 206 235  135 206 235  135 206 235  135 206 235  135 206 235  135 206 235  135 206 235  135 206 235  135 206 235  135 206 235  135 206 235  135 206 235  135 206 235  135 206 235  135 206 235  135 206 235  135 206 235  135 206 235  135 206 235  135 206 235  135 206 235  135 206 235  135 206 235  135 206 235  135 206 235  135 206 235  135 206 235  135 206 235  135 206 235  135 206 235  135 206 235  135 206 235  135 206 235  135 206 235  135 206 235  135 206 235  135 206 235  135 206 235  135 206 235  135 206 235  135 206 235  135 206 235  135 206 235  135 206 235  135 206 235  135 206 235  135 206 235  135 206 235  135 206 235  135 206 235  135 206 235  135 206 235  135 206 235  135 206 235  135 206 235  135 206 235  135 206 235  135 206 235  135 206 235  135 206 235  135 206 235  135 206 235  135 206 235  135 206 235  135 206 235  135 206 235  135 206 235  135 206 235  135 206 235  135 206 235  135 206 235  135 206 235  135 206 235  135 206 235  135 206 235  135 206 235  135 206 235  135 206 235  135 206 235  135 206 235  135 206 235  135 206 235  135 206 235  135 206 235  135 206 235  135 206 235  135 206 235  135 206 235  135 206 235  135 206 235  135 206 235  135 206 235  135 206 235  135 206 235  135 206 235  135 206 235  135 206 235  135 206 235  135 206 235  135 206 235  135 206 235  135 206 235  135 206 235  135 206 235  135 206 235  135 206 235  135 206 235  135 206 235  135 206 235  135 206 235  135 206 235  135 206 235  135 206 235  135 206 235  135 206 235  135 206 235  135 206 235
135 206 235  135 206 235  135 206 235  135 206 235  135 206 235  135 206 235  135 206 235  135 206 235  135 206 235  135 206 235  135 206 235  135 206 235  135 206 235  135 206 235  135 206 235  135 206 235  135 206 235  135 206 235  135 206 235  135 206 235  135 206 235  135 206 235  135 206 235  135 206 235  135 206 235  135 206 235  135 206 235  135 206 235  135 206 235  135 206 235  135 206 235  135 206 235  135 206 235  135 206 235  135 206 235  135 206 235  135 206 235  135 206 235  135 206 235  135 206 235  135 206 235  135 206 235  135 206 235  135 206 235  135 206 235  135 206 235  135 206 235  135 206 235  135 206 235  135 206 235  135 206 235  135 206 235  135 206 235  135 206 235  135 206 235  135 206 235  135 206 235  135 206 235  135 206 235  135 206 235  135 206 235  135 206 235  135 206 235  135 206 235  135 206 235  135 206 235  135 206 235  135 206 235  135 206 235  135 206 235  135 206 235  135 206 235  135 206 235  135 206 235  135 206 235  135 206 235  135 206 235  135 206 235  135 206 235  135 206 235  135 206 235  135 206 235  135 206 235  135 206 235  135 206 235  135 206 235  135 206 235  135 206 235  135 206 235  135 206 235  135 206 235  135 206 235  135 206 235  135 206 235  135 206 235  135 206 235  135 206 235  135 206 235  135 206 235  135 206 235  135 206 235  135 206 235  135 206 235  135 206 235  135 206 235  135 206 235  135 206 235  135 206 235  135 206 235  135 206 235  135 206 235  135 206 235  135 206 235  135 206 235  135 206 235  135 206 235  135 206 235  135 206 235  135 206 235  135 206 235  135 206 235  135 206 235  135 206 235  135 206 235  135 206 235  135 206 235  135 206 235  135 206 235  135 206 235  135 206 235  135 206 235  135 206 235  135 206 235  135 206 235  135 206 235  135 206 235  135 206 235  135 206 235  135 206 235  135 206 235  135 206 235  135 206 235  135 206 235  135 206 235  135 206 235  135 206 235  135 206 235  135 206 235  135 206 235  135 206 235  135 206 235  135 206 235  135 206 235  135 206 235  135 206 235  135 206 235  135 206 235  135 206 235  135 206 235  135 206 235  135 206 235  135 206 235  135 206 235  135 206 235  135 206 235  135 206 235  135 206 235  135 206 235  135 206 235  135 206 235  135 206 235  135 206 235  135 206 235  135 206 235  135 206 235  135 206 235  135 206 235  135 206 235  135 206 235  135 206 235  135 206 235  135 206 235  135 206 235  135 206 235  135 206 235  135 206 235  135 206 235  135 206 235  135 206 235  135 206 235  135 206 235  135 206 235  135 206 235  135 206 235  135 206 235  135 206 235  135 206 235  135 206 235  135 206 235  135 206 235  135 206 235  135 206 235  135 206 235  135 206 235  135 206 235  135 206 235  135 206 235  135 206 235  135 206 235  135 206 235  135 206 235  135 206 235  135 206 235  135 206 235  135 206 235  135 206 235  135 206 235  135 206 235  135 206 235  135 206 235  135 206 235  135 206 235  135 206 235  135 206 235  135 206 235  135 206 235  135 206 235  135 206 235  135 206 235  135 206 235  135 206 235  135 206 235  135 206 235  135 206 235  135 206 235  135 206 235  135 206 235  135 206 235  135 206 235  135 206 235  135 206 235  135 206 235  135 206 235  135 206 235  135 206 235  135 206 235  135 206 235  135 206 235  135 206 235  135 206 235  135 206 235  135 206 235  135 206 235  135 206 235  135 206 235  135 206 235  135 206 235  135 206 235  135 206 235  135 206 235  135 206 235  135 206 235  135 206 235  135 206 235  135 206 235  135 206 235  135 206 235  135 206 235  135 206 235  135 206 235  135 206 235  135 206 235  135 206 235  135 206 235  135 206 235  135 206 235  135 206 235  135 206 235  135 206 235  135 206 235  135 206 235  135 206 235  135 206 235  135 206 235  135 206 235  135 206 235  135 206 235  135 206 235  135 206 235  135 206 235  135 206 235  135 206 235  135 206 235  135 206 235  135 206 235  135 206 235  135 206 235  135 206 235  135 206 235  135 206 235  135 206 235  135 206 235  135 206 235  135 206 235  135 206 235  135 206 235  135 206 235  135 206 235  135 206 235  135 206 235  135 206 235  135 206 235  135 206 235  135 206 235  135 206 235  135 206 235  135 206 235  135 206 235  135 206 235  135 206 235
135 206 235  135 206 235  135 206 235  135 206 235  135 206 235  135 206 235  135 206 235  135 206 235  135 206 235  135 206 235  135 206 235  135 206 235  135 206 235  135 206 235  135 206 235  135 206 235  135 206 235  135 206 235  135 206 235  135 206 235  135 206 235  135 206 235  135 206 235  135 206 235  135 206 235  135 206 235  135 206 235  135 206 235  135 206 235  135 206 235  135 206 235  135 206 235  135 206 235  135 206 235  135 206 235  135 206 235  135 206 235  135 206 235  135 206 235  135 206 235  135 206 235  135 206 235  135 206 235  135 206 235  135 206 235  135 206 235  135 206 235  135 206 235  135 206 235  135 206 235  135 206 235  135 206 235  135 206 235  135 206 235  135 206 235  135 206 235  135 206 235  135 206 235  135 206 235  135 206 235  135 206 235  135 206 235  135 206 235  135 206 235  135 206 235  135 206 235  135 206 235  135 206 235  135 206 235  135 206 235  135 206 235  135 206 235  135 206 235  135 206 235  135 206 235  135 206 235  135 206 235  135 206 235  135 206 235  135 206 235  135 206 235  135 206 235  135 206 235  135 206 235  135 206 235  135 206 235  135 206 235  135 206 235  135 206 235  135 206 235  135 206 235  135 206 235  135 206 235  135 206 235  135 206 235  135 206 235  135 206 235  135 206 235  135 206 235  135 206 235  135 206 235  135 206 235  135 206 235  135 206 235  135 206 235  135 206 235  135 206 235  135 206 235  135 206 235  135 206 235  135 206 235  135 206 235  135 206 235  135 206 235  135 206 235  135 206 235  135 206 235  135 206 235  135 206 235  135 206 235  135 206 235  135 206 235  135 206 235  135 206 235  135 206 235  135 206 235  135 206 235  135 206 235  135 206 235  135 206 235  135 206 235  135 206 235  135 206 235  135 206 235  135 206 235  135 206 235  135 206 235  135 206 235  135 206 235  135 206 235  135 206 235  135 206 235  135 206 235  135 206 235  135 206 235  135 206 235  135 206 235  135 206 235  135 206 235  135 206 235  135 206 235  135 206 235  135 206 235  135 206 235  135 206 235  135 206 235  135 206 235  135 206 235  135 206 235  135 206 235  135 206 235  135 206 235  135 206 235  135 206 235  135 206 235  135 206 235  135 206 235  135 206 235  135 206 235  135 206 235  135 206 235  135 206 235  135 206 235  135 206 235  135 206 235  135 206 235  135 206 235  135 206 235  135 206 235  135 206 235  135 206 235  135 206 235  135 206 235  135 206 235  135 206 235  135 206 235  135 206 235  135 206 235  135 206 235  135 206 235  135 206 235  135 206 235  135 206 235  135 206 235  135 206 235  135 206 235  135 206 235  135 206 235  135 206 235  135 206 235  135 206 235  135 206 235  135 206 235  135 206 235  135 206 235  135 206 235  135 206 235  135 206 235  135 206 235  135 206 235  135 206 235  135 206 235  135 206 235  135 206 235  135 206 235  135 206 235  135 206 235  135 206 235  135 206 235  135 206 235  135 206 235  135 206 235  135 206 235  135 206 235  135 206 235  135 206 235  135 206 235  135 206 235  135 206 235  135 206 235  135 206 235  135 206 235  135 206 235  135 206 235  135 206 235  135 206 235  135 206 235  135 206 235  135 206 235  135 206 235  135 206 235  135 206 235  135 206 235  135 206 235  135 206 235  135 206 235  135 206 235  135 206 235  135 206 235  135 206 235  135 206 235  135 206 235  135 206 235  135 206 235  135 206 235  135 206 235  135 206 235  135 206 235  135 206 235  135 206 235  135 206 235  135 206 235  135 206 235  135 206 235  135 206 235  135 206 235  135 206 235  135 206 235  135 206 235  135 206 235  135 206 235  135 206 235  135 206 235  135 206 235  135 206 235  135 206 235  135 206 235  135 206 235  135 206 235  135 206 235  135 206 235  135 206 235  135 206 235  135 206 235  135 206 235  135 206 235  135 206 235  135 206 235  135 206 235  135 206 235  135 206 235  135 206 235  135 206 235  135 206 235  135 206 235  135 206 235  135 206 235  135 206 235  135 206 235  135 206 235  135 206 235  135 206 235  135 206 235  135 206 235  135 206 235  135 206 235  135 206 235  135 206 235  135 206 235  135 206 235  135 206 235  135 206 235  135 206 235  135 206 235  135 206 235  135 206 235  135 206 235  135 206 235  135 206 235  135 206 235
135 206 235  135 206 235  135 206 235  135 206 235  135 206 235  135 206 235  135 206 235  135 206 235  135 206 235  135 206 235  135 206 235  135 206 235  135 206 235  135 206 235  135 206 235  135 206 235  135 206 235  135 206 235  135 206 235  135 206 235  135 206 235  135 206 235  135 206 235  135 206 235  135 206 235  135 206 235  135 206 235  135 206 235  135 206 235  135 206 235  135 206 235  135 206 235  135 206 235  135 206 235  135 206 235  135 206 235  135 206 235  135 206 235  135 206 235  135 206 235  135 206 235  135 206 235  135 206 235  135 206 235  135 206 235  135 206 235  135 206 235  135 206 235  135 206 235  135 206 235  135 206 235  135 206 235  135 206 235  135 206 235  135 206 235  135 206 235  135 206 235  135 206 235  135 206 235  135 206 235  135 206 235  135 206 235  135 206 235  135 206 235  135 206 235  135 206 235  135 206 235  135 206 235  135 206 235  135 206 235  135 206 235  135 206 235  135 206 235  135 206 235  135 206 235  135 206 235  135 206 235  135 206 235  135 206 235  135 206 235  135 206 235  135 206 235  135 206 235  135 206 235  135 206 235  135 206 235  135 206 235  135 206 235  135 206 235  135 206 235  135 206 235  135 206 235  135 206 235  135 206 235  135 206 235  135 206 235  135 206 235  135 206 235  135 206 235  135 206 235  135 206 235  135 206 235  135 206 235  135 206 235  135 206 235  135 206 235  135 206 235  135 206 235  135 206 235  135 206 235  135 206 235  135 206 235  135 206 235  135 206 235  135 206 235  135 206 235  135 206 235  135 206 235  135 206 235  135 206 235  135 206 235  135 206 235  135 206 235  135 206 235  135 206 235  135 206 235  135 206 235  135 206 235  135 206 235  135 206 235  135 206 235  135 206 235  135 206 235  135 206 235  135 206 235  135 206 235  135 206 235  135 206 235  135 206 235  135 206 235  135 206 235  135 206 235  135 206 235  135 206 235  135 206 235  135 206 235  135 206 235  135 206 235  135 206 235  135 206 235  135 206 235  135 206 235  135 206 235  135 206 235  135 206 235  135 206 235  135 206 235  135 206 235  135 206 235  135 206 235  135 206 235  135 206 235  135 206 235  135 206 235  135 206 235  135 206 235  135 206 235  135 206 235  135 206 235  135 206 235  135 206 235  135 206 235  135 206 235  135 206 235  135 206 235  135 206 235  135 206 235  135 206 235  135 206 235  135 206 235  135 206 235  135 206 235  135 206 235  135 206 235  135 206 235  135 206 235  135 206 235  135 206 235  135 206 235  135 206 235  135 206 235  135 206 235  135 206 235  135 206 235  135 206 235  135 206 235  135 206 235  135 206 235  135 206 235  135 206 235  135 206 235  135 206 235  135 206 235  135 206 235  135 206 235  135 206 235  135 206 235  135 206 235  135 206 235  135 206 235  135 206 235  135 206 235  135 206 235  135 206 235  135 206 235  135 206 235  135 206 235  135 206 235  135 206 235  135 206 235  135 206 235  135 206 235  135 206 235  135 206 235  135 206 235  135 206 235  135 206 235  135 206 235  135 206 235  135 206 235  135 206 235  135 206 235  135 206 235  135 206 235  135 206 235  135 206 235  135 206 235  135 206 235  135 206 235  135 206 235  135 206 235  135 206 235  135 206 235  135 206 235  135 206 235  135 206 235  135 206 235  135 206 235  135 206 235  135 206 235  135 206 235  135 206 235  135 206 235  135 206 235  135 206 235  135 206 235  135 206 235  135 206 235  135 206 235  135 206 235  135 206 235  135 206 235  135 206 235  135 206 235  135 206 235  135 206 235  135 206 235  135 206 235  135 206 235  135 206 235  135 206 235  135 206 235  135 206 235  135 206 235  135 206 235  135 206 235  135 206 235  135 206 235  135 206 235  135 206 235  135 206 235  135 206 235  135 206 235  135 206 235  135 206 235  135 206 235  135 206 235  135 206 235  135 206 235  135 206 235  135 206 235  135 206 235  135 206 235  135 206 235  135 206 235  135 206 235  135 206 235  135 206 235  135 206 235  135 206 235  135 206 235  135 206 235  135 206 235  135 206 235  135 206 235  135 206 235  135 206 235  135 206 235  135 206 235  135 206 235  135 206 235  135 206 235  135 206 235  135 206 235  135 206 235  135 206 235  135 206 235  135 206 235  135 206 235  135 206 235
135 206 235  135 206 235  135 206 235  135 206 235  135 206 235  135 206 235  135 206 235  135 206 235  135 206 235  135 206 235  135 206 235  135 206 235  135 206 235  135 206 235  135 206 235  135 206 235  135 206 235  135 206 235  135 206 235  135 206 235  135 206 235  135 206 235  135 206 235  135 206 235  135 206 235  135 206 235  135 206 235  135 206 235  135 206 235  135 206 235  135 206 235  135 206 235  135 206 235  135 206 235  135 206 235  135 206 235  135 206 235  135 206 235  135 206 235  135 206 235  135 206 235  135 206 235  135 206 235  135 206 235  135 206 235  135 206 235  135 206 235  135 206 235  135 206 235  135 206 235  135 206 235  135 206 235  135 206 235  135 206 235  135 206 235  135 206 235  135 206 235  135 206 235  135 206 235  135 206 235  135 206 235  135 206 235  135 206 235  135 206 235  135 206 235  135 206 235  135 206 235  135 206 235  135 206 235  135 206 235  135 206 235  135 206 235  135 206 235  135 206 235  135 206 235  135 206 235  135 206 235  135 206 235  135 206 235  135 206 235  135 206 235  135 206 235  135 206 235  135 206 235  135 206 235  135 206 235  135 206 235  135 206 235  135 206 235  135 206 235  135 206 235  135 206 235  135 206 235  135 206 235  135 206 235  135 206 235  135 206 235  135 206 235  135 206 235  135 206 235  135 206 235  135 206 235  135 206 235  135 206 235  135 206 235  135 206 235  135 206 235  135 206 235  135 206 235  135 206 235  135 206 235  135 206 235  135 206 235  135 206 235  135 206 235  135 206 235  135 206 235  135 206 235  135 206 235  135 206 235  135 206 235  135 206 235  135 206 235  135 206 235  135 206 235  135 206 235  135 206 235  135 206 235  135 206 235  135 206 235  135 206 235  135 206 235  135 206 235  135 206 235  135 206 235  135 206 235  135 206 235  135 206 235  135 206 235  135 206 235  135 206 235  135 206 235  135 206 235  135 206 235  135 206 235  135 206 235  135 206 235  135 206 235  135 206 235  135 206 235  135 206 235  135 206 235  135 206 235  135 206 235  135 206 235  135 206 235  135 206 235  135 206 235  135 206 235  135 206 235  135 206 235  135 206 235  135 206 235  135 206 235  135 206 235  135 206 235  135 206 235  135 206 235  135 206 235  135 206 235  135 206 235  135 206 235  135 206 235  135 206 235  135 206 235  135 206 235  135 206 235  135 206 235  135 206 235  135 206 235  135 206 235  135 206 235  135 206 235  135 206 235  135 206 235  135 206 235  135 206 235  135 206 235  135 206 235  135 206 235  135 206 235  135 206 235  135 206 235  135 206 235  135 206 235  135 206 235  135 206 235  135 206 235  135 206 235  135 206 235  135 206 235  135 206 235  135 206 235  135 206 235  135 206 235  135 206 235  135 206 235  135 206 235  135 206 235  135 206 235  135 206 235  135 206 235  135 206 235  135 206 235  135 206 235  135 206 235  135 206 235  135 206 235  135 206 235  135 206 235  135 206 235  135 206 235  135 206 235  135 206 235  135 206 235  135 206 235  135 206 235  135 206 235  135 206 235  135 206 235  135 206 235  135 206 235  135 206 235  135 206 235  135 206 235  135 206 235  135 206 235  135 206 235  135 206 235  135 206 235  135 206 235  135 206 235  135 206 235  135 206 235  135 206 235  135 206 235  135 206 235  135 206 235  135 206 235  135 206 235  135 206 235  135 206 235  135 206 235  135 206 235  135 206 235  135 206 235  135 206 235  135 206 235  135 206 235  135 206 235  135 206 235  135 206 235  135 206 235  135 206 235  135 206 235  135 206 235  135 206 235  135 206 235  135 206 235  135 206 235  135 206 235  135 206 235  135 206 235  135 206 235  135 206 235  135 206 235  135 206 235  135 206 235  135 206 235  135 206 235  135 206 235  135 206 235  135 206 235  135 206 235  135 206 235  135 206 235  135 206 235  135 206 235  135 206 235  135 206 235  135 206 235  135 206 235  135 206 235  135 206 235  135 206 235  135 206 235  135 206 235  135 206 235  135 206 235  135 206 235  135 206 235  135 206 235  135 206 235  135 206 235  135 206 235  135 206 235  135 206 235  135 206 235  135 206 235  135 206 235  135 206 235  135 206 235  135 206 235  135 206 235  135 206 235  135 206 235  135 206 235  135 206 235  135 206 235  135 206 235
135 206 235  135 206 235  135 206 235  135 206 235  135 206 235  135 206 235  135 206 235  135 206 235  135 206 235  135 206 235  135 206 235  135 206 235  135 206 235  135 206 235  135 206 235  135 206 235  135 206 235  135 206 235  135 206 235  135 206 235  135 206 235  135 206 235  135 206 235  135 206 235  135 206 235  135 206 235  135 206 235  135 206 235  135 206 235  135 206 235  135 206 235  135 206 235  135 206 235  135 206 235  135 206 235  135 206 235  135 206 235  135 206 235  135 206 235  135 206 235  135 206 235  135 206 235  135 206 235  135 206 235  135 206 235  135 206 235  135 206 235  135 206 235  135 206 235  135 206 235  135 206 235  135 206 235  135 206 235  135 206 235  135 206 235  135 206 235  135 206 235  135 206 235  135 206 235  135 206 235  135 206 235  135 206 235  135 206 235  135 206 235  135 206 235  135 206 235  135 206 235  135 206 235  135 206 235  135 206 235  135 206 235  135 206 235  135 206 235  135 206 235  135 206 235  135 206 235  135 206 235  135 206 235  135 206 235  135 206 235  135 206 235  135 206 235  135 206 235  135 206 235  135 206 235  135 206 235  135 206 235  135 206 235  135 206 235  135 206 235  135 206 235  135 206 235  135 206 235  135 206 235  135 206 235  135 206 235  135 206 235  135 206 235  135 206 235  135 206 235  135 206 235  135 206 235  135 206 235  135 206 235  135 206 235  135 206 235  135 206 235  135 206 235  135 206 235  135 206 235  135 206 235  135 206 235  135 206 235  135 206 235  135 206 235  135 206 235  135 206 235  135 206 235  135 206 235  135 206 235  135 206 235  135 206 235  135 206 235  135 206 235  135 206 235  135 206 235  135 206 235  135 206 235  135 206 235  135 206 235  135 206 235  135 206 235  135 206 235  135 206 235  135 206 235  135 206 235  135 206 235  135 206 235  135 206 235  135 206 235  135 206 235  135 206 235  135 206 235  135 206 235  135 206 235  135 206 235  135 206 235  135 206 235  135 206 235  135 206 235  135 206 235  135 206 235  135 206 235  135 206 235  135 206 235  135 206 235  135 206 235  135 206 235  135 206 235  135 206 235  135 206 235  135 206 235  135 206 235  135 206 235  135 206 235  135 206 235  135 206 235  135 206 235  135 206 235  135 206 235  135 206 235  135 206 235  135 206 235  135 206 235  135 206 235  135 206 235  135 206 235  135 206 235  135 206 235  135 206 235  135 206 235  135 206 235  135 206 235  135 206 235  135 206 235  135 206 235  135 206 235  135 206 235  135 206 235  135 206 235  135 206 235  135 206 235  135 206 235  135 206 235  135 206 235  135 206 235  135 206 235  135 206 235  135 206 235  135 206 235  135 206 235  135 206 235  135 206 235  135 206 235  135 206 235  135 206 235  135 206 235  135 206 235  135 206 235  135 206 235  135 206 235  135 206 235  135 206 235  135 206 235  135 206 235  135 206 235  135 206 235  135 206 235  135 206 235  135 206 235  135 206 235  135 206 235  135 206 235  135 206 235  135 206 235  135 206 235  135 206 235  135 206 235  135 206 235  135 206 235  135 206 235  135 206 235  135 206 235  135 206 235  135 206 235  135 206 235  135 206 235  135 206 235  135 206 235  135 206 235  135 206 235  135 206 235  135 206 235  135 206 235  135 206 235  135 206 235  135 206 235  135 206 235  135 206 235  135 206 235  135 206 235  135 206 235  135 206 235  135 206 235  135 206 235  135 206 235  135 206 235  135 206 235  135 206 235  135 206 235  135 206 235  135 206 235  135 206 235  135 206 235  135 206 235  135 206 235  135 206 235  135 206 235  135 206 235  135 206 235  135 206 235  135 206 235  135 206 235  135 206 235  135 206 235  135 206 235  135 206 235  135 206 235  135 206 235  135 206 235  135 206 235  135 206 235  135 206 235  135 206 235  135 206 235  135 206 235  135 206 235  135 206 235  135 206 235  135 206 235  135 206 235  135 206 235  135 206 235  135 206 235  135 206 235  135 206 235  135 206 235  135 206 235  135 206 235  135 206 235  135 206 235  135 206 235  135 206 235  135 206 235  135 206 235  135 206 235  135 206 235  135 206 235  135 206 235  135 206 235  135 206 235  135 206 235  135 206 235  135 206 235  135 206 235  135 206 235  135 206 235  135 206 235  135 206 235  135 206 235
148 148 148  148 148 148  148 148 148  148 148 148  148 148 148  148 148 148  148 148 148  148 148 148  148 148 148  148 148 148  148 148 148  148 148 148  148 148 148  148 148 148  148 148 148  148 148 148  148 148 148  148 148 148  148 148 148  148 148 148  148 148 148  148 148 148  148 148 148  148 148 148  148 148 148  148 148 148  148 148 148  148 148 148  148 148 148  148 148 148  148 148 148  148 148 148  148 148 148  148 148 148  148 148 148  148 148 148  148 148 148  148 148 148  148 148 148  148 148 148  148 148 148  148 148 148  148 148 148  148 148 148  148 148 148  148 148 148  148 148 148  148 148 148  148 148 148  148 148 148  148 148 148  148 148 148  148 148 148  148 148 148  148 148 148  148 148 148  148 148 148  148 148 148  148 148 148  148 148 148  148 148 148  148 148 148  148 148 148  148 148 148  148 148 148  148 148 148  148 148 148  148 148 148  148 148 148  148 148 148  148 148 148  148 148 148  148 148 148  148 148 148  148 148 148  148 148 148  148 148 148  148 148 148  148 148 148  148 148 148  148 148 148  148 148 148  148 148 148  148 148 148  148 148 148  148 148 148  148 148 148  148 148 148  148 148 148  148 148 148  148 148 148  148 148 148  148 148 148  148 148 148  148 148 148  148 148 148  148 148 148  148 148 148  148 148 148  148 148 148  148 148 148  148 148 148  148 148 148  148 148 148  148 148 148  148 148 148  148 148 148  148 148 148  148 148 148  148 148 148  148 148 148  148 148 148  148 148 148  148 148 148  148 148 148  148 148 148  148 148 148  148 148 148  148 148 148  148 148 148  148 148 148  148 148 148  148 148 148  148 148 148  148 148 148  148 148 148  148 148 148  148 148 148  148 148 148  148 148 148  148 148 148  148 148 148  148 148 148  148 148 148  148 148 148  148 148 148  148 148 148  148 148 148  148 148 148  148 148 148  148 148 148  148 148 148  148 148 148  148 148 148  148 148 148  148 148 148  148 148 148  148 148 148  148 148 148  148 148 148  148 148 148  148 148 148  148 148 148  148 148 148  148 148 148  148 148 148  148 148 148  148 148 148  148 148 148  148 148 148  148 148 148  148 148 148  148 148 148  148 148 148  148 148 148  148 148 148  148 148 148  148 148 148  148 148 148  148 148 148  148 148 148  148 148 148  148 148 148  148 148 148  148 148 148  148 148 148  148 148 148  148 148 148  148 148 148  148 148 148  148 148 148  148 148 148  148 148 148  148 148 148  148 148 148  148 148 148  148 148 148  148 148 148  148 148 148  148 148 148  148 148 148  148 148 148  148 148 148  148 148 148  148 148 148  148 148 148  148 148 148  148 148 148  148 148 148  148 148 148  148 148 148  148 148 148  148 148 148  148 148 148  148 148 148  148 148 148  148 148 148  148 148 148  148 148 148  148 148 148  148 148 148  148 148 148  148 148 148  148 148 148  148 148 148  148 148 148  148 148 148  148 148 148  148 148 148  148 148 148  148 148 148  148 148 148  148 148 148  148 148 148  148 148 148  148 148 148  148 148 148  148 148 148  148 148 148  148 148 148  148 148 148  148 148 148  148 148 148  148 148 148  148 148 148  148 148 148  148 148 148  148 148 148  148 148 148  148 148 148  148 148 148  148 148 148  148 148 148  148 148 148  148 148 148  148 148 148  148 148 148  148 148 148  148 148 148  148 148 148  148 148 148  148 148 148  148 148 148  148 148 148  148 148 148  148 148 148  148 148 148  148 148 148  148 148 148  148 148 148  148 148 148  148 148 148  148 148 148  148 148 148  148 148 148  148 148 148  148 148 148  148 148 148  148 148 148  148 148 148  148 148 148  148 148 148  148 148 148  148 148 148  148 148 148  148 148 148  148 148 148  148 148 148  148 148 148  148 148 148  148 148 148  148 148 148  148 148 148  148 148 148  148 148 148  148 148 148  148 148 148  148 148 148  148 148 148  148 148 148  148 148 148  148 148 148  148 148 148  148 148 148  148 148 148  148 148 148  148 148 148  148 148 148  148 148 148  148 148 148  148 148 148  148 148 148  148 148 148  148 148 148  148 148 148  148 148 148  148 148 148  148 148 148  148 148 148  148 148 148  148 148 148  148 148 148  148 148 148  148 148 148  148 148 148  148 148 148  148 148 148  148 148 148  148 148 148  148 148 148
148 148 148  148 148 148  148 148 148  148 148 148  148 148 148  148 148 148  148 148 148  148 148 148  148 148 148  148 148 148  148 148 148  148 148 148  148 148 148  148 148 148  148 148 148  148 148 148  148 148 148  148 148 148  148 148 148  148 148 148  148 148 148  148 148 148  148 148 148  148 148 148  148 148 148  148 148 148  148 148 148  148 148 148  148 148 148  148 148 148  148 148 148  148 148 148  148 148 148  148 148 148  148 148 148  148 148 148  148 148 148  148 148 148  148 148 148  148 148 148  148 148 148  148 148 148  148 148 148  148 148 148  148 148 148  148 148 148  148 148 148  148 148 148  148 148 148  148 148 148  148 148 148  148 148 148  148 148 148  148 148 148  148 148 148  148 148 148  148 148 148  148 148 148  148 148 148  148 148 148  148 148 148  148 148 148  148 148 148  148 148 148  148 148 148  148 148 148  148 148 148  148 148 148  148 148 148  148 148 148  148 148 148  148 148 148  148 148 148  148 148 148  148 148 148  148 148 148  148 148 148  148 148 148  148 148 148  148 148 148  148 148 148  148 148 148  148 148 148  148 148 148  148 148 148  148 148 148  148 148 148  148 148 148  148 148 148  148 148 148  148 148 148  148 148 148  148 148 148  148 148 148  148 148 148  148 148 148  148 148 148  148 148 148  148 148 148  148 148 148  148 148 148  148 148 148  148 148 148  148 148 148  148 148 148  148 148 148  148 148 148  148 148 148  148 148 148  148 148 148  148 148 148  148 148 148  148 148 148  148 148 148  148 148 148  148 148 148  148 148 148  148 148 148  148 148 148  148 148 148  148 148 148  148 148 148  148 148 148  148 148 148  148 148 148  148 148 148  148 148 148  148 148 148  148 148 148  148 148 148  148 148 148  148 148 148  148 148 148  148 148 148  148 148 148  148 148 148  148 148 148  148 148 148  148 148 148  148 148 148  148 148 148  148 148 148  148 148 148  148 148 148  148 148 148  148 148 148  148 148 148  148 148 148  148 148 148  148 148 148  148 148 148  148 148 148  148 148 148  148 148 148  148 148 148  148 148 148  148 148 148  148 148 148  148 148 148  148 148 148  148 148 148  148 148 148  148 148 148  148 148 148  148 148 148  148 148 148  148 148 148  148 148 148  148 148 148  148 148 148  148 148 148  148 148 148  148 148 148  148 148 148  148 148 148  148 148 148  148 148 148  148 148 148  148 148 148  148 148 148  148 148 148  148 148 148  148 148 148  148 148 148  148 148 148  148 148 148  148 148 148  148 148 148  148 148 148  148 148 148  148 148 148  148 148 148  148 148 148  148 148 148  148 148 148  148 148 148  148 148 148  148 148 148  148 148 148  148 148 148  148 148 148  148 148 148  148 148 148  148 148 148  148 148 148  148 148 148  148 148 148  148 148 148  148 148 148  148 148 148  148 148 148  148 148 148  148 148 148  148 148 148  148 148 148  148 148 148  148 148 148  148 148 148  148 148 148  148 148 148  148 148 148  148 148 148  148 148 148  148 148 148  148 148 148  148 148 148  148 148 148  148 148 148  148 148 148  148 148 148  148 148 148  148 148 148  148 148 148  148 148 148  148 148 148  148 148 148  148 148 148  148 148 148  148 148 148  148 148 148  148 148 148  148 148 148  148 148 148  148 148 148  148 148 148  148 148 148  148 148 148  148 148 148  148 148 148  148 148 148  148 148 148  148 148 148  148 148 148  148 148 148  148 148 148  148 148 148  148 148 148  148 148 148  148 148 148  148 148 148  148 148 148  148 148 148  148 148 148  148 148 148  148 148 148  148 148 148  148 148 148  148 148 148  148 148 148  148 148 148  148 148 148  148 148 148  148 148 148  148 148 148  148 148 148  148 148 148  148 148 148  148 148 148  148 148 148  148 148 148  148 148 148  148 148 148  148 148 148  148 148 148  148 148 148  148 148 148  148 148 148  148 148 148  148 148 148  148 148 148  148 148 148  148 148 148  148 148 148  148 148 148  148 148 148  148 148 148  148 148 148  148 148 148  148 148 148  148 148 148  148 148 148  148 148 148  148 148 148  148 148 148  148 148 148  148 148 148  148 148 148  148 148 148  148 148 148  148 148 148  148 148 148  148 148 148  148 148 148  148 148 148  148 148 148  148 148 148  148 148 148  148 148 148  148 148 148  148 148 148
148 148 148  148 148 148  148 148 148  148 148 148  148 148 148  148 148 148  148 148 148  148 148 148  148 148 148  148 148 148  148 148 148  148 148 148  148 148 148  148 148 148  148 148 148  148 148 148  148 148 148  148 148 148  148 148 148  148 148 148  148 148 148  148 148 148  148 148 148  148 148 148  148 148 148  148 148 148  148 148 148  148 148 148  148 148 148  148 148 148  148 148 148  148 148 148  148 148 148  148 148 148  148 148 148  148 148 148  148 148 148  148 148 148  148 148 148  148 148 148  148 148 148  148 148 148  148 148 148  148 148 148  148 148 148  148 148 148  148 148 148  148 148 148  148 148 148  148 148 148  148 148 148  148 148 148  148 148 148  148 148 148  148 148 148  148 148 148  148 148 148  148 148 148  148 148 148  148 148 148  148 148 148  148 148 148  148 148 148  148 148 148  148 148 148  148 148 148  148 148 148  148 148 148  148 148 148  148 148 148  148 148 148  148 148 148  148 148 148  148 148 148  148 148 148  148 148 148  148 148 148  148 148 148  148 148 148  148 148 148  148 148 148  148 148 148  148 148 148  148 148 148  148 148 148  148 148 148  148 148 148  148 148 148  148 148 148  148 148 148  148 148 148  148 148 148  148 148 148  148 148 148  148 148 148  148 148 148  148 148 148  148 148 148  148 148 148  148 148 148  148 148 148  148 148 148  148 148 148  148 148 148  148 148 148  148 148 148  148 148 148  148 148 148  148 148 148  148 148 148  148 148 148  148 148 148  148 148 148  148 148 148  148 148 148  148 148 148  148 148 148  148 148 148  148 148 148  148 148 148  148 148 148  148 148 148  148 148 148  148 148 148  148 148 148  148 148 148  148 148 148  148 148 148  148 148 148  148 148 148  148 148 148  148 148 148  148 148 148  148 148 148  148 148 148  148 148 148  148 148 148  148 148 148  148 148 148  148 148 148  148 148 148  148 148 148  148 148 148  148 148 148  148 148 148  148 148 148  148 148 148  148 148 148  148 148 148  148 148 148  148 148 148  148 148 148  148 148 148  148 148 148  148 148 148  148 148 148  148 148 148  148 148 148  148 148 148  148 148 148  148 148 148  148 148 148  148 148 148  148 148 148  148 148 148  148 148 148  148 148 148  148 148 148  148 148 148  148 148 148  148 148 148  148 148 148  148 148 148  148 148 148  148 148 148  148 148 148  148 148 148  148 148 148  148 148 148  148 148 148  148 148 148  148 148 148  148 148 148  148 148 148  148 148 148  148 148 148  148 148 148  148 148 148  148 148 148  148 148 148  148 148 148  148 148 148  148 148 148  148 148 148  148 148 148  148 148 148  148 148 148  148 148 148  148 148 148  148 148 148  148 148 148  148 148 148  148 148 148  148 148 148  148 148 148  148 148 148  148 148 148  148 148 148  148 148 148  148 148 148  148 148 148  148 148 148  148 148 148  148 148 148  148 148 148  148 148 148  148 148 148  148 148 148  148 148 148  148 148 148  148 148 148  148 148 148  148 148 148  148 148 148  148 148 148  148 148 148  148 148 148  148 148 148  148 148 148  148 148 148  148 148 148  148 148 148  148 148 148  148 148 148  148 148 148  148 148 148  148 148 148  148 148 148  148 148 148  148 148 148  148 148 148  148 148 148  148 148 148  148 148 148  148 148 148  148 148 148  148 148 148  148 148 148  148 148 148  148 148 148  148 148 148  148 148 148  148 148 148  148 148 148  148 148 148  148 148 148  148 148 148  148 148 148  148 148 148  148 148 148  148 148 148  148 148 148  148 148 148  148 148 148  148 148 148  148 148 148  148 148 148  148 148 148  148 148 148  148 148 148  148 148 148  148 148 148  148 148 148  148 148 148  148 148 148  148 148 148  148 148 148  148 148 148  148 148 148  148 148 148  148 148 148  148 148 148  148 148 148  148 148 148  148 148 148  148 148 148  148 148 148  148 148 148  148 148 148  148 148 148  148 148 148  148 148 148  148 148 148  148 148 148  148 148 148  148 148 148  148 148 148  148 148 148  148 148 148  148 148 148  148 148 148  148 148 148  148 148 148  148 148 148  148 148 148  148 148 148  148 148 148  148 148 148  148 148 148  148 148 148  148 148 148  148 148 148  148 148 148  148 148 148  148 148 148  148 148 148  148 148 148  148 148 148  148 148 148  148 148 148
148 148 148  148 148 148  148 148 148  148 148 148  148 148 148  148 148 148  148 148 148  148 148 148  148 148 148  148 148 148  148 148 148  148 148 148  148 148 148  148 148 148  148 148 148  148 148 148  148 148 148  148 148 148  148 148 148  148 148 148  148 148 148  148 148 148  148 148 148  148 148 148  148 148 148  148 148 148  148 148 148  148 148 148  148 148 148  148 148 148  148 148 148  148 148 148  148 148 148  148 148 148  148 148 148  148 148 148  148 148 148  148 148 148  148 148 148  148 148 148  148 148 148  148 148 148  148 148 148  148 148 148  148 148 148  148 148 148  148 148 148  148 148 148  148 148 148  148 148 148  148 148 148  148 148 148  148 148 148  148 148 148  148 148 148  148 148 148  148 148 148  148 148 148  148 148 148  148 148 148  148 148 148  148 148 148  148 148 148  148 148 148  148 148 148  148 148 148  148 148 148  148 148 148  148 148 148  148 148 148  148 148 148  148 148 148  148 148 148  148 148 148  148 148 148  148 148 148  148 148 148  148 148 148  148 148 148  148 148 148  148 148 148  148 148 148  148 148 148  148 148 148  148 148 148  148 148 148  148 148 148  148 148 148  148 148 148  148 148 148  148 148 148  148 148 148  148 148 148  148 148 148  148 148 148  148 148 148  148 148 148  148 148 148  148 148 148  148 148 148  148 148 148  148 148 148  148 148 148  148 148 148  148 148 148  148 148 148  148 148 148  148 148 148  148 148 148  148 148 148  148 148 148  148 148 148  148 148 148  148 148 148  148 148 148  148 148 148  148 148 148  148 148 148  148 148 148  148 148 148  148 148 148  148 148 148  148 148 148  148 148 148  148 148 148  148 148 148  148 148 148  148 148 148  148 148 148  148 148 148  148 148 148  148 148 148  148 148 148  148 148 148  148 148 148  148 148 148  148 148 148  148 148 148  148 148 148  148 148 148  148 148 148  148 148 148  148 148 148  148 148 148  148 148 148  148 148 148  148 148 148  148 148 148  148 148 148  148 148 148  148 148 148  148 148 148  148 148 148  148 148 148  148 148 148  148 148 148  148 148 148  148 148 148  148 148 148  148 148 148  148 148 148  148 148 148  148 148 148  148 148 148  148 148 148  148 148 148  148 148 148  148 148 148  148 148 148  148 148 148  148 148 148  148 148 148  148 148 148  148 148 148  148 148 148  148 148 148  148 148 148  148 148 148  148 148 148  148 148 148  148 148 148  148 148 148  148 148 148  148 148 148  148 148 148  148 148 148  148 148 148  148 148 148  148 148 148  148 148 148  148 148 148  148 148 148  148 148 148  148 148 148  148 148 148  148 148 148  148 148 148  148 148 148  148 148 148  148 148 148  148 148 148  148 148 148  148 148 148  148 148 148  148 148 148  148 148 148  148 148 148  148 148 148  148 148 148  148 148 148  148 148 148  148 148 148  148 148 148  148 148 148  148 148 148  148 148 148  148 148 148  148 148 148  148 148 148  148 148 148  148 148 148  148 148 148  148 148 148  148 148 148  148 148 148  148 148 148  148 148 148  148 148 148  148 148 148  148 148 148  148 148 148  148 148 148  148 148 148  148 148 148  148 148 148  148 148 148  148 148 148  148 148 148  148 148 148  148 148 148  148 148 148  148 148 148  148 148 148  148 148 148  148 148 148  148 148 148  148 148 148  148 148 148  148 148 148  148 148 148  148 148 148  148 148 148  148 148 148  148 148 148  148 148 148  148 148 148  148 148 148  148 148 148  148 148 148  148 148 148  148 148 148  148 148 148  148 148 148  148 148 148  148 148 148  148 148 148  148 148 148  148 148 148  148 148 148  148 148 148  148 148 148  148 148 148  148 148 148  148 148 148  148 148 148  148 148 148  148 148 148  148 148 148  148 148 148  148 148 148  148 148 148  148 148 148  148 148 148  148 148 148  148 148 148  148 148 148  148 148 148  148 148 148  148 148 148  148 148 148  148 148 148  148 148 148  148 148 148  148 148 148  148 148 148  148 148 148  148 148 148  148 148 148  148 148 148  148 148 148  148 148 148  148 148 148  148 148 148  148 148 148  148 148 148  148 148 148  148 148 148  148 148 148  148 148 148  148 148 148  148 148 148  148 148 148  148 148 148  148 148 148  148 148 148  148 148 148  148 148 148  148 148 148  148 148 148  148 148 148
148 148 148  148 148 148  148 148 148  148 148 148  148 148 148  148 148 148  148 148 148  148 148 148  148 148 148  148 148 148  148 148 148  148 148 148  148 148 148  148 148 148  148 148 148  148 148 148  148 148 148  148 148 148  148 148 148  148 148 148  148 148 148  148 148 148  148 148 148  148 148 148  148 148 148  148 148 148  148 148 148  148 148 148  148 148 148  148 148 148  148 148 148  148 148 148  148 148 148  148 148 148  148 148 148  148 148 148  148 148 148  148 148 148  148 148 148  148 148 148  148 148 148  148 148 148  148 148 148  148 148 148  148 148 148  148 148 148  148 148 148  148 148 148  148 148 148  148 148 148  148 148 148  148 148 148  148 148 148  148 148 148  148 148 148  148 148 148  148 148 148  148 148 148  148 148 148  148 148 148  148 148 148  148 148 148  148 148 148  148 148 148  148 148 148  148 148 148  148 148 148  148 148 148  148 148 148  148 148 148  148 148 148  148 148 148  148 148 148  148 148 148  148 148 148  148 148 148  148 148 148  148 148 148  148 148 148  148 148 148  148 148 148  148 148 148  148 148 148  148 148 148  148 148 148  148 148 148  148 148 148  148 148 148  148 148 148  148 148 148  148 148 148  148 148 148  148 148 148  148 148 148  148 148 148  148 148 148  148 148 148  148 148 148  148 148 148  148 148 148  148 148 148  148 148 148  148 148 148  148 148 148  148 148 148  148 148 148  148 148 148  148 148 148  148 148 148  148 148 148  148 148 148  148 148 148  148 148 148  148 148 148  148 148 148  148 148 148  148 148 148  148 148 148  148 148 148  148 148 148  148 148 148  148 148 148  148 148 148  148 148 148  148 148 148  148 148 148  148 148 148  148 148 148  148 148 148  148 148 148  148 148 148  148 148 148  148 148 148  148 148 148  148 148 148  148 148 148  148 148 148  148 148 148  148 148 148  148 148 148  148 148 148  148 148 148  148 148 148  148 148 148  148 148 148  148 148 148  148 148 148  148 148 148  148 148 148  148 148 148  148 148 148  148 148 148  148 148 148  148 148 148  148 148 148  148 148 148  148 148 148  148 148 148  148 148 148  148 148 148  148 148 148  148 148 148  148 148 148  148 148 148  148 148 148  148 148 148  148 148 148  148 148 148  148 148 148  148 148 148  148 148 148  148 148 148  148 148 148  148 148 148  148 148 148  148 148 148  148 148 148  148 148 148  148 148 148  148 148 148  148 148 148  148 148 148  148 148 148  148 148 148  148 148 148  148 148 148  148 148 148  148 148 148  148 148 148  148 148 148  148 148 148  148 148 148  148 148 148  148 148 148  148 148 148  148 148 148  148 148 148  148 148 148  148 148 148  148 148 148  148 148 148  148 148 148  148 148 148  148 148 148  148 148 148  148 148 148  148 148 148  148 148 148  148 148 148  148 148 148  148 148 148  148 148 148  148 148 148  148 148 148  148 148 148  148 148 148  148 148 148  148 148 148  148 148 148  148 148 148  148 148 148  148 148 148  148 148 148  148 148 148  148 148 148  148 148 148  148 148 148  148 148 148  148 148 148  148 148 148  148 148 148  148 148 148  148 148 148  148 148 148  148 148 148  148 148 148  148 148 148  148 148 148  148 148 148  148 148 148  148 148 148  148 148 148  148 148 148  148 148 148  148 148 148  148 148 148  148 148 148  148 148 148  148 148 148  148 148 148  148 148 148  148 148 148  148 148 148  148 148 148  148 148 148  148 148 148  148 148 148  148 148 148  148 148 148  148 148 148  148 148 148  148 148 148  148 148 148  148 148 148  148 148 148  148 148 148  148 148 148  148 148 148  148 148 148  148 148 148  148 148 148  148 148 148  148 148 148  148 148 148  148 148 148  148 148 148  148 148 148  148 148 148  148 148 148  148 148 148  148 148 148  148 148 148  148 148 148  148 148 148  148 148 148  148 148 148  148 148 148  148 148 148  148 148 148  148 148 148  148 148 148  148 148 148  148 148 148  148 148 148  148 148 148  148 148 148  148 148 148  148 148 148  148 148 148  148 148 148  148 148 148  148 148 148  148 148 148  148 148 148  148 148 148  148 148 148  148 148 148  148 148 148  148 148 148  148 148 148  148 148 148  148 148 148  148 148 148  148 148 148  148 148 148  148 148 148  148 148 148  148 148 148  148 148 148  148 148 148
148 148 148  148 148 148  148 148 148  148 148 148  148 148 148  148 148 148  148 148 148  148 148 148  148 148 148  148 148 148  148 148 148  148 148 148  148 148 148  148 148 148  148 148 148  148 148 148  148 148 148  148 148 148  148 148 148  148 148 148  148 148 148  148 148 148  148 148 148  148 148 148  148 148 148  148 148 148  148 148 148  148 148 148  148 148 148  148 148 148  148 148 148  148 148 148  148 148 148  148 148 148  148 148 148  148 148 148  148 148 148  148 148 148  148 148 148  148 148 148  148 148 148  148 148 148  148 148 148  148 148 148  148 148 148  148 148 148  148 148 148  148 148 148  148 148 148  148 148 148  148 148 148  148 148 148  148 148 148  148 148 148  148 148 148  148 148 148  148 148 148  148 148 148  148 148 148  148 148 148  148 148 148  148 148 148  148 148 148  148 148 148  148 148 148  148 148 148  148 148 148  148 148 148  148 148 148  148 148 148  148 148 148  148 148 148  148 148 148  148 148 148  148 148 148  148 148 148  148 148 148  148 148 148  148 148 148  148 148 148  148 148 148  148 148 148  148 148 148  148 148 148  148 148 148  148 148 148  148 148 148  148 148 148  148 148 148  148 148 148  148 148 148  148 148 148  148 148 148  148 148 148  148 148 148  148 148 148  148 148 148  148 148 148  148 148 148  148 148 148  148 148 148  148 148 148  148 148 148  148 148 148  148 148 148  148 148 148  148 148 148  148 148 148  148 148 148  148 148 148  148 148 148  148 148 148  148 148 148  148 148 148  148 148 148  148 148 148  148 148 148  148 148 148  148 148 148  148 148 148  148 148 148  148 148 148  148 148 148  148 148 148  148 148 148  148 148 148  148 148 148  148 148 148  148 148 148  148 148 148  148 148 148  148 148 148  148 148 148  148 148 148  148 148 148  148 148 148  148 148 148  148 148 148  148 148 148  148 148 148  148 148 148  148 148 148  148 148 148  148 148 148  148 148 148  148 148 148  148 148 148  148 148 148  148 148 148  148 148 148  148 148 148  148 148 148  148 148 148  148 148 148  148 148 148  148 148 148  148 148 148  148 148 148  148 148 148  148 148 148  148 148 148  148 148 148  148 148 148  148 148 148  148 148 148  148 148 148  148 148 148  148 148 148  148 148 148  148 148 148  148 148 148  148 148 148  148 148 148  148 148 148  148 148 148  148 148 148  148 148 148  148 148 148  148 148 148  148 148 148  148 148 148  148 148 148  148 148 148  148 148 148  148 148 148  148 148 148  148 148 148  148 148 148  148 148 148  148 148 148  148 148 148  148 148 148  148 148 148  148 148 148  148 148 148  148 148 148  148 148 148  148 148 148  148 148 148  148 148 148  148 148 148  148 148 148  148 148 148  148 148 148  148 148 148  148 148 148  148 148 148  148 148 148  148 148 148  148 148 148  148 148 148  148 148 148  148 148 148  148 148 148  148 148 148  148 148 148  148 148 148  148 148 148  148 148 148  148 148 148  148 148 148  148 148 148  148 148 148  148 148 148  148 148 148  148 148 148  148 148 148  148 148 148  148 148 148  148 148 148  148 148 148  148 148 148  148 148 148  148 148 148  148 148 148  148 148 148  148 148 148  148 148 148  148 148 148  148 148 148  148 148 148  148 148 148  148 148 148  148 148 148  148 148 148  148 148 148  148 148 148  148 148 148  148 148 148  148 148 148  148 148 148  148 148 148  148 148 148  148 148 148  148 148 148  148 148 148  148 148 148  148 148 148  148 148 148  148 148 148  148 148 148  148 148 148  148 148 148  148 148 148  148 148 148  148 148 148  148 148 148  148 148 148  148 148 148  148 148 148  148 148 148  148 148 148  148 148 148  148 148 148  148 148 148  148 148 148  148 148 148  148 148 148  148 148 148  148 148 148  148 148 148  148 148 148  148 148 148  148 148 148  148 148 148  148 148 148  148 148 148  148 148 148  148 148 148  148 148 148  148 148 148  148 148 148  148 148 148  148 148 148  148 148 148  148 148 148  148 148 148  148 148 148  148 148 148  148 148 148  148 148 148  148 148 148  148 148 148  148 148 148  148 148 148  148 148 148  148 148 148  148 148 148  148 148 148  148 148 148  148 148 148  148 148 148  148 148 148  148 148 148  148 148 148  148 148 148  148 148 148  148 148 148  148 148 148  148 148 148
148 148 148  148 148 148  148 148 148  148 148 148  148 148 148  148 148 148  148 148 148  148 148 148  148 148 148  148 148 148  148 148 148  148 148 148  148 148 148  148 148 148  148 148 148  148 148 148  148 148 148  148 148 148  148 148 148  148 148 148  148 148 148  148 148 148  148 148 148  148 148 148  148 148 148  148 148 148  148 148 148  148 148 148  148 148 148  148 148 148  148 148 148  148 148 148  148 148 148  148 148 148  148 148 148  148 148 148  148 148 148  148 148 148  148 148 148  148 148 148  148 148 148  148 148 148  148 148 148  148 148 148  148 148 148  148 148 148  148 148 148  148 148 148  148 148 148  148 148 148  148 148 148  148 148 148  148 148 148  148 148 148  148 148 148  148 148 148  148 148 148  148 148 148  148 148 148  148 148 148  148 148 148  148 148 148  148 148 148  148 148 148  148 148 148  148 148 148  148 148 148  148 148 148  148 148 148  148 148 148  148 148 148  148 148 148  148 148 148  148 148 148  148 148 148  148 148 148  148 148 148  148 148 148  148 148 148  148 148 148  148 148 148  148 148 148  148 148 148  148 148 148  148 148 148  148 148 148  148 148 148  148 148 148  148 148 148  148 148 148  148 148 148  148 148 148  148 148 148  148 148 148  148 148 148  148 148 148  148 148 148  148 148 148  148 148 148  148 148 148  148 148 148  148 148 148  148 148 148  148 148 148  148 148 148  148 148 148  148 148 148  148 148 148  148 148 148  148 148 148  148 148 148  148 148 148  148 148 148  148 148 148  148 148 148  148 148 148  148 148 148  148 148 148  148 148 148  148 148 148  148 148 148  148 148 148  148 148 148  148 148 148  148 148 148  148 148 148  148 148 148  148 148 148  148 148 148  148 148 148  148 148 148  148 148 148  148 148 148  148 148 148  148 148 148  148 148 148  148 148 148  148 148 148  148 148 148  148 148 148  148 148 148  148 148 148  148 148 148  148 148 148  148 148 148  148 148 148  148 148 148  148 148 148  148 148 148  148 148 148  148 148 148  148 148 148  148 148 148  148 148 148  148 148 148  148 148 148  148 148 148  148 148 148  148 148 148  148 148 148  148 148 148  148 148 148  148 148 148  148 148 148  148 148 148  148 148 148  148 148 148  148 148 148  148 148 148  148 148 148  148 148 148  148 148 148  148 148 148  148 148 148  148 148 148  148 148 148  148 148 148  148 148 148  148 148 148  148 148 148  148 148 148  148 148 148  148 148 148  148 148 148  148 148 148  148 148 148  148 148 148  148 148 148  148 148 148  148 148 148  148 148 148  148 148 148  148 148 148  148 148 148  148 148 148  148 148 148  148 148 148  148 148 148  148 148 148  148 148 148  148 148 148  148 148 148  148 148 148  148 148 148  148 148 148  148 148 148  148 148 148  148 148 148  148 148 148  148 148 148  148 148 148  148 148 148  148 148 148  148 148 148  148 148 148  148 148 148  148 148 148  148 148 148  148 148 148  148 148 148  148 148 148  148 148 148  148 148 148  148 148 148  148 148 148  148 148 148  148 148 148  148 148 148  148 148 148  148 148 148  148 148 148  148 148 148  148 148 148  148 148 148  148 148 148  148 148 148  148 148 148  148 148 148  148 148 148  148 148 148  148 148 148  148 148 148  148 148 148  148 148 148  148 148 148  148 148 148  148 148 148  148 148 148  148 148 148  148 148 148  148 148 148  148 148 148  148 148 148  148 148 148  148 148 148  148 148 148  148 148 148  148 148 148  148 148 148  148 148 148  148 148 148  148 148 148  148 148 148  148 148 148  148 148 148  148 148 148  148 148 148  148 148 148  148 148 148  148 148 148  148 148 148  148 148 148  148 148 148  148 148 148  148 148 148  148 148 148  148 148 148  148 148 148  148 148 148  148 148 148  148 148 148  148 148 148  148 148 148  148 148 148  148 148 148  148 148 148  148 148 148  148 148 148  148 148 148  148 148 148  148 148 148  148 148 148  148 148 148  148 148 148  148 148 148  148 148 148  148 148 148  148 148 148  148 148 148  148 148 148  148 148 148  148 148 148  148 148 148  148 148 148  148 148 148  148 148 148  148 148 148  148 148 148  148 148 148  148 148 148  148 148 148  148 148 148  148 148 148  148 148 148  148 148 148  148 148 148  148 148 148  148 148 148  148 148 148  148 148 148
148 148 148  148 148 148  148 148 148  148 148 148  148 148 148  148 148 148  148 148 148  148 148 148  148 148 148  148 148 148  148 148 148  148 148 148  148 148 148  148 148 148  148 148 148  148 148 148  148 148 148  148 148 148  148 148 148  148 148 148  148 148 148  148 148 148  148 148 148  148 148 148  148 148 148  148 148 148  148 148 148  148 148 148  148 148 148  148 148 148  148 148 148  148 148 148  148 148 148  148 148 148  148 148 148  148 148 148  148 148 148  148 148 148  148 148 148  148 148 148  148 148 148  148 148 148  148 148 148  148 148 148  148 148 148  148 148 148  148 148 148  148 148 148  148 148 148  148 148 148  148 148 148  148 148 148  148 148 148  148 148 148  148 148 148  148 148 148  148 148 148  148 148 148  148 148 148  148 148 148  148 148 148  148 148 148  148 148 148  148 148 148  148 148 148  148 148 148  148 148 148  148 148 148  148 148 148  148 148 148  148 148 148  148 148 148  148 148 148  148 148 148  148 148 148  148 148 148  148 148 148  148 148 148  148 148 148  148 148 148  148 148 148  148 148 148  148 148 148  148 148 148  148 148 148  148 148 148  148 148 148  148 148 148  148 148 148  148 148 148  148 148 148  148 148 148  148 148 148  148 148 148  148 148 148  148 148 148  148 148 148  148 148 148  148 148 148  148 148 148  148 148 148  148 148 148  148 148 148  148 148 148  148 148 148  148 148 148  148 148 148  148 148 148  148 148 148  148 148 148  148 148 148  148 148 148  148 148 148  148 148 148  148 148 148  148 148 148  148 148 148  148 148 148  148 148 148  148 148 148  148 148 148  148 148 148  148 148 148  148 148 148  148 148 148  148 148 148  148 148 148  148 148 148  148 148 148  148 148 148  148 148 148  148 148 148  148 148 148  148 148 148  148 148 148  148 148 148  148 148 148  148 148 148  148 148 148  148 148 148  148 148 148  148 148 148  148 148 148  148 148 148  148 148 148  148 148 148  148 148 148  148 148 148  148 148 148  148 148 148  148 148 148  148 148 148  148 148 148  148 148 148  148 148 148  148 148 148  148 148 148  148 148 148  148 148 148  148 148 148  148 148 148  148 148 148  148 148 148  148 148 148  148 148 148  148 148 148  148 148 148  148 148 148  148 148 148  148 148 148  148 148 148  148 148 148  148 148 148  148 148 148  148 148 148  148 148 148  148 148 148  148 148 148  148 148 148  148 148 148  148 148 148  148 148 148  148 148 148  148 148 148  148 148 148  148 148 148  148 148 148  148 148 148  148 148 148  148 148 148  148 148 148  148 148 148  148 148 148  148 148 148  148 148 148  148 148 148  148 148 148  148 148 148  148 148 148  148 148 148  148 148 148  148 148 148  148 148 148  148 148 148  148 148 148  148 148 148  148 148 148  148 148 148  148 148 148  148 148 148  148 148 148  148 148 148  148 148 148  148 148 148  148 148 148  148 148 148  148 148 148  148 148 148  148 148 148  148 148 148  148 148 148  148 148 148  148 148 148  148 148 148  148 148 148  148 148 148  148 148 148  148 148 148  148 148 148  148 148 148  148 148 148  148 148 148  148 148 148  148 148 148  148 148 148  148 148 148  148 148 148  148 148 148  148 148 148  148 148 148  148 148 148  148 148 148  148 148 148  148 148 148  148 148 148  148 148 148  148 148 148  148 148 148  148 148 148  148 148 148  148 148 148  148 148 148  148 148 148  148 148 148  148 148 148  148 148 148  148 148 148  148 148 148  148 148 148  148 148 148  148 148 148  148 148 148  148 148 148  148 148 148  148 148 148  148 148 148  148 148 148  148 148 148  148 148 148  148 148 148  148 148 148  148 148 148  148 148 148  148 148 148  148 148 148  148 148 148  148 148 148  148 148 148  148 148 148  148 148 148  148 148 148  148 148 148  148 148 148  148 148 148  148 148 148  148 148 148  148 148 148  148 148 148  148 148 148  148 148 148  148 148 148  148 148 148  148 148 148  148 148 148  148 148 148  148 148 148  148 148 148  148 148 148  148 148 148  148 148 148  148 148 148  148 148 148  148 148 148  148 148 148  148 148 148  148 148 148  148 148 148  148 148 148  148 148 148  148 148 148  148 148 148  148 148 148  148 148 148  148 148 148  148 148 148  148 148 148  148 148 148  148 148 148  148 148 148  148 148 148
148 148 148  148 148 148  148 148 148  148 148 148  148 148 148  148 148 148  148 148 148  148 148 148  148 148 148  148 148 148  148 148 148  148 148 148  148 148 148  148 148 148  148 148 148  148 148 148  148 148 148  148 148 148  148 148 148  148 148 148  148 148 148  148 148 148  148 148 148  148 148 148  148 148 148  148 148 148  148 148 148  148 148 148  148 148 148  148 148 148  148 148 148  148 148 148  148 148 148  148 148 148  148 148 148  148 148 148  148 148 148  148 148 148  148 148 148  148 148 148  148 148 148  148 148 148  148 148 148  148 148 148  148 148 148  148 148 148  148 148 148  148 148 148  148 148 148  148 148 148  148 148 148  148 148 148  148 148 148  148 148 148  148 148 148  148 148 148  148 148 148  148 148 148  148 148 148  148 148 148  148 148 148  148 148 148  148 148 148  148 148 148  148 148 148  148 148 148  148 148 148  148 148 148  148 148 148  148 148 148  148 148 148  148 148 148  148 148 148  148 148 148  148 148 148  148 148 148  148 148 148  148 148 148  148 148 148  148 148 148  148 148 148  148 148 148  148 148 148  148 148 148  148 148 148  148 148 148  148 148 148  148 148 148  148 148 148  148 148 148  148 148 148  148 148 148  148 148 148  148 148 148  148 148 148  148 148 148  148 148 148  148 148 148  148 148 148  148 148 148  148 148 148  148 148 148  148 148 148  148 148 148  148 148 148  148 148 148  148 148 148  148 148 148  148 148 148  148 148 148  148 148 148  148 148 148  148 148 148  148 148 148  148 148 148  148 148 148  148 148 148  148 148 148  148 148 148  148 148 148  148 148 148  148 148 148  148 148 148  148 148 148  148 148 148  148 148 148  148 148 148  148 148 148  148 148 148  148 148 148  148 148 148  148 148 148  148 148 148  148 148 148  148 148 148  148 148 148  148 148 148  148 148 148  148 148 148  148 148 148  148 148 148  148 148 148  148 148 148  148 148 148  148 148 148  148 148 148  148 148 148  148 148 148  148 148 148  148 148 148  148 148 148  148 148 148  148 148 148  148 148 148  148 148 148  148 148 148  148 148 148  148 148 148  148 148 148  148 148 148  148 148 148  148 148 148  148 148 148  148 148 148  148 148 148  148 148 148  148 148 148  148 148 148  148 148 148  148 148 148  148 148 148  148 148 148  148 148 148  148 148 148  148 148 148  148 148 148  148 148 148  148 148 148  148 148 148  148 148 148  148 148 148  148 148 148  148 148 148  148 148 148  148 148 148  148 148 148  148 148 148  148 148 148  148 148 148  148 148 148  148 148 148  148 148 148  148 148 148  148 148 148  148 148 148  148 148 148  148 148 148  148 148 148  148 148 148  148 148 148  148 148 148  148 148 148  148 148 148  148 148 148  148 148 148  148 148 148  148 148 148  148 148 148  148 148 148  148 148 148  148 148 148  148 148 148  148 148 148  148 148 148  148 148 148  148 148 148  148 148 148  148 148 148  148 148 148  148 148 148  148 148 148  148 148 148  148 148 148  148 148 148  148 148 148  148 148 148  148 148 148  148 148 148  148 148 148  148 148 148  148 148 148  148 148 148  148 148 148  148 148 148  148 148 148  148 148 148  148 148 148  148 148 148  148 148 148  148 148 148  148 148 148  148 148 148  148 148 148  148 148 148  148 148 148  148 148 148  148 148 148  148 148 148  148 148 148  148 148 148  148 148 148  148 148 148  148 148 148  148 148 148  148 148 148  148 148 148  148 148 148  148 148 148  148 148 148  148 148 148  148 148 148  148 148 148  148 148 148  148 148 148  148 148 148  148 148 148  148 148 148  148 148 148  148 148 148  148 148 148  148 148 148  148 148 148  148 148 148  148 148 148  148 148 148  148 148 148  148 148 148  148 148 148  148 148 148  148 148 148  148 148 148  148 148 148  148 148 148  148 148 148  148 148 148  148 148 148  148 148 148  148 148 148  148 148 148  148 148 148  148 148 148  148 148 148  148 148 148  148 148 148  148 148 148  148 148 148  148 148 148  148 148 148  148 148 148  148 148 148  148 148 148  148 148 148  148 148 148  148 148 148  148 148 148  148 148 148  148 148 148  148 148 148  148 148 148  148 148 148  148 148 148  148 148 148  148 148 148  148 148 148  148 148 148  148 148 148  148 148 148  148 148 148  148 148 148  148 148 148
148 148 148  148 148 148  148 148 148  148 148 148  148 148 148  148 148 148  148 148 148  148 148 148  148 148 148  148 148 148  148 148 148  148 148 148  148 148 148  148 148 148  148 148 148  148 148 148  148 148 148  148 148 148  148 148 148  148 148 148  148 148 148  148 148 148  148 148 148  148 148 148  148 148 148  148 148 148  148 148 148  148 148 148  148 148 148  148 148 148  148 148 148  148 148 148  148 148 148  148 148 148  148 148 148  148 148 148  148 148 148  148 148 148  148 148 148  148 148 148  148 148 148  148 148 148  148 148 148  148 148 148  148 148 148  148 148 148  148 148 148  148 148 148  148 148 148  148 148 148  148 148 148  148 148 148  148 148 148  148 148 148  148 148 148  148 148 148  148 148 148  148 148 148  148 148 148  148 148 148  148 148 148  148 148 148  148 148 148  148 148 148  148 148 148  148 148 148  148 148 148  148 148 148  148 148 148  148 148 148  148 148 148  148 148 148  148 148 148  148 148 148  148 148 148  148 148 148  148 148 148  148 148 148  148 148 148  148 148 148  148 148 148  148 148 148  148 148 148  148 148 148  148 148 148  148 148 148  148 148 148  148 148 148  148 148 148  148 148 148  148 148 148  148 148 148  148 148 148  148 148 148  148 148 148  148 148 148  148 148 148  148 148 148  148 148 148  148 148 148  148 148 148  148 148 148  148 148 148  148 148 148  148 148 148  148 148 148  148 148 148  148 148 148  148 148 148  148 148 148  148 148 148  148 148 148  148 148 148  148 148 148  148 148 148  148 148 148  148 148 148  148 148 148  148 148 148  148 148 148  148 148 148  148 148 148  148 148 148  148 148 148  148 148 148  148 148 148  148 148 148  148 148 148  148 148 148  148 148 148  148 148 148  148 148 148  148 148 148  148 148 148  148 148 148  148 148 148  148 148 148  148 148 148  148 148 148  148 148 148  148 148 148  148 148 148  148 148 148  148 148 148  148 148 148  148 148 148  148 148 148  148 148 148  148 148 148  148 148 148  148 148 148  148 148 148  148 148 148  148 148 148  148 148 148  148 148 148  148 148 148  148 148 148  148 148 148  148 148 148  148 148 148  148 148 148  148 148 148  148 148 148  148 148 148  148 148 148  148 148 148  148 148 148  148 148 148  148 148 148  148 148 148  148 148 148  148 148 148  148 148 148  148 148 148  148 148 148  148 148 148  148 148 148  148 148 148  148 148 148  148 148 148  148 148 148  148 148 148  148 148 148  148 148 148  148 148 148  148 148 148  148 148 148  148 148 148  148 148 148  148 148 148  148 148 148  148 148 148  148 148 148  148 148 148  148 148 148  148 148 148  148 148 148  148 148 148  148 148 148  148 148 148  148 148 148  148 148 148  148 148 148  148 148 148  148 148 148  148 148 148  148 148 148  148 148 148  148 148 148  148 148 148  148 148 148  148 148 148  148 148 148  148 148 148  148 148 148  148 148 148  148 148 148  148 148 148  148 148 148  148 148 148  148 148 148  148 148 148  148 148 148  148 148 148  148 148 148  148 148 148  148 148 148  148 148 148  148 148 148  148 148 148  148 148 148  148 148 148  148 148 148  148 148 148  148 148 148  148 148 148  148 148 148  148 148 148  148 148 148  148 148 148  148 148 148  148 148 148  148 148 148  148 148 148  148 148 148  148 148 148  148 148 148  148 148 148  148 148 148  148 148 148  148 148 148  148 148 148  148 148 148  148 148 148  148 148 148  148 148 148  148 148 148  148 148 148  148 148 148  148 148 148  148 148 148  148 148 148  148 148 148  148 148 148  148 148 148  148 148 148  148 148 148  148 148 148  148 148 148  148 148 148  148 148 148  148 148 148  148 148 148  148 148 148  148 148 148  148 148 148  148 148 148  148 148 148  148 148 148  148 148 148  148 148 148  148 148 148  148 148 148  148 148 148  148 148 148  148 148 148  148 148 148  148 148 148  148 148 148  148 148 148  148 148 148  148 148 148  148 148 148  148 148 148  148 148 148  148 148 148  148 148 148  148 148 148  148 148 148  148 148 148  148 148 148  148 148 148  148 148 148  148 148 148  148 148 148  148 148 148  148 148 148  148 148 148  148 148 148  148 148 148  148 148 148  148 148 148  148 148 148  148 148 148  148 148 148  148 148 148  148 148 148  148 148 148  148 148 148
148 148 148  148 148 148  148 148 148  148 148 148  148 148 148  148 148 148  148 148 148  148 148 148  148 148 148  148 148 148  148 148 148  148 148 148  148 148 148  148 148 148  148 148 148  148 148 148  148 148 148  148 148 148  148 148 148  148 148 148  148 148 148  148 148 148  148 148 148  148 148 148  148 148 148  148 148 148  148 148 148  148 148 148  148 148 148  148 148 148  148 148 148  148 148 148  148 148 148  148 148 148  148 148 148  148 148 148  148 148 148  148 148 148  148 148 148  148 148 148  148 148 148  148 148 148  148 148 148  148 148 148  148 148 148  148 148 148  148 148 148  148 148 148  148 148 148  148 148 148  148 148 148  148 148 148  148 148 148  148 148 148  148 148 148  148 148 148  148 148 148  148 148 148  148 148 148  148 148 148  148 148 148  148 148 148  148 148 148  148 148 148  148 148 148  148 148 148  148 148 148  148 148 148  148 148 148  148 148 148  148 148 148  148 148 148  148 148 148  148 148 148  148 148 148  148 148 148  148 148 148  148 148 148  148 148 148  148 148 148  148 148 148  148 148 148  148 148 148  148 148 148  148 148 148  148 148 148  148 148 148  148 148 148  148 148 148  148 148 148  148 148 148  148 148 148  148 148 148  148 148 148  148 148 148  148 148 148  148 148 148  148 148 148  148 148 148  148 148 148  148 148 148  148 148 148  148 148 148  148 148 148  148 148 148  148 148 148  148 148 148  148 148 148  148 148 148  148 148 148  148 148 148  148 148 148  148 148 148  148 148 148  148 148 148  148 148 148  148 148 148  148 148 148  148 148 148  148 148 148  148 148 148  148 148 148  148 148 148  148 148 148  148 148 148  148 148 148  148 148 148  148 148 148  148 148 148  148 148 148  148 148 148  148 148 148  148 148 148  148 148 148  148 148 148  148 148 148  148 148 148  148 148 148  148 148 148  148 148 148  148 148 148  148 148 148  148 148 148  148 148 148  148 148 148  148 148 148  148 148 148  148 148 148  148 148 148  148 148 148  148 148 148  148 148 148  148 148 148  148 148 148  148 148 148  148 148 148  148 148 148  148 148 148  148 148 148  148 148 148  148 148 148  148 148 148  148 148 148  148 148 148  148 148 148  148 148 148  148 148 148  148 148 148  148 148 148  148 148 148  148 148 148  148 148 148  148 148 148  148 148 148  148 148 148  148 148 148  148 148 148  148 148 148  148 148 148  148 148 148  148 148 148  148 148 148  148 148 148  148 148 148  148 148 148  148 148 148  148 148 148  148 148 148  148 148 148  148 148 148  148 148 148  148 148 148  148 148 148  148 148 148  148 148 148  148 148 148  148 148 148  148 148 148  148 148 148  148 148 148  148 148 148  148 148 148  148 148 148  148 148 148  148 148 148  148 148 148  148 148 148  148 148 148  148 148 148  148 148 148  148 148 148  148 148 148  148 148 148  148 148 148  148 148 148  148 148 148  148 148 148  148 148 148  148 148 148  148 148 148  148 148 148  148 148 148  148 148 148  148 148 148  148 148 148  148 148 148  148 148 148  148 148 148  148 148 148  148 148 148  148 148 148  148 148 148  148 148 148  148 148 148  148 148 148  148 148 148  148 148 148  148 148 148  148 148 148  148 148 148  148 148 148  148 148 148  148 148 148  148 148 148  148 148 148  148 148 148  148 148 148  148 148 148  148 148 148  148 148 148  148 148 148  148 148 148  148 148 148  148 148 148  148 148 148  148 148 148  148 148 148  148 148 148  148 148 148  148 148 148  148 148 148  148 148 148  148 148 148  148 148 148  148 148 148  148 148 148  148 148 148  148 148 148  148 148 148  148 148 148  148 148 148  148 148 148  148 148 148  148 148 148  148 148 148  148 148 148  148 148 148  148 148 148  148 148 148  148 148 148  148 148 148  148 148 148  148 148 148  148 148 148  148 148 148  148 148 148  148 148 148  148 148 148  148 148 148  148 148 148  148 148 148  148 148 148  148 148 148  148 148 148  148 148 148  148 148 148  148 148 148  148 148 148  148 148 148  148 148 148  148 148 148  148 148 148  148 148 148  148 148 148  148 148 148  148 148 148  148 148 148  148 148 148  148 148 148  148 148 148  148 148 148  148 148 148  148 148 148  148 148 148  148 148 148  148 148 148  148 148 148  148 148 148  148 148 148  148 148 148
148 148 148  148 148 148  148 148 148  148 148 148  148 148 148  148 148 148  148 148 148  148 148 148  148 148 148  148 148 148  148 148 148  148 148 148  148 148 148  148 148 148  148 148 148  148 148 148  148 148 148  148 148 148  148 148 148  148 148 148  148 148 148  148 148 148  148 148 148  148 148 148  148 148 148  148 148 148  148 148 148  148 148 148  148 148 148  148 148 148  148 148 148  148 148 148  148 148 148  148 148 148  148 148 148  148 148 148  148 148 148  148 148 148  148 148 148  148 148 148  148 148 148  148 148 148  148 148 148  148 148 148  148 148 148  148 148 148  148 148 148  148 148 148  148 148 148  148 148 148  148 148 148  148 148 148  148 148 148  148 148 148  148 148 148  148 148 148  148 148 148  148 148 148  148 148 148  148 148 148  148 148 148  148 148 148  148 148 148  148 148 148  148 148 148  148 148 148  148 148 148  148 148 148  148 148 148  148 148 148  148 148 148  148 148 148  148 148 148  148 148 148  148 148 148  148 148 148  148 148 148  148 148 148  148 148 148  148 148 148  148 148 148  148 148 148  148 148 148  148 148 148  148 148 148  148 148 148  148 148 148  148 148 148  148 148 148  148 148 148  148 148 148  148 148 148  148 148 148  148 148 148  148 148 148  148 148 148  148 148 148  148 148 148  148 148 148  148 148 148  148 148 148  148 148 148  148 148 148  148 148 148  148 148 148  148 148 148  148 148 148  148 148 148  148 148 148  148 148 148  148 148 148  148 148 148  148 148 148  148 148 148  148 148 148  148 148 148  148 148 148  148 148 148  148 148 148  148 148 148  148 148 148  148 148 148  148 148 148  148 148 148  148 148 148  148 148 148  148 148 148  148 148 148  148 148 148  148 148 148  148 148 148  148 148 148  148 148 148  148 148 148  148 148 148  148 148 148  148 148 148  148 148 148  148 148 148  148 148 148  148 148 148  148 148 148  148 148 148  148 148 148  148 148 148  148 148 148  148 148 148  148 148 148  148 148 148  148 148 148  148 148 148  148 148 148  148 148 148  148 148 148  148 148 148  148 148 148  148 148 148  148 148 148  148 148 148  148 148 148  148 148 148  148 148 148  148 148 148  148 148 148  148 148 148  148 148 148  148 148 148  148 148 148  148 148 148  148 148 148  148 148 148  148 148 148  148 148 148  148 148 148  148 148 148  148 148 148  148 148 148  148 148 148  148 148 148  148 148 148  148 148 148  148 148 148  148 148 148  148 148 148  148 148 148  148 148 148  148 148 148  148 148 148  148 148 148  148 148 148  148 148 148  148 148 148  148 148 148  148 148 148  148 148 148  148 148 148  148 148 148  148 148 148  148 148 148  148 148 148  148 148 148  148 148 148  148 148 148  148 148 148  148 148 148  148 148 148  148 148 148  148 148 148  148 148 148  148 148 148  148 148 148  148 148 148  148 148 148  148 148 148  148 148 148  148 148 148  148 148 148  148 148 148  148 148 148  148 148 148  148 148 148  148 148 148  148 148 148  148 148 148  148 148 148  148 148 148  148 148 148  148 148 148  148 148 148  148 148 148  148 148 148  148 148 148  148 148 148  148 148 148  148 148 148  148 148 148  148 148 148  148 148 148  148 148 148  148 148 148  148 148 148  148 148 148  148 148 148  148 148 148  148 148 148  148 148 148  148 148 148  148 148 148  148 148 148  148 148 148  148 148 148  148 148 148  148 148 148  148 148 148  148 148 148  148 148 148  148 148 148  148 148 148  148 148 148  148 148 148  148 148 148  148 148 148  148 148 148  148 148 148  148 148 148  148 148 148  148 148 148  148 148 148  148 148 148  148 148 148  148 148 148  148 148 148  148 148 148  148 148 148  148 148 148  148 148 148  148 148 148  148 148 148  148 148 148  148 148 148  148 148 148  148 148 148  148 148 148  148 148 148  148 148 148  148 148 148  148 148 148  148 148 148  148 148 148  148 148 148  148 148 148  148 148 148  148 148 148  148 148 148  148 148 148  148 148 148  148 148 148  148 148 148  148 148 148  148 148 148  148 148 148  148 148 148  148 148 148  148 148 148  148 148 148  148 148 148  148 148 148  148 148 148  148 148 148  148 148 148  148 148 148  148 148 148  148 148 148  148 148 148  148 148 148  148 148 148  148 148 148  148 148 148  148 148 148  148 148 148
148 148 148  148 148 148  148 148 148  148 148 148  148 148 148  148 148 148  148 148 148  148 148 148  148 148 148  148 148 148  148 148 148  148 148 148  148 148 148  148 148 148  148 148 148  148 148 148  148 148 148  148 148 148  148 148 148  148 148 148  148 148 148  148 148 148  148 148 148  148 148 148  148 148 148  148 148 148  148 148 148  148 148 148  148 148 148  148 148 148  148 148 148  148 148 148  148 148 148  148 148 148  148 148 148  148 148 148  148 148 148  148 148 148  148 148 148  148 148 148  148 148 148  148 148 148  148 148 148  148 148 148  148 148 148  148 148 148  148 148 148  148 148 148  148 148 148  148 148 148  148 148 148  148 148 148  148 148 148  148 148 148  148 148 148  148 148 148  148 148 148  148 148 148  148 148 148  148 148 148  148 148 148  148 148 148  148 148 148  148 148 148  148 148 148  148 148 148  148 148 148  148 148 148  148 148 148  148 148 148  148 148 148  148 148 148  148 148 148  148 148 148  148 148 148  148 148 148  148 148 148  148 148 148  148 148 148  148 148 148  148 148 148  148 148 148  148 148 148  148 148 148  148 148 148  148 148 148  148 148 148  148 148 148  148 148 148  148 148 148  148 148 148  148 148 148  148 148 148  148 148 148  148 148 148  148 148 148  148 148 148  148 148 148  148 148 148  148 148 148  148 148 148  148 148 148  148 148 148  148 148 148  148 148 148  148 148 148  148 148 148  148 148 148  148 148 148  148 148 148  148 148 148  148 148 148  148 148 148  148 148 148  148 148 148  148 148 148  148 148 148  148 148 148  148 148 148  148 148 148  148 148 148  148 148 148  148 148 148  148 148 148  148 148 148  148 148 148  148 148 148  148 148 148  148 148 148  148 148 148  148 148 148  148 148 148  148 148 148  148 148 148  148 148 148  148 148 148  148 148 148  148 148 148  148 148 148  148 148 148  148 148 148  148 148 148  148 148 148  148 148 148  148 148 148  148 148 148  148 148 148  148 148 148  148 148 148  148 148 148  148 148 148  148 148 148  148 148 148  148 148 148  148 148 148  148 148 148  148 148 148  148 148 148  148 148 148  148 148 148  148 148 148  148 148 148  148 148 148  148 148 148  148 148 148  148 148 148  148 148 148  148 148 148  148 148 148  148 148 148  148 148 148  148 148 148  148 148 148  148 148 148  148 148 148  148 148 148  148 148 148  148 148 148  148 148 148  148 148 148  148 148 148  148 148 148  148 148 148  148 148 148  148 148 148  148 148 148  148 148 148  148 148 148  148 148 148  148 148 148  148 148 148  148 148 148  148 148 148  148 148 148  148 148 148  148 148 148  148 148 148  148 148 148  148 148 148  148 148 148  148 148 148  148 148 148  148 148 148  148 148 148  148 148 148  148 148 148  148 148 148  148 148 148  148 148 148  148 148 148  148 148 148  148 148 148  148 148 148  148 148 148  148 148 148  148 148 148  148 148 148  148 148 148  148 148 148  148 148 148  148 148 148  148 148 148  148 148 148  148 148 148  148 148 148  148 148 148  148 148 148  148 148 148  148 148 148  148 148 148  148 148 148  148 148 148  148 148 148  148 148 148  148 148 148  148 148 148  148 148 148  148 148 148  148 148 148  148 148 148  148 148 148  148 148 148  148 148 148  148 148 148  148 148 148  148 148 148  148 148 148  148 148 148  148 148 148  148 148 148  148 148 148  148 148 148  148 148 148  148 148 148  148 148 148  148 148 148  148 148 148  148 148 148  148 148 148  148 148 148  148 148 148  148 148 148  148 148 148  148 148 148  148 148 148  148 148 148  148 148 148  148 148 148  148 148 148  148 148 148  148 148 148  148 148 148  148 148 148  148 148 148  148 148 148  148 148 148  148 148 148  148 148 148  148 148 148  148 148 148  148 148 148  148 148 148  148 148 148  148 148 148  148 148 148  148 148 148  148 148 148  148 148 148  148 148 148  148 148 148  148 148 148  148 148 148  148 148 148  148 148 148  148 148 148  148 148 148  148 148 148  148 148 148  148 148 148  148 148 148  148 148 148  148 148 148  148 148 148  148 148 148  148 148 148  148 148 148  148 148 148  148 148 148  148 148 148  148 148 148  148 148 148  148 148 148  148 148 148  148 148 148  148 148 148  148 148 148  148 148 148  148 148 148  148 148 148  148 148 148
148 148 148  148 148 148  148 148 148  148 148 148  148 148 148  148 148 148  148 148 148  148 148 148  148 148 148  148 148 148  148 148 148  148 148 148  148 148 148  148 148 148  148 148 148  148 148 148  148 148 148  148 148 148  148 148 148  148 148 148  148 148 148  148 148 148  148 148 148  148 148 148  148 148 148  148 148 148  148 148 148  148 148 148  148 148 148  148 148 148  148 148 148  148 148 148  148 148 148  148 148 148  148 148 148  148 148 148  148 148 148  148 148 148  148 148 148  148 148 148  148 148 148  148 148 148  148 148 148  148 148 148  148 148 148  148 148 148  148 148 148  148 148 148  148 148 148  148 148 148  148 148 148  148 148 148  148 148 148  148 148 148  148 148 148  148 148 148  148 148 148  148 148 148  148 148 148  148 148 148  148 148 148  148 148 148  148 148 148  148 148 148  148 148 148  148 148 148  148 148 148  148 148 148  148 148 148  148 148 148  148 148 148  148 148 148  148 148 148  148 148 148  148 148 148  148 148 148  148 148 148  148 148 148  148 148 148  148 148 148  148 148 148  148 148 148  148 148 148  148 148 148  148 148 148  148 148 148  148 148 148  148 148 148  148 148 148  148 148 148  148 148 148  148 148 148  148 148 148  148 148 148  148 148 148  148 148 148  148 148 148  148 148 148  148 148 148  148 148 148  148 148 148  148 148 148  148 148 148  148 148 148  148 148 148  148 148 148  148 148 148  148 148 148  148 148 148  148 148 148  148 148 148  148 148 148  148 148 148  148 148 148  148 148 148  148 148 148  148 148 148  148 148 148  148 148 148  148 148 148  148 148 148  148 148 148  148 148 148  148 148 148  148 148 148  148 148 148  148 148 148  148 148 148  148 148 148  148 148 148  148 148 148  148 148 148  148 148 148  148 148 148  148 148 148  148 148 148  148 148 148  148 148 148  148 148 148  148 148 148  148 148 148  148 148 148  148 148 148  148 148 148  148 148 148  148 148 148  148 148 148  148 148 148  148 148 148  148 148 148  148 148 148  148 148 148  148 148 148  148 148 148  148 148 148  148 148 148  148 148 148  148 148 148  148 148 148  148 148 148  148 148 148  148 148 148  148 148 148  148 148 148  148 148 148  148 148 148  148 148 148  148 148 148  148 148 148  148 148 148  148 148 148  148 148 148  148 148 148  148 148 148  148 148 148  148 148 148  148 148 148  148 148 148  148 148 148  148 148 148  148 148 148  148 148 148  148 148 148  148 148 148  148 148 148  148 148 148  148 148 148  148 148 148  148 148 148  148 148 148  148 148 148  148 148 148  148 148 148  148 148 148  148 148 148  148 148 148  148 148 148  148 148 148  148 148 148  148 148 148  148 148 148  148 148 148  148 148 148  148 148 148  148 148 148  148 148 148  148 148 148  148 148 148  148 148 148  148 148 148  148 148 148  148 148 148  148 148 148  148 148 148  148 148 148  148 148 148  148 148 148  148 148 148  148 148 148  148 148 148  148 148 148  148 148 148  148 148 148  148 148 148  148 148 148  148 148 148  148 148 148  148 148 148  148 148 148  148 148 148  148 148 148  148 148 148  148 148 148  148 148 148  148 148 148  148 148 148  148 148 148  148 148 148  148 148 148  148 148 148  148 148 148  148 148 148  148 148 148  148 148 148  148 148 148  148 148 148  148 148 148  148 148 148  148 148 148  148 148 148  148 148 148  148 148 148  148 148 148  148 148 148  148 148 148  148 148 148  148 148 148  148 148 148  148 148 148  148 148 148  148 148 148  148 148 148  148 148 148  148 148 148  148 148 148  148 148 148  148 148 148  148 148 148  148 148 148  148 148 148  148 148 148  148 148 148  148 148 148  148 148 148  148 148 148  148 148 148  148 148 148  148 148 148  148 148 148  148 148 148  148 148 148  148 148 148  148 148 148  148 148 148  148 148 148  148 148 148  148 148 148  148 148 148  148 148 148  148 148 148  148 148 148  148 148 148  148 148 148  148 148 148  148 148 148  148 148 148  148 148 148  148 148 148  148 148 148  148 148 148  148 148 148  148 148 148  148 148 148  148 148 148  148 148 148  148 148 148  148 148 148  148 148 148  148 148 148  148 148 148  148 148 148  148 148 148  148 148 148  148 148 148  148 148 148  148 148 148  148 148 148  148 148 148  148 148 148  148 148 148
148 148 148  148 148 148  148 148 148  148 148 148  148 148 148  148 148 148  148 148 148  148 148 148  148 148 148  148 148 148  148 148 148  148 148 148  148 148 148  148 148 148  148 148 148  148 148 148  148 148 148  148 148 148  148 148 148  148 148 148  148 148 148  148 148 148  148 148 148  148 148 148  148 148 148  148 148 148  148 148 148  148 148 148  148 148 148  148 148 148  148 148 148  148 148 148  148 148 148  148 148 148  148 148 148  148 148 148  148 148 148  148 148 148  148 148 148  148 148 148  148 148 148  148 148 148  148 148 148  148 148 148  148 148 148  148 148 148  148 148 148  148 148 148  148 148 148  148 148 148  148 148 148  148 148 148  148 148 148  148 148 148  148 148 148  148 148 148  148 148 148  148 148 148  148 148 148  148 148 148  148 148 148  148 148 148  148 148 148  148 148 148  148 148 148  148 148 148  148 148 148  148 148 148  148 148 148  148 148 148  148 148 148  148 148 148  148 148 148  148 148 148  148 148 148  148 148 148  148 148 148  148 148 148  148 148 148  148 148 148  148 148 148  148 148 148  148 148 148  148 148 148  148 148 148  148 148 148  148 148 148  148 148 148  148 148 148  148 148 148  148 148 148  148 148 148  148 148 148  148 148 148  148 148 148  148 148 148  148 148 148  148 148 148  148 148 148  148 148 148  148 148 148  148 148 148  148 148 148  148 148 148  148 148 148  148 148 148  148 148 148  148 148 148  148 148 148  148 148 148  148 148 148  148 148 148  148 148 148  148 148 148  148 148 148  148 148 148  148 148 148  148 148 148  148 148 148  148 148 148  148 148 148  148 148 148  148 148 148  148 148 148  148 148 148  148 148 148  148 148 148  148 148 148  148 148 148  148 148 148  148 148 148  148 148 148  148 148 148  148 148 148  148 148 148  148 148 148  148 148 148  148 148 148  148 148 148  148 148 148  148 148 148  148 148 148  148 148 148  148 148 148  148 148 148  148 148 148  148 148 148  148 148 148  148 148 148  148 148 148  148 148 148  148 148 148  148 148 148  148 148 148  148 148 148  148 148 148  148 148 148  148 148 148  148 148 148  148 148 148  148 148 148  148 148 148  148 148 148  148 148 148  148 148 148  148 148 148  148 148 148  148 148 148  148 148 148  148 148 148  148 148 148  148 148 148  148 148 148  148 148 148  148 148 148  148 148 148  148 148 148  148 148 148  148 148 148  148 148 148  148 148 148  148 148 148  148 148 148  148 148 148  148 148 148  148 148 148  148 148 148  148 148 148  148 148 148  148 148 148  148 148 148  148 148 148  148 148 148  148 148 148  148 148 148  148 148 148  148 148 148  148 148 148  148 148 148  148 148 148  148 148 148  148 148 148  148 148 148  148 148 148  148 148 148  148 148 148  148 148 148  148 148 148  148 148 148  148 148 148  148 148 148  148 148 148  148 148 148  148 148 148  148 148 148  148 148 148  148 148 148  148 148 148  148 148 148  148 148 148  148 148 148  148 148 148  148 148 148  148 148 148  148 148 148  148 148 148  148 148 148  148 148 148  148 148 148  148 148 148  148 148 148  148 148 148  148 148 148  148 148 148  148 148 148  148 148 148  148 148 148  148 148 148  148 148 148  148 148 148  148 148 148  148 148 148  148 148 148  148 148 148  148 148 148  148 148 148  148 148 148  148 148 148  148 148 148  148 148 148  148 148 148  148 148 148  148 148 148  148 148 148  148 148 148  148 148 148  148 148 148  148 148 148  148 148 148  148 148 148  148 148 148  148 148 148  148 148 148  148 148 148  148 148 148  148 148 148  148 148 148  148 148 148  148 148 148  148 148 148  148 148 148  148 148 148  148 148 148  148 148 148  148 148 148  148 148 148  148 148 148  148 148 148  148 148 148  148 148 148  148 148 148  148 148 148  148 148 148  148 148 148  148 148 148  148 148 148  148 148 148  148 148 148  148 148 148  148 148 148  148 148 148  148 148 148  148 148 148  148 148 148  148 148 148  148 148 148  148 148 148  148 148 148  148 148 148  148 148 148  148 148 148  148 148 148  148 148 148  148 148 148  148 148 148  148 148 148  148 148 148  148 148 148  148 148 148  148 148 148  148 148 148  148 148 148  148 148 148  148 148 148  148 148 148  148 148 148  148 148 148  148 148 148  148 148 148  148 148 148
148 148 148  148 148 148  148 148 148  148 148 148  148 148 148  148 148 148  148 148 148  148 148 148  148 148 148  148 148 148  148 148 148  148 148 148  148 148 148  148 148 148  148 148 148  148 148 148  148 148 148  148 148 148  148 148 148  148 148 148  148 148 148  148 148 148  148 148 148  148 148 148  148 148 148  148 148 148  148 148 148  148 148 148  148 148 148  148 148 148  148 148 148  148 148 148  148 148 148  148 148 148  148 148 148  148 148 148  148 148 148  148 148 148  148 148 148  148 148 148  148 148 148  148 148 148  148 148 148  148 148 148  148 148 148  148 148 148  148 148 148  148 148 148  148 148 148  148 148 148  148 148 148  148 148 148  148 148 148  148 148 148  148 148 148  148 148 148  148 148 148  148 148 148  148 148 148  148 148 148  148 148 148  148 148 148  148 148 148  148 148 148  148 148 148  148 148 148  148 148 148  148 148 148  148 148 148  148 148 148  148 148 148  148 148 148  148 148 148  148 148 148  148 148 148  148 148 148  148 148 148  148 148 148  148 148 148  148 148 148  148 148 148  148 148 148  148 148 148  148 148 148  148 148 148  148 148 148  148 148 148  148 148 148  148 148 148  148 148 148  148 148 148  148 148 148  148 148 148  148 148 148  148 148 148  148 148 148  148 148 148  148 148 148  148 148 148  148 148 148  148 148 148  148 148 148  148 148 148  148 148 148  148 148 148  148 148 148  148 148 148  148 148 148  148 148 148  148 148 148  148 148 148  148 148 148  148 148 148  148 148 148  148 148 148  148 148 148  148 148 148  148 148 148  148 148 148  148 148 148  148 148 148  148 148 148  148 148 148  148 148 148  148 148 148  148 148 148  148 148 148  148 148 148  148 148 148  148 148 148  148 148 148  148 148 148  148 148 148  148 148 148  148 148 148  148 148 148  148 148 148  148 148 148  148 148 148  148 148 148  148 148 148  148 148 148  148 148 148  148 148 148  148 148 148  148 148 148  148 148 148  148 148 148  148 148 148  148 148 148  148 148 148  148 148 148  148 148 148  148 148 148  148 148 148  148 148 148  148 148 148  148 148 148  148 148 148  148 148 148  148 148 148  148 148 148  148 148 148  148 148 148  148 148 148  148 148 148  148 148 148  148 148 148  148 148 148  148 148 148  148 148 148  148 148 148  148 148 148  148 148 148  148 148 148  148 148 148  148 148 148  148 148 148  148 148 148  148 148 148  148 148 148  148 148 148  148 148 148  148 148 148  148 148 148  148 148 148  148 148 148  148 148 148  148 148 148  148 148 148  148 148 148  148 148 148  148 148 148  148 148 148  148 148 148  148 148 148  148 148 148  148 148 148  148 148 148  148 148 148  148 148 148  148 148 148  148 148 148  148 148 148  148 148 148  148 148 148  148 148 148  148 148 148  148 148 148  148 148 148  148 148 148  148 148 148  148 148 148  148 148 148  148 148 148  148 148 148  148 148 148  148 148 148  148 148 148  148 148 148  148 148 148  148 148 148  148 148 148  148 148 148  148 148 148  148 148 148  148 148 148  148 148 148  148 148 148  148 148 148  148 148 148  148 148 148  148 148 148  148 148 148  148 148 148  148 148 148  148 148 148  148 148 148  148 148 148  148 148 148  148 148 148  148 148 148  148 148 148  148 148 148  148 148 148  148 148 148  148 148 148  148 148 148  148 148 148  148 148 148  148 148 148  148 148 148  148 148 148  148 148 148  148 148 148  148 148 148  148 148 148  148 148 148  148 148 148  148 148 148  148 148 148  148 148 148  148 148 148  148 148 148  148 148 148  148 148 148  148 148 148  148 148 148  148 148 148  148 148 148  148 148 148  148 148 148  148 148 148  148 148 148  148 148 148  148 148 148  148 148 148  148 148 148  148 148 148  148 148 148  148 148 148  148 148 148  148 148 148  148 148 148  148 148 148  148 148 148  148 148 148  148 148 148  148 148 148  148 148 148  148 148 148  148 148 148  148 148 148  148 148 148  148 148 148  148 148 148  148 148 148  148 148 148  148 148 148  148 148 148  148 148 148  148 148 148  148 148 148  148 148 148  148 148 148  148 148 148  148 148 148  148 148 148  148 148 148  148 148 148  148 148 148  148 148 148  148 148 148  148 148 148  148 148 148  148 148 148  148 148 148  148 148 148  148 148 148  148 148 148
148 148 148  148 148 148  148 148 148  148 148 148  148 148 148  148 148 148  148 148 148  148 148 148  148 148 148  148 148 148  148 148 148  148 148 148  148 148 148  148 148 148  148 148 148  148 148 148  148 148 148  148 148 148  148 148 148  148 148 148  148 148 148  148 148 148  148 148 148  148 148 148  148 148 148  148 148 148  148 148 148  148 148 148  148 148 148  148 148 148  148 148 148  148 148 148  148 148 148  148 148 148  148 148 148  148 148 148  148 148 148  148 148 148  148 148 148  148 148 148  148 148 148  148 148 148  148 148 148  148 148 148  148 148 148  148 148 148  148 148 148  148 148 148  148 148 148  148 148 148  148 148 148  148 148 148  148 148 148  148 148 148  148 148 148  148 148 148  148 148 148  148 148 148  148 148 148  148 148 148  148 148 148  148 148 148  148 148 148  148 148 148  148 148 148  148 148 148  148 148 148  148 148 148  148 148 148  148 148 148  148 148 148  148 148 148  148 148 148  148 148 148  148 148 148  148 148 148  148 148 148  148 148 148  148 148 148  148 148 148  148 148 148  148 148 148  148 148 148  148 148 148  148 148 148  148 148 148  148 148 148  148 148 148  148 148 148  148 148 148  148 148 148  148 148 148  148 148 148  148 148 148  148 148 148  148 148 148  148 148 148  148 148 148  148 148 148  148 148 148  148 148 148  148 148 148  148 148 148  148 148 148  148 148 148  148 148 148  148 148 148  148 148 148  148 148 148  148 148 148  148 148 148  148 148 148  148 148 148  148 148 148  148 148 148  148 148 148  148 148 148  148 148 148  148 148 148  148 148 148  148 148 148  148 148 148  148 148 148  148 148 148  148 148 148  148 148 148  148 148 148  148 148 148  148 148 148  148 148 148  148 148 148  148 148 148  148 148 148  148 148 148  148 148 148  148 148 148  148 148 148  148 148 148  148 148 148  148 148 148  148 148 148  148 148 148  148 148 148  148 148 148  148 148 148  148 148 148  148 148 148  148 148 148  148 148 148  148 148 148  148 148 148  148 148 148  148 148 148  148 148 148  148 148 148  148 148 148  148 148 148  148 148 148  148 148 148  148 148 148  148 148 148  148 148 148  148 148 148  148 148 148  148 148 148  148 148 148  148 148 148  148 148 148  148 148 148  148 148 148  148 148 148  148 148 148  148 148 148  148 148 148  148 148 148  148 148 148  148 148 148  148 148 148  148 148 148  148 148 148  148 148 148  148 148 148  148 148 148  148 148 148  148 148 148  148 148 148  148 148 148  148 148 148  148 148 148  148 148 148  148 148 148  148 148 148  148 148 148  148 148 148  148 148 148  148 148 148  148 148 148  148 148 148  148 148 148  148 148 148  148 148 148  148 148 148  148 148 148  148 148 148  148 148 148  148 148 148  148 148 148  148 148 148  148 148 148  148 148 148  148 148 148  148 148 148  148 148 148  148 148 148  148 148 148  148 148 148  148 148 148  148 148 148  148 148 148  148 148 148  148 148 148  148 148 148  148 148 148  148 148 148  148 148 148  148 148 148  148 148 148  148 148 148  148 148 148  148 148 148  148 148 148  148 148 148  148 148 148  148 148 148  148 148 148  148 148 148  148 148 148  148 148 148  148 148 148  148 148 148  148 148 148  148 148 148  148 148 148  148 148 148  148 148 148  148 148 148  148 148 148  148 148 148  148 148 148  148 148 148  148 148 148  148 148 148  148 148 148  148 148 148  148 148 148  148 148 148  148 148 148  148 148 148  148 148 148  148 148 148  148 148 148  148 148 148  148 148 148  148 148 148  148 148 148  148 148 148  148 148 148  148 148 148  148 148 148  148 148 148  148 148 148  148 148 148  148 148 148  148 148 148  148 148 148  148 148 148  148 148 148  148 148 148  148 148 148  148 148 148  148 148 148  148 148 148  148 148 148  148 148 148  148 148 148  148 148 148  148 148 148  148 148 148  148 148 148  148 148 148  148 148 148  148 148 148  148 148 148  148 148 148  148 148 148  148 148 148  148 148 148  148 148 148  148 148 148  148 148 148  148 148 148  148 148 148  148 148 148  148 148 148  148 148 148  148 148 148  148 148 148  148 148 148  148 148 148  148 148 148  148 148 148  148 148 148  148 148 148  148 148 148  148 148 148  148 148 148  148 148 148  148 148 148  148 148 148  148 148 148
148 148 148  148 148 148  148 148 148  148 148 148  148 148 148  148 148 148  148 148 148  148 148 148  148 148 148  148 148 148  148 148 148  148 148 148  148 148 148  148 148 148  148 148 148  148 148 148  148 148 148  148 148 148  148 148 148  148 148 148  148 148 148  148 148 148  148 148 148  148 148 148  148 148 148  148 148 148  148 148 148  148 148 148  148 148 148  148 148 148  148 148 148  148 148 148  148 148 148  148 148 148  148 148 148  148 148 148  148 148 148  148 148 148  148 148 148  148 148 148  148 148 148  148 148 148  148 148 148  148 148 148  148 148 148  148 148 148  148 148 148  148 148 148  148 148 148  148 148 148  148 148 148  148 148 148  148 148 148  148 148 148  148 148 148  148 148 148  148 148 148  148 148 148  148 148 148  148 148 148  148 148 148  148 148 148  148 148 148  148 148 148  148 148 148  148 148 148  148 148 148  148 148 148  148 148 148  148 148 148  148 148 148  148 148 148  148 148 148  148 148 148  148 148 148  148 148 148  148 148 148  148 148 148  148 148 148  148 148 148  148 148 148  148 148 148  148 148 148  148 148 148  148 148 148  148 148 148  148 148 148  148 148 148  148 148 148  148 148 148  148 148 148  148 148 148  148 148 148  148 148 148  148 148 148  148 148 148  148 148 148  148 148 148  148 148 148  148 148 148  148 148 148  148 148 148  148 148 148  148 148 148  148 148 148  148 148 148  148 148 148  148 148 148  148 148 148  148 148 148  148 148 148  148 148 148  148 148 148  148 148 148  148 148 148  148 148 148  148 148 148  148 148 148  148 148 148  148 148 148  148 148 148  148 148 148  148 148 148  148 148 148  148 148 148  148 148 148  148 148 148  148 148 148  148 148 148  148 148 148  148 148 148  148 148 148  148 148 148  148 148 148  148 148 148  148 148 148  148 148 148  148 148 148  148 148 148  148 148 148  148 148 148  148 148 148  148 148 148  148 148 148  148 148 148  148 148 148  148 148 148  148 148 148  148 148 148  148 148 148  148 148 148  150 43 32  151 43 32  152 44 32  153 44 33  154 44 33  154 44 33  154 44 33  155 45 33  155 45 33  155 45 33  155 45 33  155 45 33  155 45 33  155 45 33  155 45 33  155 45 33  154 44 33  153 44 33  148 148 148  148 148 148  148 148 148  148 148 148  148 148 148  148 148 148  148 148 148  148 148 148  148 148 148  148 148 148  148 148 148  148 148 148  148 148 148  148 148 148  148 148 148  148 148 148  148 148 148  148 148 148  148 148 148  148 148 148  148 148 148  148 148 148  148 148 148  148 148 148  148 148 148  148 148 148  148 148 148  148 148 148  148 148 148  148 148 148  148 148 148  148 148 148  148 148 148  148 148 148  148 148 148  148 148 148  148 148 148  148 148 148  148 148 148  148 148 148  148 148 148  148 148 148  148 148 148  148 148 148  148 148 148  148 148 148  148 148 148  148 148 148  148 148 148  148 148 148  148 148 148  148 148 148  148 148 148  148 148 148  148 148 148  148 148 148  148 148 148  148 148 148  148 148 148  148 148 148  148 148 148  148 148 148  148 148 148  148 148 148  148 148 148  148 148 148  148 148 148  148 148 148  148 148 148  148 148 148  148 148 148  148 148 148  148 148 148  148 148 148  148 148 148  148 148 148  148 148 148  148 148 148  148 148 148  148 148 148  148 148 148  148 148 148  148 148 148  148 148 148  148 148 148  148 148 148  148 148 148  148 148 148  148 148 148  148 148 148  148 148 148  148 148 148  148 148 148  148 148 148  148 148 148  148 148 148  148 148 148  148 148 148  148 148 148  148 148 148  148 148 148  148 148 148  148 148 148  148 148 148  148 148 148  148 148 148  148 148 148  148 148 148  148 148 148  148 148 148  148 148 148  148 148 148  148 148 148  148 148 148  148 148 148  148 148 148  148 148 148  148 148 148  148 148 148  148 148 148  148 148 148  148 148 148  148 148 148  148 148 148  148 148 148  148 148 148  148 148 148  148 148 148  148 148 148  148 148 148  148 148 148  148 148 148  148 148 148  148 148 148  148 148 148  148 148 148  148 148 148  148 148 148  148 148 148  148 148 148  148 148 148  148 148 148  148 148 148  148 148 148  148 148 148  148 148 148  148 148 148  148 148 148  148 148 148  148 148 148  148 148 148
148 148 148  148 148 148  148 148 148  148 148 148  148 148 148  148 148 148  148 148 148  148 148 148  148 148 148  148 148 148  148 148 148  148 148 148  148 148 148  148 148 148  148 148 148  148 148 148  148 148 148  148 148 148  148 148 148  148 148 148  148 148 148  148 148 148  148 148 148  148 148 148  148 148 148  148 148 148  148 148 148  148 148 148  148 148 148  148 148 148  148 148 148  148 148 148  148 148 148  148 148 148  148 148 148  148 148 148  148 148 148  148 148 148  148 148 148  148 148 148  148 148 148  148 148 148  148 148 148  148 148 148  148 148 148  148 148 148  148 148 148  148 148 148  148 148 148  148 148 148  148 148 148  148 148 148  148 148 148  148 148 148  148 148 148  148 148 148  148 148 148  148 148 148  148 148 148  148 148 148  148 148 148  148 148 148  148 148 148  148 148 148  148 148 148  148 148 148  148 148 148  148 148 148  148 148 148  148 148 148  148 148 148  148 148 148  148 148 148  148 148 148  148 148 148  148 148 148  148 148 148  148 148 148  148 148 148  148 148 148  148 148 148  148 148 148  148 148 148  148 148 148  148 148 148  148 148 148  148 148 148  148 148 148  148 148 148  148 148 148  148 148 148  148 148 148  148 148 148  148 148 148  148 148 148  148 148 148  148 148 148  148 148 148  148 148 148  148 148 148  148 148 148  148 148 148  148 148 148  148 148 148  148 148 148  148 148 148  148 148 148  148 148 148  148 148 148  148 148 148  148 148 148  148 148 148  148 148 148  148 148 148  148 148 148  148 148 148  148 148 148  148 148 148  148 148 148  148 148 148  148 148 148  148 148 148  148 148 148  148 148 148  148 148 148  148 148 148  148 148 148  148 148 148  148 148 148  148 148 148  148 148 148  148 148 148  148 148 148  148 148 148  148 148 148  148 148 148  148 148 148  148 148 148  148 148 148  148 148 148  148 148 148  148 148 148  148 148 148  148 148 148  148 148 148  148 42 31  150 43 32  151 43 32  152 44 32  153 44 33  154 44 33  155 44 33  155 45 33  156 45 33  156 45 33  157 45 34  157 45 34  157 45 34  158 46 34  158 46 34  158 46 34  158 46 34  158 46 34  158 46 34  158 46 34  158 46 34  158 46 34  158 46 34  158 46 34  158 46 34  157 45 34  157 45 34  156 45 33  155 45 33  154 44 33  148 148 148  148 148 148  148 148 148  148 148 148  148 148 148  148 148 148  148 148 148  148 148 148  148 148 148  148 148 148  148 148 148  148 148 148  148 148 148  148 148 148  148 148 148  148 148 148  148 148 148  148 148 148  148 148 148  148 148 148  148 148 148  148 148 148  148 148 148  148 148 148  148 148 148  148 148 148  148 148 148  148 148 148  148 148 148  148 148 148  148 148 148  148 148 148  148 148 148  148 148 148  148 148 148  148 148 148  148 148 148  148 148 148  148 148 148  148 148 148  148 148 148  148 148 148  148 148 148  148 148 148  148 148 148  148 148 148  148 148 148  148 148 148  148 148 148  148 148 148  148 148 148  148 148 148  148 148 148  148 148 148  148 148 148  148 148 148  148 148 148  148 148 148  148 148 148  148 148 148  148 148 148  148 148 148  148 148 148  148 148 148  148 148 148  148 148 148  148 148 148  148 148 148  148 148 148  148 148 148  148 148 148  148 148 148  148 148 148  148 148 148  148 148 148  148 148 148  148 148 148  148 148 148  148 148 148  148 148 148  148 148 148  148 148 148  148 148 148  148 148 148  148 148 148  148 148 148  148 148 148  148 148 148  148 148 148  148 148 148  148 148 148  148 148 148  148 148 148  148 148 148  148 148 148  148 148 148  148 148 148  148 148 148  148 148 148  148 148 148  148 148 148  148 148 148  148 148 148  148 148 148  148 148 148  148 148 148  148 148 148  148 148 148  148 148 148  148 148 148  148 148 148  148 148 148  148 148 148  148 148 148  148 148 148  148 148 148  148 148 148  148 148 148  148 148 148  148 148 148  148 148 148  148 148 148  148 148 148  148 148 148  148 148 148  148 148 148  148 148 148  148 148 148  148 148 148  148 148 148  148 148 148  148 148 148  148 148 148  148 148 148  148 148 148  148 148 148  148 148 148  148 148 148  148 148 148  148 148 148  148 148 148  148 148 148  148 148 148  148 148 148  148 148 148
148 148 148  148 148 148  148 148 148  148 148 148  148 148 148  148 148 148  148 148 148  148 148 148  148 148 148  148 148 148  148 148 148  148 148 148  148 148 148  148 148 148  148 148 148  148 148 148  148 148 148  148 148 148  148 148 148  148 148 148  148 148 148  148 148 148  148 148 148  148 148 148  148 148 148  148 148 148  148 148 148  148 148 148  148 148 148  148 148 148  148 148 148  148 148 148  148 148 148  148 148 148  148 148 148  148 148 148  148 148 148  148 148 148  148 148 148  148 148 148  148 148 148  148 148 148  148 148 148  148 148 148  148 148 148  148 148 148  148 148 148  148 148 148  148 148 148  148 148 148  148 148 148  148 148 148  148 148 148  148 148 148  148 148 148  148 148 148  148 148 148  148 148 148  148 148 148  148 148 148  148 148 148  148 148 148  148 148 148  148 148 148  148 148 148  148 148 148  148 148 148  148 148 148  148 148 148  148 148 148  148 148 148  148 148 148  148 148 148  148 148 148  148 148 148  148 148 148  148 148 148  148 148 148  148 148 148  148 148 148  148 148 148  148 148 148  148 148 148  148 148 148  148 148 148  148 148 148  148 148 148  148 148 148  148 148 148  148 148 148  148 148 148  148 148 148  148 148 148  148 148 148  148 148 148  148 148 148  148 148 148  148 148 148  148 148 148  148 148 148  148 148 148  148 148 148  148 148 148  148 148 148  148 148 148  148 148 148  148 148 148  148 148 148  148 148 148  148 148 148  148 148 148  148 148 148  148 148 148  148 148 148  148 148 148  148 148 148  148 148 148  148 148 148  148 148 148  148 148 148  148 148 148  148 148 148  148 148 148  148 148 148  148 148 148  148 148 148  148 148 148  148 148 148  148 148 148  148 148 148  148 148 148  148 148 148  148 148 148  148 148 148  148 148 148  148 148 148  148 148 148  148 148 148  148 148 148  148 148 148  148 148 148  147 42 31  149 42 31  150 43 32  151 43 32  153 44 32  153 44 33  154 44 33  155 45 33  156 45 33  156 45 33  157 45 34  157 45 34  158 46 34  158 46 34  159 46 34  159 46 34  159 46 34  159 46 34  160 46 34  160 46 34  160 46 34  160 46 35  160 46 35  160 46 35  160 46 35  160 46 35  160 46 35  160 46 35  160 46 34  160 46 34  159 46 34  159 46 34  159 46 34  158 46 34  158 45 34  157 45 34  156 45 33  154 44 33  148 148 148  148 148 148  148 148 148  148 148 148  148 148 148  148 148 148  148 148 148  148 148 148  148 148 148  148 148 148  148 148 148  148 148 148  148 148 148  148 148 148  148 148 148  148 148 148  148 148 148  148 148 148  148 148 148  148 148 148  148 148 148  148 148 148  148 148 148  148 148 148  148 148 148  148 148 148  148 148 148  148 148 148  148 148 148  148 148 148  148 148 148  148 148 148  148 148 148  148 148 148  148 148 148  148 148 148  148 148 148  148 148 148  148 148 148  148 148 148  148 148 148  148 148 148  148 148 148  148 148 148  148 148 148  148 148 148  148 148 148  148 148 148  148 148 148  148 148 148  148 148 148  148 148 148  148 148 148  148 148 148  148 148 148  148 148 148  148 148 148  148 148 148  148 148 148  148 148 148  148 148 148  148 148 148  148 148 148  148 148 148  148 148 148  148 148 148  148 148 148  148 148 148  148 148 148  148 148 148  148 148 148  148 148 148  148 148 148  148 148 148  148 148 148  148 148 148  148 148 148  148 148 148  148 148 148  148 148 148  148 148 148  148 148 148  148 148 148  148 148 148  148 148 148  148 148 148  148 148 148  148 148 148  148 148 148  148 148 148  148 148 148  148 148 148  148 148 148  148 148 148  148 148 148  148 148 148  148 148 148  148 148 148  148 148 148  148 148 148  148 148 148  148 148 148  148 148 148  148 148 148  148 148 148  148 148 148  148 148 148  148 148 148  148 148 148  148 148 148  148 148 148  148 148 148  148 148 148  148 148 148  148 148 148  148 148 148  148 148 148  148 148 148  148 148 148  148 148 148  148 148 148  148 148 148  148 148 148  148 148 148  148 148 148  148 148 148  148 148 148  148 148 148  148 148 148  148 148 148  148 148 148  148 148 148  148 148 148  148 148 148  148 148 148  148 148 148  148 148 148  148 148 148  148 148 148  148 148 148  148 148 148
148 148 148  148 148 148  148 148 148  148 148 148  148 148 148  148 148 148  148 148 148  148 148 148  148 148 148  148 148 148  148 148 148  148 148 148  148 148 148  148 148 148  148 148 148  148 148 148  148 148 148  148 148 148  148 148 148  148 148 148  148 148 148  148 148 148  148 148 148  148 148 148  148 148 148  148 148 148  148 148 148  148 148 148  148 148 148  148 148 148  148 148 148  148 148 148  148 148 148  148 148 148  148 148 148  148 148 148  148 148 148  148 148 148  148 148 148  148 148 148  148 148 148  148 148 148  148 148 148  148 148 148  148 148 148  148 148 148  148 148 148  148 148 148  148 148 148  148 148 148  148 148 148  148 148 148  148 148 148  148 148 148  148 148 148  148 148 148  148 148 148  148 148 148  148 148 148  148 148 148  148 148 148  148 148 148  148 148 148  148 148 148  148 148 148  148 148 148  148 148 148  148 148 148  148 148 148  148 148 148  148 148 148  148 148 148  148 148 148  148 148 148  148 148 148  148 148 148  148 148 148  148 148 148  148 148 148  148 148 148  148 148 148  148 148 148  148 148 148  148 148 148  148 148 148  148 148 148  148 148 148  148 148 148  148 148 148  148 148 148  148 148 148  148 148 148  148 148 148  148 148 148  148 148 148  148 148 148  148 148 148  148 148 148  148 148 148  148 148 148  148 148 148  148 148 148  148 148 148  148 148 148  148 148 148  148 148 148  148 148 148  148 148 148  148 148 148  148 148 148  148 148 148  148 148 148  148 148 148  148 148 148  148 148 148  148 148 148  148 148 148  148 148 148  148 148 148  148 148 148  148 148 148  148 148 148  148 148 148  148 148 148  148 148 148  148 148 148  148 148 148  148 148 148  148 148 148  148 148 148  148 148 148  148 148 148  148 148 148  148 148 148  148 148 148  148 148 148  148 148 148  148 148 148  146 41 31  148 42 31  149 43 32  151 43 32  152 44 32  153 44 33  154 44 33  155 44 33  155 45 33  156 45 33  157 45 34  157 45 34  158 46 34  158 46 34  159 46 34  159 46 34  159 46 34  160 46 34  160 46 35  160 46 35  161 47 35  161 47 35  161 47 35  161 47 35  161 47 35  161 47 35  161 47 35  161 47 35  161 47 35  161 47 35  161 47 35  161 47 35  161 47 35  161 47 35  161 47 35  161 46 35  160 46 35  160 46 34  159 46 34  159 46 34  158 46 34  157 45 34  156 45 33  155 45 33  148 148 148  148 148 148  148 148 148  148 148 148  148 148 148  148 148 148  148 148 148  148 148 148  148 148 148  148 148 148  148 148 148  148 148 148  148 148 148  148 148 148  148 148 148  148 148 148  148 148 148  148 148 148  148 148 148  148 148 148  148 148 148  148 148 148  148 148 148  148 148 148  148 148 148  148 148 148  148 148 148  148 148 148  148 148 148  148 148 148  148 148 148  148 148 148  148 148 148  148 148 148  148 148 148  148 148 148  148 148 148  148 148 148  148 148 148  148 148 148  148 148 148  148 148 148  148 148 148  148 148 148  148 148 148  148 148 148  148 148 148  148 148 148  148 148 148  148 148 148  148 148 148  148 148 148  148 148 148  148 148 148  148 148 148  148 148 148  148 148 148  148 148 148  148 148 148  148 148 148  148 148 148  148 148 148  148 148 148  148 148 148  148 148 148  148 148 148  148 148 148  148 148 148  148 148 148  148 148 148  148 148 148  148 148 148  148 148 148  148 148 148  148 148 148  148 148 148  148 148 148  148 148 148  148 148 148  148 148 148  148 148 148  148 148 148  148 148 148  148 148 148  148 148 148  148 148 148  148 148 148  148 148 148  148 148 148  148 148 148  148 148 148  148 148 148  148 148 148  148 148 148  148 148 148  148 148 148  148 148 148  148 148 148  148 148 148  148 148 148  148 148 148  148 148 148  148 148 148  148 148 148  148 148 148  148 148 148  148 148 148  148 148 148  148 148 148  148 148 148  148 148 148  148 148 148  148 148 148  148 148 148  148 148 148  148 148 148  148 148 148  148 148 148  148 148 148  148 148 148  148 148 148  148 148 148  148 148 148  148 148 148  148 148 148  148 148 148  148 148 148  148 148 148  148 148 148  148 148 148  148 148 148  148 148 148  148 148 148  148 148 148  148 148 148  148 148 148  148 148 148  148 148 148
148 148 148  148 148 148  148 148 148  148 148 148  148 148 148  148 148 148  148 148 148  148 148 148  148 148 148  148 148 148  148 148 148  148 148 148  148 148 148  148 148 148  148 148 148  148 148 148  148 148 148  148 148 148  148 148 148  148 148 148  148 148 148  148 148 148  148 148 148  148 148 148  148 148 148  148 148 148  148 148 148  148 148 148  148 148 148  148 148 148  148 148 148  148 148 148  148 148 148  148 148 148  148 148 148  148 148 148  148 148 148  148 148 148  148 148 148  148 148 148  148 148 148  148 148 148  148 148 148  148 148 148  148 148 148  148 148 148  148 148 148  148 148 148  148 148 148  148 148 148  148 148 148  148 148 148  148 148 148  148 148 148  148 148 148  148 148 148  148 148 148  148 148 148  148 148 148  148 148 148  148 148 148  148 148 148  148 148 148  148 148 148  148 148 148  148 148 148  148 148 148  148 148 148  148 148 148  148 148 148  148 148 148  148 148 148  148 148 148  148 148 148  148 148 148  148 148 148  148 148 148  148 148 148  148 148 148  148 148 148  148 148 148  148 148 148  148 148 148  148 148 148  148 148 148  148 148 148  148 148 148  148 148 148  148 148 148  148 148 148  148 148 148  148 148 148  148 148 148  148 148 148  148 148 148  148 148 148  148 148 148  148 148 148  148 148 148  148 148 148  148 148 148  148 148 148  148 148 148  148 148 148  148 148 148  148 148 148  148 148 148  148 148 148  148 148 148  148 148 148  148 148 148  148 148 148  148 148 148  148 148 148  148 148 148  148 148 148  148 148 148  148 148 148  148 148 148  148 148 148  148 148 148  148 148 148  148 148 148  148 148 148  148 148 148  148 148 148  148 148 148  148 148 148  148 148 148  148 148 148  148 148 148  148 148 148  148 148 148  148 148 148  148 148 148  144 41 30  146 42 31  148 42 31  149 43 32  151 43 32  152 43 32  153 44 33  154 44 33  155 44 33  155 45 33  156 45 33  157 45 34  157 45 34  158 46 34  158 46 34  159 46 34  159 46 34  160 46 34  160 46 35  160 46 35  161 47 35  161 47 35  161 47 35  162 47 35  162 47 35  162 47 35  162 47 35  162 47 35  162 47 35  162 47 35  162 47 35  162 47 35  162 47 35  162 47 35  162 47 35  162 47 35  162 47 35  162 47 35  162 47 35  161 47 35  161 47 35  161 47 35  160 46 35  160 46 35  159 46 34  159 46 34  158 46 34  157 45 34  156 45 33  154 44 33  148 148 148  148 148 148  148 148 148  148 148 148  148 148 148  148 148 148  148 148 148  148 148 148  148 148 148  148 148 148  148 148 148  148 148 148  148 148 148  148 148 148  148 148 148  148 148 148  148 148 148  148 148 148  148 148 148  148 148 148  148 148 148  148 148 148  148 148 148  148 148 148  148 148 148  148 148 148  148 148 148  148 148 148  148 148 148  148 148 148  148 148 148  148 148 148  148 148 148  148 148 148  148 148 148  148 148 148  148 148 148  148 148 148  148 148 148  148 148 148  148 148 148  148 148 148  148 148 148  148 148 148  148 148 148  148 148 148  148 148 148  148 148 148  148 148 148  148 148 148  148 148 148  148 148 148  148 148 148  148 148 148  148 148 148  148 148 148  148 148 148  148 148 148  148 148 148  148 148 148  148 148 148  148 148 148  148 148 148  148 148 148  148 148 148  148 148 148  148 148 148  148 148 148  148 148 148  148 148 148  148 148 148  148 148 148  148 148 148  148 148 148  148 148 148  148 148 148  148 148 148  148 148 148  148 148 148  148 148 148  148 148 148  148 148 148  148 148 148  148 148 148  148 148 148  148 148 148  148 148 148  148 148 148  148 148 148  148 148 148  148 148 148  148 148 148  148 148 148  148 148 148  148 148 148  148 148 148  148 148 148  148 148 148  148 148 148  148 148 148  148 148 148  148 148 148  148 148 148  148 148 148  148 148 148  148 148 148  148 148 148  148 148 148  148 148 148  148 148 148  148 148 148  148 148 148  148 148 148  148 148 148  148 148 148  148 148 148  148 148 148  148 148 148  148 148 148  148 148 148  148 148 148  148 148 148  148 148 148  148 148 148  148 148 148  148 148 148  148 148 148  148 148 148  148 148 148  148 148 148  148 148 148  148 148 148  148 148 148  148 148 148  148 148 148
148 148 148  148 148 148  148 148 148  148 148 148  148 148 148  148 148 148  148 148 148  148 148 148  148 148 148  148 148 148  148 148 148  148 148 148  148 148 148  148 148 148  148 148 148  148 148 148  148 148 148  148 148 148  148 148 148  148 148 148  148 148 148  148 148 148  148 148 148  148 148 148  148 148 148  148 148 148  148 148 148  148 148 148  148 148 148  148 148 148  148 148 148  148 148 148  148 148 148  148 148 148  148 148 148  148 148 148  148 148 148  148 148 148  148 148 148  148 148 148  148 148 148  148 148 148  148 148 148  148 148 148  148 148 148  148 148 148  148 148 148  148 148 148  148 148 148  148 148 148  148 148 148  148 148 148  148 148 148  148 148 148  148 148 148  148 148 148  148 148 148  148 148 148  148 148 148  148 148 148  148 148 148  148 148 148  148 148 148  148 148 148  148 148 148  148 148 148  148 148 148  148 148 148  148 148 148  148 148 148  148 148 148  148 148 148  148 148 148  148 148 148  148 148 148  148 148 148  148 148 148  148 148 148  148 148 148  148 148 148  148 148 148  148 148 148  148 148 148  148 148 148  148 148 148  148 148 148  148 148 148  148 148 148  148 148 148  148 148 148  148 148 148  148 148 148  148 148 148  148 148 148  148 148 148  148 148 148  148 148 148  148 148 148  148 148 148  148 148 148  148 148 148  148 148 148  148 148 148  148 148 148  148 148 148  148 148 148  148 148 148  148 148 148  148 148 148  148 148 148  148 148 148  148 148 148  148 148 148  148 148 148  148 148 148  148 148 148  148 148 148  148 148 148  148 148 148  148 148 148  148 148 148  148 148 148  148 148 148  148 148 148  148 148 148  148 148 148  148 148 148  148 148 148  148 148 148  148 148 148  148 148 148  148 148 148  139 39 29  144 41 30  146 41 31  148 42 31  149 43 31  150 43 32  151 43 32  152 44 32  153 44 33  154 44 33  155 45 33  156 45 33  156 45 34  157 45 34  158 45 34  158 46 34  159 46 34  159 46 34  160 46 34  160 46 35  160 46 35  161 47 35  161 47 35  161 47 35  162 47 35  162 47 35  162 47 35  162 47 35  163 47 35  163 47 35  163 47 35  163 47 35  163 47 35  163 47 35  163 47 35  163 47 35  163 47 35  163 47 35  163 47 35  163 47 35  163 47 35  163 47 35  162 47 35  162 47 35  162 47 35  162 47 35  161 47 35  161 47 35  160 46 35  160 46 34  159 46 34  158 46 34  158 45 34  156 45 34  155 45 33  151 43 32  148 148 148  148 148 148  148 148 148  148 148 148  148 148 148  148 148 148  148 148 148  148 148 148  148 148 148  148 148 148  148 148 148  148 148 148  148 148 148  148 148 148  148 148 148  148 148 148  148 148 148  148 148 148  148 148 148  148 148 148  148 148 148  148 148 148  148 148 148  148 148 148  148 148 148  148 148 148  148 148 148  148 148 148  148 148 148  148 148 148  148 148 148  148 148 148  148 148 148  148 148 148  148 148 148  148 148 148  148 148 148  148 148 148  148 148 148  148 148 148  148 148 148  148 148 148  148 148 148  148 148 148  148 148 148  148 148 148  148 148 148  148 148 148  148 148 148  148 148 148  148 148 148  148 148 148  148 148 148  148 148 148  148 148 148  148 148 148  148 148 148  148 148 148  148 148 148  148 148 148  148 148 148  148 148 148  148 148 148  148 148 148  148 148 148  148 148 148  148 148 148  148 148 148  148 148 148  148 148 148  148 148 148  148 148 148  148 148 148  148 148 148  148 148 148  148 148 148  148 148 148  148 148 148  148 148 148  148 148 148  148 148 148  148 148 148  148 148 148  148 148 148  148 148 148  148 148 148  148 148 148  148 148 148  148 148 148  148 148 148  148 148 148  148 148 148  148 148 148  148 148 148  148 148 148  148 148 148  148 148 148  148 148 148  148 148 148  148 148 148  148 148 148  148 148 148  148 148 148  148 148 148  148 148 148  148 148 148  148 148 148  148 148 148  148 148 148  148 148 148  148 148 148  148 148 148  148 148 148  148 148 148  148 148 148  148 148 148  148 148 148  148 148 148  148 148 148  148 148 148  148 148 148  148 148 148  148 148 148  148 148 148  148 148 148  148 148 148  148 148 148  148 148 148  148 148 148  148 148 148  148 148 148  148 148 148
148 148 148  148 148 148  148 148 148  148 148 148  148 148 148  148 148 148  148 148 148  148 148 148  148 148 148  148 148 148  148 148 148  148 148 148  148 148 148  148 148 148  148 148 148  148 148 148  148 148 148  148 148 148  148 148 148  148 148 148  148 148 148  148 148 148  148 148 148  148 148 148  148 148 148  148 148 148  148 148 148  148 148 148  148 148 148  148 148 148  148 148 148  148 148 148  148 148 148  148 148 148  148 148 148  148 148 148  148 148 148  148 148 148  148 148 148  148 148 148  148 148 148  148 148 148  148 148 148  148 148 148  148 148 148  148 148 148  148 148 148  148 148 148  148 148 148  148 148 148  148 148 148  148 148 148  148 148 148  148 148 148  148 148 148  148 148 148  148 148 148  148 148 148  148 148 148  148 148 148  148 148 148  148 148 148  148 148 148  148 148 148  148 148 148  148 148 148  148 148 148  148 148 148  148 148 148  148 148 148  148 148 148  148 148 148  148 148 148  148 148 148  148 148 148  148 148 148  148 148 148  148 148 148  148 148 148  148 148 148  148 148 148  148 148 148  148 148 148  148 148 148  148 148 148  148 148 148  148 148 148  148 148 148  148 148 148  148 148 148  148 148 148  148 148 148  148 148 148  148 148 148  148 148 148  148 148 148  148 148 148  148 148 148  148 148 148  148 148 148  148 148 148  148 148 148  148 148 148  148 148 148  148 148 148  148 148 148  148 148 148  148 148 148  148 148 148  148 148 148  148 148 148  148 148 148  148 148 148  148 148 148  148 148 148  148 148 148  148 148 148  148 148 148  148 148 148  148 148 148  148 148 148  148 148 148  148 148 148  148 148 148  148 148 148  148 148 148  148 148 148  148 148 148  148 148 148  148 148 148  139 39 29  143 40 30  145 41 30  147 42 31  148 42 31  150 43 32  151 43 32  152 43 32  153 44 32  154 44 33  154 44 33  155 45 33  156 45 33  157 45 34  157 45 34  158 46 34  158 46 34  159 46 34  159 46 34  160 46 34  160 46 35  161 47 35  161 47 35  161 47 35  162 47 35  162 47 35  162 47 35  162 47 35  163 47 35  163 47 35  163 47 35  163 47 35  163 47 35  163 47 35  164 48 35  164 48 36  164 48 36  164 48 36  164 48 36  164 48 36  164 48 35  164 48 35  163 47 35  163 47 35  163 47 35  163 47 35  163 47 35  162 47 35  162 47 35  162 47 35  161 47 35  161 47 35  160 46 35  160 46 34  159 46 34  158 46 34  158 45 34  156 45 34  155 45 33  152 44 32  148 148 148  148 148 148  148 148 148  148 148 148  148 148 148  148 148 148  148 148 148  148 148 148  148 148 148  148 148 148  148 148 148  148 148 148  148 148 148  148 148 148  148 148 148  148 148 148  148 148 148  148 148 148  148 148 148  148 148 148  148 148 148  148 148 148  148 148 148  148 148 148  148 148 148  148 148 148  148 148 148  148 148 148  148 148 148  148 148 148  148 148 148  148 148 148  148 148 148  148 148 148  148 148 148  148 148 148  148 148 148  148 148 148  148 148 148  148 148 148  148 148 148  148 148 148  148 148 148  148 148 148  148 148 148  148 148 148  148 148 148  148 148 148  148 148 148  148 148 148  148 148 148  148 148 148  148 148 148  148 148 148  148 148 148  148 148 148  148 148 148  148 148 148  148 148 148  148 148 148  148 148 148  148 148 148  148 148 148  148 148 148  148 148 148  148 148 148  148 148 148  148 148 148  148 148 148  148 148 148  148 148 148  148 148 148  148 148 148  148 148 148  148 148 148  148 148 148  148 148 148  148 148 148  148 148 148  148 148 148  148 148 148  148 148 148  148 148 148  148 148 148  148 148 148  148 148 148  148 148 148  148 148 148  148 148 148  148 148 148  148 148 148  148 148 148  148 148 148  148 148 148  148 148 148  148 148 148  148 148 148  148 148 148  148 148 148  148 148 148  148 148 148  148 148 148  148 148 148  148 148 148  148 148 148  148 148 148  148 148 148  148 148 148  148 148 148  148 148 148  148 148 148  148 148 148  148 148 148  148 148 148  148 148 148  148 148 148  148 148 148  148 148 148  148 148 148  148 148 148  148 148 148  148 148 148  148 148 148  148 148 148  148 148 148  148 148 148  148 148 148  148 148 148  148 148 148  148 148 148
148 148 148  148 148 148  148 148 148  148 148 148  148 148 148  148 148 148  148 148 148  148 148 148  148 148 148  148 148 148  148 148 148  148 148 148  148 148 148  148 148 148  148 148 148  148 148 148  148 148 148  148 148 148  148 148 148  148 148 148  148 148 148  148 148 148  148 148 148  148 148 148  148 148 148  148 148 148  148 148 148  148 148 148  148 148 148  148 148 148  148 148 148  148 148 148  148 148 148  148 148 148  148 148 148  148 148 148  148 148 148  148 148 148  148 148 148  148 148 148  148 148 148  148 148 148  148 148 148  148 148 148  148 148 148  148 148 148  148 148 148  148 148 148  148 148 148  148 148 148  148 148 148  148 148 148  148 148 148  148 148 148  148 148 148  148 148 148  148 148 148  148 148 148  148 148 148  148 148 148  148 148 148  148 148 148  148 148 148  148 148 148  148 148 148  148 148 148  148 148 148  148 148 148  148 148 148  148 148 148  148 148 148  148 148 148  148 148 148  148 148 148  148 148 148  148 148 148  148 148 148  148 148 148  148 148 148  148 148 148  148 148 148  148 148 148  148 148 148  148 148 148  148 148 148  148 148 148  148 148 148  148 148 148  148 148 148  148 148 148  148 148 148  148 148 148  148 148 148  148 148 148  148 148 148  148 148 148  148 148 148  148 148 148  148 148 148  148 148 148  148 148 148  148 148 148  148 148 148  148 148 148  148 148 148  148 148 148  148 148 148  148 148 148  148 148 148  148 148 148  148 148 148  148 148 148  148 148 148  148 148 148  148 148 148  148 148 148  148 148 148  148 148 148  148 148 148  148 148 148  148 148 148  148 148 148  148 148 148  148 148 148  148 148 148  148 148 148  148 148 148  148 148 148  137 39 28  141 40 29  144 41 30  146 41 31  147 42 31  149 42 31  150 43 32  151 43 32  152 43 32  153 44 33  154 44 33  154 44 33  155 45 33  156 45 33  157 45 34  157 45 34  158 46 34  158 46 34  159 46 34  159 46 34  160 46 34  160 46 35  161 47 35  161 47 35  161 47 35  162 47 35  162 47 35  162 47 35  163 47 35  163 47 35  163 47 35  163 47 35  163 47 35  164 48 36  164 48 36  164 48 36  164 48 36  164 48 36  164 48 36  164 48 36  164 48 36  164 48 36  164 48 36  164 48 36  164 48 36  164 48 36  164 48 36  163 47 35  163 47 35  163 47 35  163 47 35  162 47 35  162 47 35  162 47 35  161 47 35  161 47 35  160 46 35  160 46 34  159 46 34  158 46 34  157 45 34  156 45 33  154 44 33  152 43 32  148 148 148  148 148 148  148 148 148  148 148 148  148 148 148  148 148 148  148 148 148  148 148 148  148 148 148  148 148 148  148 148 148  148 148 148  148 148 148  148 148 148  148 148 148  148 148 148  148 148 148  148 148 148  148 148 148  148 148 148  148 148 148  148 148 148  148 148 148  148 148 148  148 148 148  148 148 148  148 148 148  148 148 148  148 148 148  148 148 148  148 148 148  148 148 148  148 148 148  148 148 148  148 148 148  148 148 148  148 148 148  148 148 148  148 148 148  148 148 148  148 148 148  148 148 148  148 148 148  148 148 148  148 148 148  148 148 148  148 148 148  148 148 148  148 148 148  148 148 148  148 148 148  148 148 148  148 148 148  148 148 148  148 148 148  148 148 148  148 148 148  148 148 148  148 148 148  148 148 148  148 148 148  148 148 148  148 148 148  148 148 148  148 148 148  148 148 148  148 148 148  148 148 148  148 148 148  148 148 148  148 148 148  148 148 148  148 148 148  148 148 148  148 148 148  148 148 148  148 148 148  148 148 148  148 148 148  148 148 148  148 148 148  148 148 148  148 148 148  148 148 148  148 148 148  148 148 148  148 148 148  148 148 148  148 148 148  148 148 148  148 148 148  148 148 148  148 148 148  148 148 148  148 148 148  148 148 148  148 148 148  148 148 148  148 148 148  148 148 148  148 148 148  148 148 148  148 148 148  148 148 148  148 148 148  148 148 148  148 148 148  148 148 148  148 148 148  148 148 148  148 148 148  148 148 148  148 148 148  148 148 148  148 148 148  148 148 148  148 148 148  148 148 148  148 148 148  148 148 148  148 148 148  148 148 148  148 148 148  148 148 148  148 148 148  148 148 148  148 148 148  148 148 148
148 148 148  148 148 148  148 148 148  148 148 148  148 148 148  148 148 148  148 148 148  148 148 148  148 148 148  148 148 148  148 148 148  148 148 148  148 148 148  148 148 148  148 148 148  148 148 148  148 148 148  148 148 148  148 148 148  148 148 148  148 148 148  148 148 148  148 148 148  148 148 148  148 148 148  148 148 148  148 148 148  148 148 148  148 148 148  148 148 148  148 148 148  148 148 148  148 148 148  148 148 148  148 148 148  148 148 148  148 148 148  148 148 148  148 148 148  148 148 148  148 148 148  148 148 148  148 148 148  148 148 148  148 148 148  148 148 148  148 148 148  148 148 148  148 148 148  148 148 148  148 148 148  148 148 148  148 148 148  148 148 148  148 148 148  148 148 148  148 148 148  148 148 148  148 148 148  148 148 148  148 148 148  148 148 148  148 148 148  148 148 148  148 148 148  148 148 148  148 148 148  148 148 148  148 148 148  148 148 148  148 148 148  148 148 148  148 148 148  148 148 148  148 148 148  148 148 148  148 148 148  148 148 148  148 148 148  148 148 148  148 148 148  148 148 148  148 148 148  148 148 148  148 148 148  148 148 148  148 148 148  148 148 148  148 148 148  148 148 148  148 148 148  148 148 148  148 148 148  148 148 148  148 148 148  148 148 148  148 148 148  148 148 148  148 148 148  148 148 148  148 148 148  148 148 148  148 148 148  148 148 148  148 148 148  148 148 148  148 148 148  148 148 148  148 148 148  148 148 148  148 148 148  148 148 148  148 148 148  148 148 148  148 148 148  148 148 148  148 148 148  148 148 148  148 148 148  148 148 148  148 148 148  148 148 148  148 148 148  148 148 148  148 148 148  148 148 148  148 148 148  140 39 29  142 40 30  144 41 30  146 41 31  147 42 31  149 42 31  150 43 32  151 43 32  152 43 32  153 44 32  154 44 33  154 44 33  155 45 33  156 45 33  156 45 34  157 45 34  158 46 34  158 46 34  159 46 34  159 46 34  160 46 34  160 46 35  161 47 35  161 47 35  161 47 35  162 47 35  162 47 35  162 47 35  163 47 35  163 47 35  163 47 35  163 47 35  164 48 35  164 48 36  164 48 36  164 48 36  164 48 36  164 48 36  164 48 36  164 48 36  164 48 36  164 48 36  164 48 36  164 48 36  164 48 36  164 48 36  164 48 36  164 48 36  164 48 36  164 48 36  163 47 35  163 47 35  163 47 35  163 47 35  162 47 35  162 47 35  162 47 35  161 47 35  161 47 35  160 46 35  159 46 34  159 46 34  158 46 34  157 45 34  155 45 33  154 44 33  148 148 148  148 148 148  148 148 148  148 148 148  148 148 148  148 148 148  148 148 148  148 148 148  148 148 148  148 148 148  148 148 148  148 148 148  148 148 148  148 148 148  148 148 148  148 148 148  148 148 148  148 148 148  148 148 148  148 148 148  148 148 148  148 148 148  148 148 148  148 148 148  148 148 148  148 148 148  148 148 148  148 148 148  148 148 148  148 148 148  148 148 148  148 148 148  148 148 148  148 148 148  148 148 148  148 148 148  148 148 148  148 148 148  148 148 148  148 148 148  148 148 148  148 148 148  148 148 148  148 148 148  148 148 148  148 148 148  148 148 148  148 148 148  148 148 148  148 148 148  148 148 148  148 148 148  148 148 148  148 148 148  148 148 148  148 148 148  148 148 148  148 148 148  148 148 148  148 148 148  148 148 148  148 148 148  148 148 148  148 148 148  148 148 148  148 148 148  148 148 148  148 148 148  148 148 148  148 148 148  148 148 148  148 148 148  148 148 148  148 148 148  148 148 148  148 148 148  148 148 148  148 148 148  148 148 148  148 148 148  148 148 148  148 148 148  148 148 148  148 148 148  148 148 148  148 148 148  148 148 148  148 148 148  148 148 148  148 148 148  148 148 148  148 148 148  148 148 148  148 148 148  148 148 148  148 148 148  148 148 148  148 148 148  148 148 148  148 148 148  148 148 148  148 148 148  148 148 148  148 148 148  148 148 148  148 148 148  148 148 148  148 148 148  148 148 148  148 148 148  148 148 148  148 148 148  148 148 148  148 148 148  148 148 148  148 148 148  148 148 148  148 148 148  148 148 148  148 148 148  148 148 148  148 148 148  148 148 148  148 148 148  148 148 148  148 148 148  148 148 148
148 148 148  148 148 148  148 148 148  148 148 148  148 148 148  148 148 148  148 148 148  148 148 148  148 148 148  148 148 148  148 148 148  148 148 148  148 148 148  148 148 148  148 148 148  148 148 148  148 148 148  148 148 148  148 148 148  148 148 148  148 148 148  148 148 148  148 148 148  148 148 148  148 148 148  148 148 148  148 148 148  148 148 148  148 148 148  148 148 148  148 148 148  148 148 148  148 148 148  148 148 148  148 148 148  148 148 148  148 148 148  148 148 148  148 148 148  148 148 148  148 148 148  148 148 148  148 148 148  148 148 148  148 148 148  148 148 148  148 148 148  148 148 148  148 148 148  148 148 148  148 148 148  148 148 148  148 148 148  148 148 148  148 148 148  148 148 148  148 148 148  148 148 148  148 148 148  148 148 148  148 148 148  148 148 148  148 148 148  148 148 148  148 148 148  148 148 148  148 148 148  148 148 148  148 148 148  148 148 148  148 148 148  148 148 148  148 148 148  148 148 148  148 148 148  148 148 148  148 148 148  148 148 148  148 148 148  148 148 148  148 148 148  148 148 148  148 148 148  148 148 148  148 148 148  148 148 148  148 148 148  148 148 148  148 148 148  148 148 148  148 148 148  148 148 148  148 148 148  148 148 148  148 148 148  148 148 148  148 148 148  148 148 148  148 148 148  148 148 148  148 148 148  148 148 148  148 148 148  148 148 148  148 148 148  148 148 148  148 148 148  148 148 148  148 148 148  148 148 148  148 148 148  148 148 148  148 148 148  148 148 148  148 148 148  148 148 148  148 148 148  148 148 148  148 148 148  148 148 148  148 148 148  148 148 148  148 148 148  148 148 148  148 148 148  137 38 28  140 39 29  142 40 30  144 41 30  146 41 31  147 42 31  148 42 31  150 43 32  151 43 32  152 43 32  152 44 32  153 44 33  154 44 33  155 45 33  156 45 33  156 45 33  157 45 34  157 45 34  158 46 34  159 46 34  159 46 34  160 46 34  160 46 35  160 46 35  161 47 35  161 47 35  162 47 35  162 47 35  162 47 35  163 47 35  163 47 35  163 47 35  163 47 35  164 48 35  164 48 36  164 48 36  164 48 36  164 48 36  164 48 36  164 48 36  165 48 36  165 48 36  165 48 36  165 48 36  165 48 36  165 48 36  165 48 36  164 48 36  164 48 36  164 48 36  164 48 36  164 48 36  164 48 36  164 48 36  163 47 35  163 47 35  163 47 35  162 47 35  162 47 35  162 47 35  161 47 35  161 47 35  160 46 35  160 46 34  159 46 34  158 46 34  157 45 34  156 45 33  154 44 33  152 44 32  148 148 148  148 148 148  148 148 148  148 148 148  148 148 148  148 148 148  148 148 148  148 148 148  148 148 148  148 148 148  148 148 148  148 148 148  148 148 148  148 148 148  148 148 148  148 148 148  148 148 148  148 148 148  148 148 148  148 148 148  148 148 148  148 148 148  148 148 148  148 148 148  148 148 148  148 148 148  148 148 148  148 148 148  148 148 148  148 148 148  148 148 148  148 148 148  148 148 148  148 148 148  148 148 148  148 148 148  148 148 148  148 148 148  148 148 148  148 148 148  148 148 148  148 148 148  148 148 148  148 148 148  148 148 148  148 148 148  148 148 148  148 148 148  148 148 148  148 148 148  148 148 148  148 148 148  148 148 148  148 148 148  148 148 148  148 148 148  148 148 148  148 148 148  148 148 148  148 148 148  148 148 148  148 148 148  148 148 148  148 148 148  148 148 148  148 148 148  148 148 148  148 148 148  148 148 148  148 148 148  148 148 148  148 148 148  148 148 148  148 148 148  148 148 148  148 148 148  148 148 148  148 148 148  148 148 148  148 148 148  148 148 148  148 148 148  148 148 148  148 148 148  148 148 148  148 148 148  148 148 148  148 148 148  148 148 148  148 148 148  148 148 148  148 148 148  148 148 148  148 148 148  148 148 148  148 148 148  148 148 148  148 148 148  148 148 148  148 148 148  148 148 148  148 148 148  148 148 148  148 148 148  148 148 148  148 148 148  148 148 148  148 148 148  148 148 148  148 148 148  148 148 148  148 148 148  148 148 148  148 148 148  148 148 148  148 148 148  148 148 148  148 148 148  148 148 148  148 148 148  148 148 148  148 148 148  148 148 148  148 148 148  148 148 148
148 148 148  148 148 148  148 148 148  148 148 148  148 148 148  148 148 148  148 148 148  148 148 148  148 148 148  148 148 148  148 148 148  148 148 148  148 148 148  148 148 148  148 148 148  148 148 148  148 148 148  148 148 148  148 148 148  148 148 148  148 148 148  148 148 148  148 148 148  148 148 148  148 148 148  148 148 148  148 148 148  148 148 148  148 148 148  148 148 148  148 148 148  148 148 148  148 148 148  148 148 148  148 148 148  148 148 148  148 148 148  148 148 148  148 148 148  148 148 148  148 148 148  148 148 148  148 148 148  148 148 148  148 148 148  148 148 148  148 148 148  148 148 148  148 148 148  148 148 148  148 148 148  148 148 148  148 148 148  148 148 148  148 148 148  148 148 148  148 148 148  148 148 148  148 148 148  148 148 148  148 148 148  148 148 148  148 148 148  148 148 148  148 148 148  148 148 148  148 148 148  148 148 148  148 148 148  148 148 148  148 148 148  148 148 148  148 148 148  148 148 148  148 148 148  148 148 148  148 148 148  148 148 148  148 148 148  148 148 148  148 148 148  148 148 148  148 148 148  148 148 148  148 148 148  148 148 148  148 148 148  148 148 148  148 148 148  148 148 148  148 148 148  148 148 148  148 148 148  148 148 148  148 148 148  148 148 148  148 148 148  148 148 148  148 148 148  148 148 148  148 148 148  148 148 148  148 148 148  148 148 148  148 148 148  148 148 148  148 148 148  148 148 148  148 148 148  148 148 148  148 148 148  148 148 148  148 148 148  148 148 148  148 148 148  148 148 148  148 148 148  148 148 148  148 148 148  148 148 148  148 148 148  148 148 148  148 148 148  133 37 27  138 39 28  140 39 29  142 40 30  144 41 30  145 41 30  147 42 31  148 42 31  149 43 32  150 43 32  151 43 32  152 44 32  153 44 33  154 44 33  155 44 33  155 45 33  156 45 33  157 45 34  157 45 34  158 46 34  158 46 34  159 46 34  159 46 34  160 46 34  160 46 35  161 47 35  161 47 35  161 47 35  162 47 35  162 47 35  162 47 35  163 47 35  163 47 35  163 47 35  163 47 35  164 48 36  164 48 36  164 48 36  164 48 36  164 48 36  164 48 36  165 48 36  165 48 36  165 48 36  165 48 36  165 48 37  165 48 37  165 48 37  165 48 36  165 48 36  165 48 36  165 48 36  164 48 36  164 48 36  164 48 36  164 48 36  164 48 36  163 47 35  163 47 35  163 47 35  162 47 35  162 47 35  162 47 35  161 47 35  161 47 35  160 46 35  160 46 34  159 46 34  158 46 34  157 45 34  156 45 33  155 45 33  153 44 33  150 43 32  148 148 148  148 148 148  148 148 148  148 148 148  148 148 148  148 148 148  148 148 148  148 148 148  148 148 148  148 148 148  148 148 148  148 148 148  148 148 148  148 148 148  148 148 148  148 148 148  148 148 148  148 148 148  148 148 148  148 148 148  148 148 148  148 148 148  148 148 148  148 148 148  148 148 148  148 148 148  148 148 148  148 148 148  148 148 148  148 148 148  148 148 148  148 148 148  148 148 148  148 148 148  148 148 148  148 148 148  148 148 148  148 148 148  148 148 148  148 148 148  148 148 148  148 148 148  148 148 148  148 148 148  148 148 148  148 148 148  148 148 148  148 148 148  148 148 148  148 148 148  148 148 148  148 148 148  148 148 148  148 148 148  148 148 148  148 148 148  148 148 148  148 148 148  148 148 148  148 148 148  148 148 148  148 148 148  148 148 148  148 148 148  148 148 148  148 148 148  148 148 148  148 148 148  148 148 148  148 148 148  148 148 148  148 148 148  148 148 148  148 148 148  148 148 148  148 148 148  148 148 148  148 148 148  148 148 148  148 148 148  148 148 148  148 148 148  148 148 148  148 148 148  148 148 148  148 148 148  148 148 148  148 148 148  148 148 148  148 148 148  148 148 148  148 148 148  148 148 148  148 148 148  148 148 148  148 148 148  148 148 148  148 148 148  148 148 148  148 148 148  148 148 148  148 148 148  148 148 148  148 148 148  148 148 148  148 148 148  148 148 148  148 148 148  148 148 148  148 148 148  148 148 148  148 148 148  148 148 148  148 148 148  148 148 148  148 148 148  148 148 148  148 148 148  148 148 148  148 148 148  148 148 148  148 148 148  148 148 148
148 148 148  148 148 148  148 148 148  148 148 148  148 148 148  148 148 148  148 148 148  148 148 148  148 148 148  148 148 148  148 148 148  148 148 148  148 148 148  148 148 148  148 148 148  148 148 148  148 148 148  148 148 148  148 148 148  148 148 148  148 148 148  148 148 148  148 148 148  148 148 148  148 148 148  148 148 148  148 148 148  148 148 148  148 148 148  148 148 148  148 148 148  148 148 148  148 148 148  148 148 148  148 148 148  148 148 148  148 148 148  148 148 148  148 148 148  148 148 148  148 148 148  148 148 148  148 148 148  148 148 148  148 148 148  148 148 148  148 148 148  148 148 148  148 148 148  148 148 148  148 148 148  148 148 148  148 148 148  148 148 148  148 148 148  148 148 148  148 148 148  148 148 148  148 148 148  148 148 148  148 148 148  148 148 148  148 148 148  148 148 148  148 148 148  148 148 148  148 148 148  148 148 148  148 148 148  148 148 148  148 148 148  148 148 148  148 148 148  148 148 148  148 148 148  148 148 148  148 148 148  148 148 148  148 148 148  148 148 148  148 148 148  148 148 148  148 148 148  148 148 148  148 148 148  148 148 148  148 148 148  148 148 148  148 148 148  148 148 148  148 148 148  148 148 148  148 148 148  148 148 148  148 148 148  148 148 148  148 148 148  148 148 148  148 148 148  148 148 148  148 148 148  148 148 148  148 148 148  148 148 148  148 148 148  148 148 148  148 148 148  148 148 148  148 148 148  148 148 148  148 148 148  148 148 148  148 148 148  148 148 148  148 148 148  148 148 148  148 148 148  148 148 148  148 148 148  148 148 148  148 148 148  148 148 148  134 37 27  138 39 28  140 39 29  142 40 29  144 41 30  145 41 30  146 42 31  148 42 31  149 42 31  150 43 32  151 43 32  152 43 32  152 44 32  153 44 33  154 44 33  155 44 33  155 45 33  156 45 33  157 45 34  157 45 34  158 46 34  158 46 34  159 46 34  159 46 34  160 46 34  160 46 35  161 47 35  161 47 35  161 47 35  162 47 35  162 47 35  162 47 35  163 47 35  163 47 35  163 47 35  163 48 36  164 48 36  164 48 36  164 48 36  164 48 36  164 48 36  165 49 37  165 49 37  165 49 37  165 49 38  165 50 38  165 50 38  165 50 38  165 50 38  165 50 38  165 49 38  165 49 37  165 49 37  165 49 37  164 48 36  164 48 36  164 48 36  164 48 36  164 48 36  163 47 35  163 47 35  163 47 35  162 47 35  162 47 35  162 47 35  161 47 35  161 47 35  160 46 35  160 46 34  159 46 34  158 46 34  157 45 34  156 45 33  155 45 33  153 44 33  151 43 32  148 148 148  148 148 148  148 148 148  148 148 148  148 148 148  148 148 148  148 148 148  148 148 148  148 148 148  148 148 148  148 148 148  148 148 148  148 148 148  148 148 148  148 148 148  148 148 148  148 148 148  148 148 148  148 148 148  148 148 148  148 148 148  148 148 148  148 148 148  148 148 148  148 148 148  148 148 148  148 148 148  148 148 148  148 148 148  148 148 148  148 148 148  148 148 148  148 148 148  148 148 148  148 148 148  148 148 148  148 148 148  148 148 148  148 148 148  148 148 148  148 148 148  148 148 148  148 148 148  148 148 148  148 148 148  148 148 148  148 148 148  148 148 148  148 148 148  148 148 148  148 148 148  148 148 148  148 148 148  148 148 148  148 148 148  148 148 148  148 148 148  148 148 148  148 148 148  148 148 148  148 148 148  148 148 148  148 148 148  148 148 148  148 148 148  148 148 148  148 148 148  148 148 148  148 148 148  148 148 148  148 148 148  148 148 148  148 148 148  148 148 148  148 148 148  148 148 148  148 148 148  148 148 148  148 148 148  148 148 148  148 148 148  148 148 148  148 148 148  148 148 148  148 148 148  148 148 148  148 148 148  148 148 148  148 148 148  148 148 148  148 148 148  148 148 148  148 148 148  148 148 148  148 148 148  148 148 148  148 148 148  148 148 148  148 148 148  148 148 148  148 148 148  148 148 148  148 148 148  148 148 148  148 148 148  148 148 148  148 148 148  148 148 148  148 148 148  148 148 148  148 148 148  148 148 148  148 148 148  148 148 148  148 148 148  148 148 148  148 148 148  148 148 148  148 148 148  148 148 148  148 148 148  148 148 148
148 148 148  148 148 148  148 148 148  148 148 148  148 148 148  148 148 148  148 148 148  148 148 148  148 148 148  148 148 148  148 148 148  148 148 148  148 148 148  148 148 148  148 148 148  148 148 148  148 148 148  148 148 148  148 148 148  148 148 148  148 148 148  148 148 148  148 148 148  148 148 148  148 148 148  148 148 148  148 148 148  148 148 148  148 148 148  148 148 148  148 148 148  148 148 148  148 148 148  148 148 148  148 148 148  148 148 148  148 148 148  148 148 148  148 148 148  148 148 148  148 148 148  148 148 148  148 148 148  148 148 148  148 148 148  148 148 148  148 148 148  148 148 148  148 148 148  148 148 148  148 148 148  148 148 148  148 148 148  148 148 148  148 148 148  148 148 148  148 148 148  148 148 148  148 148 148  148 148 148  148 148 148  148 148 148  148 148 148  148 148 148  148 148 148  148 148 148  148 148 148  148 148 148  148 148 148  148 148 148  148 148 148  148 148 148  148 148 148  148 148 148  148 148 148  148 148 148  148 148 148  148 148 148  148 148 148  148 148 148  148 148 148  148 148 148  148 148 148  148 148 148  148 148 148  148 148 148  148 148 148  148 148 148  148 148 148  148 148 148  148 148 148  148 148 148  148 148 148  148 148 148  148 148 148  148 148 148  148 148 148  148 148 148  148 148 148  148 148 148  148 148 148  148 148 148  148 148 148  148 148 148  148 148 148  148 148 148  148 148 148  148 148 148  148 148 148  148 148 148  148 148 148  148 148 148  148 148 148  148 148 148  148 148 148  148 148 148  148 148 148  148 148 148  148 148 148  148 148 148  148 148 148  134 37 27  137 38 28  139 39 29  141 40 29  143 40 30  144 41 30  146 41 31  147 42 31  148 42 31  149 43 32  150 43 32  151 43 32  152 44 32  153 44 32  154 44 33  154 44 33  155 45 33  156 45 33  156 45 33  157 45 34  157 45 34  158 46 34  159 46 34  159 46 34  159 46 34  160 46 34  160 46 35  161 47 35  161 47 35  161 47 35  162 47 35  162 47 35  162 47 35  163 47 35  163 47 35  163 47 36  163 48 36  164 48 36  164 48 36  164 48 37  164 49 37  165 49 38  165 50 38  165 50 39  165 51 40  166 52 41  166 52 42  166 53 42  166 53 42  166 53 42  166 53 42  166 52 41  166 52 41  165 51 40  165 50 39  165 50 38  165 49 37  164 48 37  164 48 36  164 48 36  163 48 36  163 47 35  163 47 35  163 47 35  162 47 35  162 47 35  161 47 35  161 47 35  160 46 35  160 46 34  159 46 34  159 46 34  158 46 34  157 45 34  156 45 33  155 45 33  153 44 33  151 43 32  148 148 148  148 148 148  148 148 148  148 148 148  148 148 148  148 148 148  148 148 148  148 148 148  148 148 148  148 148 148  148 148 148  148 148 148  148 148 148  148 148 148  148 148 148  148 148 148  148 148 148  148 148 148  148 148 148  148 148 148  148 148 148  148 148 148  148 148 148  148 148 148  148 148 148  148 148 148  148 148 148  148 148 148  148 148 148  148 148 148  148 148 148  148 148 148  148 148 148  148 148 148  148 148 148  148 148 148  148 148 148  148 148 148  148 148 148  148 148 148  148 148 148  148 148 148  148 148 148  148 148 148  148 148 148  148 148 148  148 148 148  148 148 148  148 148 148  148 148 148  148 148 148  148 148 148  148 148 148  148 148 148  148 148 148  148 148 148  148 148 148  148 148 148  148 148 148  148 148 148  148 148 148  148 148 148  148 148 148  148 148 148  148 148 148  148 148 148  148 148 148  148 148 148  148 148 148  148 148 148  148 148 148  148 148 148  148 148 148  148 148 148  148 148 148  148 148 148  148 148 148  148 148 148  148 148 148  148 148 148  148 148 148  148 148 148  148 148 148  148 148 148  148 148 148  148 148 148  148 148 148  148 148 148  148 148 148  148 148 148  148 148 148  148 148 148  148 148 148  148 148 148  148 148 148  148 148 148  148 148 148  148 148 148  148 148 148  148 148 148  148 148 148  148 148 148  148 148 148  148 148 148  148 148 148  148 148 148  148 148 148  148 148 148  148 148 148  148 148 148  148 148 148  148 148 148  148 148 148  148 148 148  148 148 148  148 148 148  148 148 148  148 148 148  148 148 148  148 148 148  148 148 148
148 148 148  148 148 148  148 148 148  148 148 148  148 148 148  148 148 148  148 148 148  148 148 148  148 148 148  148 148 148  148 148 148  148 148 148  148 148 148  148 148 148  148 148 148  148 148 148  148 148 148  148 148 148  148 148 148  148 148 148  148 148 148  148 148 148  148 148 148  148 148 148  148 148 148  148 148 148  148 148 148  148 148 148  148 148 148  148 148 148  148 148 148  148 148 148  148 148 148  148 148 148  148 148 148  148 148 148  148 148 148  148 148 148  148 148 148  148 148 148  148 148 148  148 148 148  148 148 148  148 148 148  148 148 148  148 148 148  148 148 148  148 148 148  148 148 148  148 148 148  148 148 148  148 148 148  148 148 148  148 148 148  148 148 148  148 148 148  148 148 148  148 148 148  148 148 148  148 148 148  148 148 148  148 148 148  148 148 148  148 148 148  148 148 148  148 148 148  148 148 148  148 148 148  148 148 148  148 148 148  148 148 148  148 148 148  148 148 148  148 148 148  148 148 148  148 148 148  148 148 148  148 148 148  148 148 148  148 148 148  148 148 148  148 148 148  148 148 148  148 148 148  148 148 148  148 148 148  148 148 148  148 148 148  148 148 148  148 148 148  148 148 148  148 148 148  148 148 148  148 148 148  148 148 148  148 148 148  148 148 148  148 148 148  148 148 148  148 148 148  148 148 148  148 148 148  148 148 148  148 148 148  148 148 148  148 148 148  148 148 148  148 148 148  148 148 148  148 148 148  148 148 148  148 148 148  148 148 148  148 148 148  148 148 148  148 148 148  148 148 148  148 148 148  148 148 148  129 36 26  134 37 27  137 38 28  139 39 29  141 40 29  142 40 30  144 41 30  145 41 30  146 42 31  147 42 31  148 42 31  149 43 32  150 43 32  151 43 32  152 44 32  153 44 33  154 44 33  154 44 33  155 45 33  156 45 33  156 45 33  157 45 34  157 45 34  158 46 34  159 46 34  159 46 34  159 46 34  160 46 34  160 46 35  161 47 35  161 47 35  161 47 35  162 47 35  162 47 35  162 47 35  163 47 35  163 47 35  163 48 36  163 48 36  164 48 36  164 49 37  164 49 38  165 50 39  165 51 40  166 52 42  166 54 43  167 55 45  167 56 47  167 58 48  168 58 49  168 59 50  168 59 50  168 59 49  168 58 48  167 57 47  167 55 45  166 54 44  166 52 42  165 51 40  165 50 39  164 49 37  164 48 37  164 48 36  163 48 36  163 47 35  163 47 35  162 47 35  162 47 35  162 47 35  161 47 35  161 47 35  160 46 35  160 46 34  159 46 34  158 46 34  158 45 34  157 45 34  156 45 33  155 44 33  153 44 33  151 43 32  148 42 31  148 148 148  148 148 148  148 148 148  148 148 148  148 148 148  148 148 148  148 148 148  148 148 148  148 148 148  148 148 148  148 148 148  148 148 148  148 148 148  148 148 148  148 148 148  148 148 148  148 148 148  148 148 148  148 148 148  148 148 148  148 148 148  148 148 148  148 148 148  148 148 148  148 148 148  148 148 148  148 148 148  148 148 148  148 148 148  148 148 148  148 148 148  148 148 148  148 148 148  148 148 148  148 148 148  148 148 148  148 148 148  148 148 148  148 148 148  148 148 148  148 148 148  148 148 148  148 148 148  148 148 148  148 148 148  148 148 148  148 148 148  148 148 148  148 148 148  148 148 148  148 148 148  148 148 148  148 148 148  148 148 148  148 148 148  148 148 148  148 148 148  148 148 148  148 148 148  148 148 148  148 148 148  148 148 148  148 148 148  148 148 148  148 148 148  148 148 148  148 148 148  148 148 148  148 148 148  148 148 148  148 148 148  148 148 148  148 148 148  148 148 148  148 148 148  148 148 148  148 148 148  148 148 148  148 148 148  148 148 148  148 148 148  148 148 148  148 148 148  148 148 148  148 148 148  148 148 148  148 148 148  148 148 148  148 148 148  148 148 148  148 148 148  148 148 148  148 148 148  148 148 148  148 148 148  148 148 148  148 148 148  148 148 148  148 148 148  148 148 148  148 148 148  148 148 148  148 148 148  148 148 148  148 148 148  148 148 148  148 148 148  148 148 148  148 148 148  148 148 148  148 148 148  148 148 148  148 148 148  148 148 148  148 148 148  148 148 148  148 148 148  148 148 148  148 148 148
148 148 148  148 148 148  148 148 148  148 148 148  148 148 148  148 148 148  148 148 148  148 148 148  148 148 148  148 148 148  148 148 148  148 148 148  148 148 148  148 148 148  148 148 148  148 148 148  148 148 148  148 148 148  148 148 148  148 148 148  148 148 148  148 148 148  148 148 148  148 148 148  148 148 148  148 148 148  148 148 148  148 148 148  148 148 148  148 148 148  148 148 148  148 148 148  148 148 148  148 148 148  148 148 148  148 148 148  148 148 148  148 148 148  148 148 148  148 148 148  148 148 148  148 148 148  148 148 148  148 148 148  148 148 148  148 148 148  148 148 148  148 148 148  148 148 148  148 148 148  148 148 148  148 148 148  148 148 148  148 148 148  148 148 148  148 148 148  148 148 148  148 148 148  148 148 148  148 148 148  148 148 148  148 148 148  148 148 148  148 148 148  148 148 148  148 148 148  148 148 148  148 148 148  148 148 148  148 148 148  148 148 148  148 148 148  148 148 148  148 148 148  148 148 148  148 148 148  148 148 148  148 148 148  148 148 148  148 148 148  148 148 148  148 148 148  148 148 148  148 148 148  148 148 148  148 148 148  148 148 148  148 148 148  148 148 148  148 148 148  148 148 148  148 148 148  148 148 148  148 148 148  148 148 148  148 148 148  148 148 148  148 148 148  148 148 148  148 148 148  148 148 148  148 148 148  148 148 148  148 148 148  148 148 148  148 148 148  148 148 148  148 148 148  148 148 148  148 148 148  148 148 148  148 148 148  148 148 148  148 148 148  148 148 148  148 148 148  148 148 148  148 148 148  129 36 26  133 37 27  136 38 28  138 39 28  140 39 29  141 40 29  143 40 30  144 41 30  146 41 30  147 42 31  148 42 31  149 42 31  150 43 32  151 43 32  151 43 32  152 44 32  153 44 33  154 44 33  154 44 33  155 45 33  156 45 33  156 45 33  157 45 34  157 45 34  158 46 34  158 46 34  159 46 34  159 46 34  160 46 34  160 46 35  161 46 35  161 47 35  161 47 35  162 47 35  162 47 35  162 47 35  163 47 35  163 47 36  163 48 36  163 48 36  164 49 37  164 50 38  165 51 40  165 52 42  166 54 44  167 56 47  168 59 50  168 61 53  169 64 55  170 66 58  171 68 60  171 69 61  171 69 61  171 69 61  171 67 60  170 66 58  169 63 55  168 61 52  167 58 49  166 55 45  165 53 43  165 51 40  164 50 38  164 49 37  163 48 36  163 48 36  163 47 35  162 47 35  162 47 35  162 47 35  161 47 35  161 47 35  160 46 35  160 46 34  159 46 34  159 46 34  158 46 34  157 45 34  156 45 34  155 45 33  154 44 33  153 44 33  151 43 32  148 42 31  148 148 148  148 148 148  148 148 148  148 148 148  148 148 148  148 148 148  148 148 148  148 148 148  148 148 148  148 148 148  148 148 148  148 148 148  148 148 148  148 148 148  148 148 148  148 148 148  148 148 148  148 148 148  148 148 148  148 148 148  148 148 148  148 148 148  148 148 148  148 148 148  148 148 148  148 148 148  148 148 148  148 148 148  148 148 148  148 148 148  148 148 148  148 148 148  148 148 148  148 148 148  148 148 148  148 148 148  148 148 148  148 148 148  148 148 148  148 148 148  148 148 148  148 148 148  148 148 148  148 148 148  148 148 148  148 148 148  148 148 148  148 148 148  148 148 148  148 148 148  148 148 148  148 148 148  148 148 148  148 148 148  148 148 148  148 148 148  148 148 148  148 148 148  148 148 148  148 148 148  148 148 148  148 148 148  148 148 148  148 148 148  148 148 148  148 148 148  148 148 148  148 148 148  148 148 148  148 148 148  148 148 148  148 148 148  148 148 148  148 148 148  148 148 148  148 148 148  148 148 148  148 148 148  148 148 148  148 148 148  148 148 148  148 148 148  148 148 148  148 148 148  148 148 148  148 148 148  148 148 148  148 148 148  148 148 148  148 148 148  148 148 148  148 148 148  148 148 148  148 148 148  148 148 148  148 148 148  148 148 148  148 148 148  148 148 148  148 148 148  148 148 148  148 148 148  148 148 148  148 148 148  148 148 148  148 148 148  148 148 148  148 148 148  148 148 148  148 148 148  148 148 148  148 148 148  148 148 148  148 148 148  148 148 148  148 148 148  148 148 148  148 148 148
148 148 148  148 148 148  148 148 148  148 148 148  148 148 148  148 148 148  148 148 148  148 148 148  148 148 148  148 148 148  148 148 148  148 148 148  148 148 148  148 148 148  148 148 148  148 148 148  148 148 148  148 148 148  148 148 148  148 148 148  148 148 148  148 148 148  148 148 148  148 148 148  148 148 148  148 148 148  148 148 148  148 148 148  148 148 148  148 148 148  148 148 148  148 148 148  148 148 148  148 148 148  148 148 148  148 148 148  148 148 148  148 148 148  148 148 148  148 148 148  148 148 148  148 148 148  148 148 148  148 148 148  148 148 148  148 148 148  148 148 148  148 148 148  148 148 148  148 148 148  148 148 148  148 148 148  148 148 148  148 148 148  148 148 148  148 148 148  148 148 148  148 148 148  148 148 148  148 148 148  148 148 148  148 148 148  148 148 148  148 148 148  148 148 148  148 148 148  148 148 148  148 148 148  148 148 148  148 148 148  148 148 148  148 148 148  148 148 148  148 148 148  148 148 148  148 148 148  148 148 148  148 148 148  148 148 148  148 148 148  148 148 148  148 148 148  148 148 148  148 148 148  148 148 148  148 148 148  148 148 148  148 148 148  148 148 148  148 148 148  148 148 148  148 148 148  148 148 148  148 148 148  148 148 148  148 148 148  148 148 148  148 148 148  148 148 148  148 148 148  148 148 148  148 148 148  148 148 148  148 148 148  148 148 148  148 148 148  148 148 148  148 148 148  148 148 148  148 148 148  148 148 148  148 148 148  148 148 148  148 148 148  148 148 148  148 148 148  148 148 148  128 35 26  132 37 27  135 38 28  137 38 28  139 39 29  141 40 29  142 40 30  143 41 30  145 41 30  146 41 31  147 42 31  148 42 31  149 42 31  150 43 32  151 43 32  151 43 32  152 44 32  153 44 33  154 44 33  154 44 33  155 45 33  156 45 33  156 45 33  157 45 34  157 45 34  158 46 34  158 46 34  159 46 34  159 46 34  160 46 34  160 46 35  160 46 35  161 47 35  161 47 35  161 47 35  162 47 35  162 47 35  162 47 35  163 48 36  163 48 36  163 49 37  164 50 38  164 51 40  165 53 43  166 55 46  167 58 49  168 62 53  170 66 58  171 70 62  173 74 67  174 77 70  175 80 73  176 81 75  177 82 76  176 82 76  176 80 74  175 78 71  173 74 68  172 71 63  170 66 59  168 62 54  167 58 49  166 55 45  165 52 42  164 50 39  164 49 38  163 48 36  163 48 36  162 47 35  162 47 35  162 47 35  161 47 35  161 47 35  160 46 35  160 46 35  159 46 34  159 46 34  158 46 34  158 45 34  157 45 34  156 45 33  155 45 33  154 44 33  153 44 32  151 43 32  148 42 31  148 148 148  148 148 148  148 148 148  148 148 148  148 148 148  148 148 148  148 148 148  148 148 148  148 148 148  148 148 148  148 148 148  148 148 148  148 148 148  148 148 148  148 148 148  148 148 148  148 148 148  148 148 148  148 148 148  148 148 148  148 148 148  148 148 148  148 148 148  148 148 148  148 148 148  148 148 148  148 148 148  148 148 148  148 148 148  148 148 148  148 148 148  148 148 148  148 148 148  148 148 148  148 148 148  148 148 148  148 148 148  148 148 148  148 148 148  148 148 148  148 148 148  148 148 148  148 148 148  148 148 148  148 148 148  148 148 148  148 148 148  148 148 148  148 148 148  148 148 148  148 148 148  148 148 148  148 148 148  148 148 148  148 148 148  148 148 148  148 148 148  148 148 148  148 148 148  148 148 148  148 148 148  148 148 148  148 148 148  148 148 148  148 148 148  148 148 148  148 148 148  148 148 148  148 148 148  148 148 148  148 148 148  148 148 148  148 148 148  148 148 148  148 148 148  148 148 148  148 148 148  148 148 148  148 148 148  148 148 148  148 148 148  148 148 148  148 148 148  148 148 148  148 148 148  148 148 148  148 148 148  148 148 148  148 148 148  148 148 148  148 148 148  148 148 148  148 148 148  148 148 148  148 148 148  148 148 148  148 148 148  148 148 148  148 148 148  148 148 148  148 148 148  148 148 148  148 148 148  148 148 148  148 148 148  148 148 148  148 148 148  148 148 148  148 148 148  148 148 148  148 148 148  148 148 148  148 148 148  148 148 148  148 148 148  148 148 148  148 148 148
148 148 148  148 148 148  148 148 148  148 148 148  148 148 148  148 148 148  148 148 148  148 148 148  148 148 148  148 148 148  148 148 148  148 148 148  148 148 148  148 148 148  148 148 148  148 148 148  148 148 148  148 148 148  148 148 148  148 148 148  148 148 148  148 148 148  148 148 148  148 148 148  148 148 148  148 148 148  148 148 148  148 148 148  148 148 148  148 148 148  148 148 148  148 148 148  148 148 148  148 148 148  148 148 148  148 148 148  148 148 148  148 148 148  148 148 148  148 148 148  148 148 148  148 148 148  148 148 148  148 148 148  148 148 148  148 148 148  148 148 148  148 148 148  148 148 148  148 148 148  148 148 148  148 148 148  148 148 148  148 148 148  148 148 148  148 148 148  148 148 148  148 148 148  148 148 148  148 148 148  148 148 148  148 148 148  148 148 148  148 148 148  148 148 148  148 148 148  148 148 148  148 148 148  148 148 148  148 148 148  148 148 148  148 148 148  148 148 148  148 148 148  148 148 148  148 148 148  148 148 148  148 148 148  148 148 148  148 148 148  148 148 148  148 148 148  148 148 148  148 148 148  148 148 148  148 148 148  148 148 148  148 148 148  148 148 148  148 148 148  148 148 148  148 148 148  148 148 148  148 148 148  148 148 148  148 148 148  148 148 148  148 148 148  148 148 148  148 148 148  148 148 148  148 148 148  148 148 148  148 148 148  148 148 148  148 148 148  148 148 148  148 148 148  148 148 148  148 148 148  148 148 148  148 148 148  148 148 148  148 148 148  148 148 148  148 148 148  127 35 25  131 36 26  134 37 27  136 38 28  138 39 28  140 39 29  141 40 29  142 40 30  144 41 30  145 41 30  146 41 31  147 42 31  148 42 31  149 42 31  150 43 32  151 43 32  151 43 32  152 44 32  153 44 33  154 44 33  154 44 33  155 45 33  155 45 33  156 45 33  157 45 34  157 45 34  158 45 34  158 46 34  159 46 34  159 46 34  159 46 34  160 46 34  160 46 35  161 47 35  161 47 35  161 47 35  162 47 35  162 47 35  162 47 36  163 48 36  163 48 37  163 49 38  164 51 40  165 53 43  166 56 46  167 59 50  169 64 56  171 69 61  173 74 67  175 79 73  177 85 79  180 89 84  181 93 88  183 96 91  183 97 92  183 97 92  183 95 90  181 92 87  179 88 83  177 83 77  174 77 71  172 72 64  169 66 58  168 61 52  166 56 47  165 53 43  164 51 40  163 49 38  163 48 36  162 48 36  162 47 35  162 47 35  161 47 35  161 47 35  160 46 35  160 46 35  160 46 34  159 46 34  158 46 34  158 46 34  157 45 34  156 45 33  155 45 33  154 44 33  153 44 33  152 44 32  150 43 32  147 42 31  148 148 148  148 148 148  148 148 148  148 148 148  148 148 148  148 148 148  148 148 148  148 148 148  148 148 148  148 148 148  148 148 148  148 148 148  148 148 148  148 148 148  148 148 148  148 148 148  148 148 148  148 148 148  148 148 148  148 148 148  148 148 148  148 148 148  148 148 148  148 148 148  148 148 148  148 148 148  148 148 148  148 148 148  148 148 148  148 148 148  148 148 148  148 148 148  148 148 148  148 148 148  148 148 148  148 148 148  148 148 148  148 148 148  148 148 148  148 148 148  148 148 148  148 148 148  148 148 148  148 148 148  148 148 148  148 148 148  148 148 148  148 148 148  148 148 148  148 148 148  148 148 148  148 148 148  148 148 148  148 148 148  148 148 148  148 148 148  148 148 148  148 148 148  148 148 148  148 148 148  148 148 148  148 148 148  148 148 148  148 148 148  148 148 148  148 148 148  148 148 148  148 148 148  148 148 148  148 148 148  148 148 148  148 148 148  148 148 148  148 148 148  148 148 148  148 148 148  148 148 148  148 148 148  148 148 148  148 148 148  148 148 148  148 148 148  148 148 148  148 148 148  148 148 148  148 148 148  148 148 148  148 148 148  148 148 148  148 148 148  148 148 148  148 148 148  148 148 148  148 148 148  148 148 148  148 148 148  148 148 148  148 148 148  148 148 148  148 148 148  148 148 148  148 148 148  148 148 148  148 148 148  148 148 148  148 148 148  148 148 148  148 148 148  148 148 148  148 148 148  148 148 148  148 148 148  148 148 148  148 148 148  148 148 148  148 148 148
148 148 148  148 148 148  148 148 148  148 148 148  148 148 148  148 148 148  148 148 148  148 148 148  148 148 148  148 148 148  148 148 148  148 148 148  148 148 148  148 148 148  148 148 148  148 148 148  148 148 148  148 148 148  148 148 148  148 148 148  148 148 148  148 148 148  148 148 148  148 148 148  148 148 148  148 148 148  148 148 148  148 148 148  148 148 148  148 148 148  148 148 148  148 148 148  148 148 148  148 148 148  148 148 148  148 148 148  148 148 148  148 148 148  148 148 148  148 148 148  148 148 148  148 148 148  148 148 148  148 148 148  148 148 148  148 148 148  148 148 148  148 148 148  148 148 148  148 148 148  148 148 148  148 148 148  148 148 148  148 148 148  148 148 148  148 148 148  148 148 148  148 148 148  148 148 148  148 148 148  148 148 148  148 148 148  148 148 148  148 148 148  148 148 148  148 148 148  148 148 148  148 148 148  148 148 148  148 148 148  148 148 148  148 148 148  148 148 148  148 148 148  148 148 148  148 148 148  148 148 148  148 148 148  148 148 148  148 148 148  148 148 148  148 148 148  148 148 148  148 148 148  148 148 148  148 148 148  148 148 148  148 148 148  148 148 148  148 148 148  148 148 148  148 148 148  148 148 148  148 148 148  148 148 148  148 148 148  148 148 148  148 148 148  148 148 148  148 148 148  148 148 148  148 148 148  148 148 148  148 148 148  148 148 148  148 148 148  148 148 148  148 148 148  148 148 148  148 148 148  148 148 148  148 148 148  148 148 148  148 148 148  148 148 148  125 34 25  130 36 26  132 37 27  135 38 28  137 38 28  138 39 29  140 39 29  141 40 29  143 40 30  144 41 30  145 41 30  146 41 31  147 42 31  148 42 31  149 42 31  150 43 32  151 43 32  151 43 32  152 44 32  153 44 33  153 44 33  154 44 33  155 44 33  155 45 33  156 45 33  156 45 34  157 45 34  157 45 34  158 46 34  158 46 34  159 46 34  159 46 34  160 46 34  160 46 35  160 46 35  161 47 35  161 47 35  161 47 35  162 47 35  162 48 36  162 48 37  163 49 38  163 50 39  164 52 42  165 55 46  167 59 50  168 64 56  170 69 62  173 76 69  176 82 76  179 89 84  183 96 91  186 102 97  188 106 102  190 110 106  191 112 107  191 112 108  191 110 106  189 107 103  186 102 98  183 96 91  179 90 84  176 82 76  173 75 68  170 68 61  168 62 54  166 57 48  164 53 43  164 51 40  163 49 38  162 48 36  162 47 36  162 47 35  161 47 35  161 47 35  160 46 35  160 46 35  160 46 34  159 46 34  158 46 34  158 46 34  157 45 34  157 45 34  156 45 33  155 45 33  154 44 33  153 44 32  151 43 32  149 43 32  147 42 31  148 148 148  148 148 148  148 148 148  148 148 148  148 148 148  148 148 148  148 148 148  148 148 148  148 148 148  148 148 148  148 148 148  148 148 148  148 148 148  148 148 148  148 148 148  148 148 148  148 148 148  148 148 148  148 148 148  148 148 148  148 148 148  148 148 148  148 148 148  148 148 148  148 148 148  148 148 148  148 148 148  148 148 148  148 148 148  148 148 148  148 148 148  148 148 148  148 148 148  148 148 148  148 148 148  148 148 148  148 148 148  148 148 148  148 148 148  148 148 148  148 148 148  148 148 148  148 148 148  148 148 148  148 148 148  148 148 148  148 148 148  148 148 148  148 148 148  148 148 148  148 148 148  148 148 148  148 148 148  148 148 148  148 148 148  148 148 148  148 148 148  148 148 148  148 148 148  148 148 148  148 148 148  148 148 148  148 148 148  148 148 148  148 148 148  148 148 148  148 148 148  148 148 148  148 148 148  148 148 148  148 148 148  148 148 148  148 148 148  148 148 148  148 148 148  148 148 148  148 148 148  148 148 148  148 148 148  148 148 148  148 148 148  148 148 148  148 148 148  148 148 148  148 148 148  148 148 148  148 148 148  148 148 148  148 148 148  148 148 148  148 148 148  148 148 148  148 148 148  148 148 148  148 148 148  148 148 148  148 148 148  148 148 148  148 148 148  148 148 148  148 148 148  148 148 148  148 148 148  148 148 148  148 148 148  148 148 148  148 148 148  148 148 148  148 148 148  148 148 148  148 148 148  148 148 148  148 148 148  148 148 148  148 148 148
148 148 148  148 148 148  148 148 148  148 148 148  148 148 148  148 148 148  148 148 148  148 148 148  148 148 148  148 148 148  148 148 148  148 148 148  148 148 148  148 148 148  148 148 148  148 148 148  148 148 148  148 148 148  148 148 148  148 148 148  148 148 148  148 148 148  148 148 148  148 148 148  148 148 148  148 148 148  148 148 148  148 148 148  148 148 148  148 148 148  148 148 148  148 148 148  148 148 148  148 148 148  148 148 148  148 148 148  148 148 148  148 148 148  148 148 148  148 148 148  148 148 148  148 148 148  148 148 148  148 148 148  148 148 148  148 148 148  148 148 148  148 148 148  148 148 148  148 148 148  148 148 148  148 148 148  148 148 148  148 148 148  148 148 148  148 148 148  148 148 148  148 148 148  148 148 148  148 148 148  148 148 148  148 148 148  148 148 148  148 148 148  148 148 148  148 148 148  148 148 148  148 148 148  148 148 148  148 148 148  148 148 148  148 148 148  148 148 148  148 148 148  148 148 148  148 148 148  148 148 148  148 148 148  148 148 148  148 148 148  148 148 148  148 148 148  148 148 148  148 148 148  148 148 148  148 148 148  148 148 148  148 148 148  148 148 148  148 148 148  148 148 148  148 148 148  148 148 148  148 148 148  148 148 148  148 148 148  148 148 148  148 148 148  148 148 148  148 148 148  148 148 148  148 148 148  148 148 148  148 148 148  148 148 148  148 148 148  148 148 148  148 148 148  148 148 148  148 148 148  148 148 148  148 148 148  148 148 148  148 148 148  123 34 24  128 35 26  131 36 26  133 37 27  135 38 28  137 38 28  139 39 29  140 39 29  142 40 29  143 40 30  144 41 30  145 41 30  146 41 31  147 42 31  148 42 31  149 42 31  150 43 32  150 43 32  151 43 32  152 44 32  153 44 32  153 44 33  154 44 33  154 44 33  155 45 33  156 45 33  156 45 33  157 45 34  157 45 34  158 45 34  158 46 34  159 46 34  159 46 34  159 46 34  160 46 34  160 46 35  160 47 35  161 47 35  161 47 35  161 47 36  162 48 36  162 49 37  163 50 39  163 52 41  164 54 44  166 58 48  167 62 54  169 68 60  172 75 68  175 82 76  179 90 85  183 98 93  187 105 101  191 112 108  195 118 114  197 122 118  199 125 121  199 125 122  199 124 120  196 121 117  193 116 112  189 109 105  185 101 97  181 93 88  176 84 78  173 76 69  170 68 61  167 62 53  165 56 47  164 53 42  163 50 39  162 49 37  162 48 36  161 47 35  161 47 35  161 47 35  160 46 35  160 46 34  159 46 34  159 46 34  158 46 34  158 46 34  157 45 34  157 45 34  156 45 33  155 45 33  154 44 33  153 44 33  152 44 32  150 43 32  149 42 31  145 41 30  148 148 148  148 148 148  148 148 148  148 148 148  148 148 148  148 148 148  148 148 148  148 148 148  148 148 148  148 148 148  148 148 148  148 148 148  148 148 148  148 148 148  148 148 148  148 148 148  148 148 148  148 148 148  148 148 148  148 148 148  148 148 148  148 148 148  148 148 148  148 148 148  148 148 148  148 148 148  148 148 148  148 148 148  148 148 148  148 148 148  148 148 148  148 148 148  148 148 148  148 148 148  148 148 148  148 148 148  148 148 148  148 148 148  148 148 148  148 148 148  148 148 148  148 148 148  148 148 148  148 148 148  148 148 148  148 148 148  148 148 148  148 148 148  148 148 148  148 148 148  148 148 148  148 148 148  148 148 148  148 148 148  148 148 148  148 148 148  148 148 148  148 148 148  148 148 148  148 148 148  148 148 148  148 148 148  148 148 148  148 148 148  148 148 148  148 148 148  148 148 148  148 148 148  148 148 148  148 148 148  148 148 148  148 148 148  148 148 148  148 148 148  148 148 148  148 148 148  148 148 148  148 148 148  148 148 148  148 148 148  148 148 148  148 148 148  148 148 148  148 148 148  148 148 148  148 148 148  148 148 148  148 148 148  148 148 148  148 148 148  148 148 148  148 148 148  148 148 148  148 148 148  148 148 148  148 148 148  148 148 148  148 148 148  148 148 148  148 148 148  148 148 148  148 148 148  148 148 148  148 148 148  148 148 148  148 148 148  148 148 148  148 148 148  148 148 148  148 148 148  148 148 148  148 148 148  148 148 148  148 148 148
148 148 148  148 148 148  148 148 148  148 148 148  148 148 148  148 148 148  148 148 148  148 148 148  148 148 148  148 148 148  148 148 148  148 148 148  148 148 148  148 148 148  148 148 148  148 148 148  148 148 148  148 148 148  148 148 148  148 148 148  148 148 148  148 148 148  148 148 148  148 148 148  148 148 148  148 148 148  148 148 148  148 148 148  148 148 148  148 148 148  148 148 148  148 148 148  148 148 148  148 148 148  148 148 148  148 148 148  148 148 148  148 148 148  148 148 148  148 148 148  148 148 148  148 148 148  148 148 148  148 148 148  148 148 148  148 148 148  148 148 148  148 148 148  148 148 148  148 148 148  148 148 148  148 148 148  148 148 148  148 148 148  148 148 148  148 148 148  148 148 148  148 148 148  148 148 148  148 148 148  148 148 148  148 148 148  148 148 148  148 148 148  148 148 148  148 148 148  148 148 148  148 148 148  148 148 148  148 148 148  148 148 148  148 148 148  148 148 148  148 148 148  148 148 148  148 148 148  148 148 148  148 148 148  148 148 148  148 148 148  148 148 148  148 148 148  148 148 148  148 148 148  148 148 148  148 148 148  148 148 148  148 148 148  148 148 148  148 148 148  148 148 148  148 148 148  148 148 148  148 148 148  148 148 148  148 148 148  148 148 148  148 148 148  148 148 148  148 148 148  148 148 148  148 148 148  148 148 148  148 148 148  148 148 148  148 148 148  148 148 148  148 148 148  148 148 148  148 148 148  148 148 148  148 148 148  148 148 148  120 33 24  126 35 25  129 36 26  132 37 27  134 37 27  136 38 28  137 39 28  139 39 29  140 39 29  142 40 29  143 40 30  144 41 30  145 41 30  146 41 31  147 42 31  148 42 31  149 42 31  149 43 32  150 43 32  151 43 32  152 43 32  152 44 32  153 44 33  154 44 33  154 44 33  155 44 33  155 45 33  156 45 33  156 45 33  157 45 34  157 45 34  158 46 34  158 46 34  159 46 34  159 46 34  159 46 34  160 46 35  160 47 35  160 47 35  161 47 36  161 48 36  162 48 37  162 50 39  163 51 40  164 53 43  165 56 47  166 60 51  168 65 57  171 71 65  174 79 73  177 87 81  182 95 91  186 104 100  191 112 108  196 120 116  200 126 123  203 131 128  205 134 131  206 135 132  205 134 131  203 131 128  200 126 122  195 119 115  190 111 107  185 102 97  180 92 87  175 83 77  172 74 67  168 66 58  166 60 51  164 55 45  163 51 41  162 49 38  162 48 36  161 47 36  161 47 35  160 47 35  160 46 35  160 46 34  159 46 34  159 46 34  158 46 34  158 46 34  157 45 34  157 45 34  156 45 33  155 45 33  154 44 33  153 44 33  152 44 32  151 43 32  150 43 32  148 42 31  144 41 30  148 148 148  148 148 148  148 148 148  148 148 148  148 148 148  148 148 148  148 148 148  148 148 148  148 148 148  148 148 148  148 148 148  148 148 148  148 148 148  148 148 148  148 148 148  148 148 148  148 148 148  148 148 148  148 148 148  148 148 148  148 148 148  148 148 148  148 148 148  148 148 148  148 148 148  148 148 148  148 148 148  148 148 148  148 148 148  148 148 148  148 148 148  148 148 148  148 148 148  148 148 148  148 148 148  148 148 148  148 148 148  148 148 148  148 148 148  148 148 148  148 148 148  148 148 148  148 148 148  148 148 148  148 148 148  148 148 148  148 148 148  148 148 148  148 148 148  148 148 148  148 148 148  148 148 148  148 148 148  148 148 148  148 148 148  148 148 148  148 148 148  148 148 148  148 148 148  148 148 148  148 148 148  148 148 148  148 148 148  148 148 148  148 148 148  148 148 148  148 148 148  148 148 148  148 148 148  148 148 148  148 148 148  148 148 148  148 148 148  148 148 148  148 148 148  148 148 148  148 148 148  148 148 148  148 148 148  148 148 148  148 148 148  148 148 148  148 148 148  148 148 148  148 148 148  148 148 148  148 148 148  148 148 148  148 148 148  148 148 148  148 148 148  148 148 148  148 148 148  148 148 148  148 148 148  148 148 148  148 148 148  148 148 148  148 148 148  148 148 148  148 148 148  148 148 148  148 148 148  148 148 148  148 148 148  148 148 148  148 148 148  148 148 148  148 148 148  148 148 148  148 148 148  148 148 148  148 148 148
148 148 148  148 148 148  148 148 148  148 148 148  148 148 148  148 148 148  148 148 148  148 148 148  148 148 148  148 148 148  148 148 148  148 148 148  148 148 148  148 148 148  148 148 148  148 148 148  148 148 148  148 148 148  148 148 148  148 148 148  148 148 148  148 148 148  148 148 148  148 148 148  148 148 148  148 148 148  148 148 148  148 148 148  148 148 148  148 148 148  148 148 148  148 148 148  148 148 148  148 148 148  148 148 148  148 148 148  148 148 148  148 148 148  148 148 148  148 148 148  148 148 148  148 148 148  148 148 148  148 148 148  148 148 148  148 148 148  148 148 148  148 148 148  148 148 148  148 148 148  148 148 148  148 148 148  148 148 148  148 148 148  148 148 148  148 148 148  148 148 148  148 148 148  148 148 148  148 148 148  148 148 148  148 148 148  148 148 148  148 148 148  148 148 148  148 148 148  148 148 148  148 148 148  148 148 148  148 148 148  148 148 148  148 148 148  148 148 148  148 148 148  148 148 148  148 148 148  148 148 148  148 148 148  148 148 148  148 148 148  148 148 148  148 148 148  148 148 148  148 148 148  148 148 148  148 148 148  148 148 148  148 148 148  148 148 148  148 148 148  148 148 148  148 148 148  148 148 148  148 148 148  148 148 148  148 148 148  148 148 148  148 148 148  148 148 148  148 148 148  148 148 148  148 148 148  149 149 149  149 149 149  149 149 149  149 149 149  149 149 149  149 149 149  149 149 149  149 149 149  149 149 149  149 149 149  149 149 149  124 34 25  128 35 26  130 36 26  132 37 27  134 37 27  136 38 28  138 39 28  139 39 29  140 39 29  142 40 29  143 40 30  144 41 30  145 41 30  146 41 31  147 42 31  148 42 31  148 42 31  149 43 32  150 43 32  151 43 32  151 43 32  152 44 32  153 44 32  153 44 33  154 44 33  154 44 33  155 45 33  156 45 33  156 45 33  156 45 34  157 45 34  157 45 34  158 46 34  158 46 34  159 46 34  159 46 34  159 46 35  160 47 35  160 47 36  161 48 37  161 49 38  162 50 39  162 51 41  163 53 43  164 56 46  165 59 50  167 63 55  169 68 61  171 75 68  175 82 76  179 90 85  183 99 94  188 108 104  193 117 113  198 125 121  203 131 128  206 137 133  209 140 137  210 141 138  209 141 137  207 138 134  204 133 129  199 126 122  194 117 114  188 108 104  183 98 93  178 88 83  173 78 72  170 70 63  167 63 54  165 57 48  163 53 43  162 50 39  162 48 37  161 47 36  161 47 35  160 47 35  160 46 35  159 46 34  159 46 34  159 46 34  158 46 34  158 45 34  157 45 34  157 45 34  156 45 33  155 45 33  154 44 33  154 44 33  153 44 32  151 43 32  150 43 32  149 42 31  146 42 31  149 149 149  149 149 149  149 149 149  149 149 149  149 149 149  149 149 149  149 149 149  149 149 149  149 149 149  149 149 149  149 149 149  148 148 148  148 148 148  148 148 148  148 148 148  148 148 148  148 148 148  148 148 148  148 148 148  148 148 148  148 148 148  148 148 148  148 148 148  148 148 148  148 148 148  148 148 148  148 148 148  148 148 148  148 148 148  148 148 148  148 148 148  148 148 148  148 148 148  148 148 148  148 148 148  148 148 148  148 148 148  148 148 148  148 148 148  148 148 148  148 148 148  148 148 148  148 148 148  148 148 148  148 148 148  148 148 148  148 148 148  148 148 148  148 148 148  148 148 148  148 148 148  148 148 148  148 148 148  148 148 148  148 148 148  148 148 148  148 148 148  148 148 148  148 148 148  148 148 148  148 148 148  148 148 148  148 148 148  148 148 148  148 148 148  148 148 148  148 148 148  148 148 148  148 148 148  148 148 148  148 148 148  148 148 148  148 148 148  148 148 148  148 148 148  148 148 148  148 148 148  148 148 148  148 148 148  148 148 148  148 148 148  148 148 148  148 148 148  148 148 148  148 148 148  148 148 148  148 148 148  148 148 148  148 148 148  148 148 148  148 148 148  148 148 148  148 148 148  148 148 148  148 148 148  148 148 148  148 148 148  148 148 148  148 148 148  148 148 148  148 148 148  148 148 148  148 148 148  148 148 148  148 148 148  148 148 148  148 148 148  148 148 148  148 148 148  148 148 148  148 148 148  148 148 148  148 148 148
148 148 148  148 148 148  148 148 148  148 148 148  148 148 148  148 148 148  148 148 148  148 148 148  148 148 148  148 148 148  148 148 148  148 148 148  148 148 148  148 148 148  148 148 148  148 148 148  148 148 148  148 148 148  148 148 148  148 148 148  148 148 148  148 148 148  148 148 148  148 148 148  148 148 148  148 148 148  148 148 148  148 148 148  148 148 148  148 148 148  148 148 148  148 148 148  148 148 148  148 148 148  148 148 148  148 148 148  148 148 148  148 148 148  148 148 148  148 148 148  148 148 148  148 148 148  148 148 148  148 148 148  148 148 148  148 148 148  148 148 148  148 148 148  148 148 148  148 148 148  148 148 148  148 148 148  148 148 148  148 148 148  148 148 148  148 148 148  148 148 148  148 148 148  148 148 148  148 148 148  148 148 148  148 148 148  148 148 148  148 148 148  148 148 148  148 148 148  149 149 149  149 149 149  149 149 149  149 149 149  149 149 149  149 149 149  149 149 149  149 149 149  149 149 149  149 149 149  149 149 149  149 149 149  149 149 149  149 149 149  149 149 149  149 149 149  149 149 149  149 149 149  149 149 149  149 149 149  149 149 149  149 149 149  149 149 149  149 149 149  149 149 149  149 149 149  149 149 149  149 149 149  149 149 149  149 149 149  149 149 149  149 149 149  149 149 149  149 149 149  149 149 149  149 149 149  149 149 149  149 149 149  149 149 149  149 149 149  149 149 149  149 149 149  149 149 149  149 149 149  149 149 149  149 149 149  121 33 24  126 34 25  128 35 26  131 36 26  133 37 27  134 38 27  136 38 28  138 39 28  139 39 29  140 39 29  141 40 29  142 40 30  144 41 30  145 41 30  145 41 30  146 42 31  147 42 31  148 42 31  149 42 31  150 43 32  150 43 32  151 43 32  152 43 32  152 44 32  153 44 33  154 44 33  154 44 33  155 44 33  155 45 33  156 45 33  156 45 33  157 45 34  157 45 34  157 45 34  158 46 34  158 46 34  159 46 35  159 47 35  160 47 36  160 48 37  161 49 38  161 51 40  162 52 42  163 55 45  164 57 48  165 60 51  166 63 55  168 67 60  170 72 65  173 78 72  176 85 79  179 92 87  184 101 96  189 109 105  194 117 114  199 125 122  203 132 129  207 138 134  209 141 138  210 143 140  210 142 139  208 140 136  205 135 132  201 128 125  195 120 116  190 111 107  184 101 96  179 91 86  174 81 75  170 72 65  167 64 57  165 58 49  163 54 44  162 51 40  161 49 37  161 47 36  160 47 35  160 46 35  160 46 34  159 46 34  159 46 34  158 46 34  158 46 34  157 45 34  157 45 34  156 45 33  156 45 33  155 45 33  154 44 33  154 44 33  153 44 32  152 43 32  150 43 32  149 43 31  147 42 31  145 41 30  149 149 149  149 149 149  149 149 149  149 149 149  149 149 149  149 149 149  149 149 149  149 149 149  149 149 149  149 149 149  149 149 149  149 149 149  149 149 149  149 149 149  149 149 149  149 149 149  149 149 149  149 149 149  149 149 149  149 149 149  149 149 149  149 149 149  149 149 149  149 149 149  149 149 149  149 149 149  149 149 149  149 149 149  149 149 149  149 149 149  149 149 149  149 149 149  149 149 149  149 149 149  149 149 149  149 149 149  149 149 149  149 149 149  149 149 149  149 149 149  149 149 149  149 149 149  149 149 149  149 149 149  149 149 149  149 149 149  149 149 149  148 148 148  148 148 148  148 148 148  148 148 148  148 148 148  148 148 148  148 148 148  148 148 148  148 148 148  148 148 148  148 148 148  148 148 148  148 148 148  148 148 148  148 148 148  148 148 148  148 148 148  148 148 148  148 148 148  148 148 148  148 148 148  148 148 148  148 148 148  148 148 148  148 148 148  148 148 148  148 148 148  148 148 148  148 148 148  148 148 148  148 148 148  148 148 148  148 148 148  148 148 148  148 148 148  148 148 148  148 148 148  148 148 148  148 148 148  148 148 148  148 148 148  148 148 148  148 148 148  148 148 148  148 148 148  148 148 148  148 148 148  148 148 148  148 148 148  148 148 148  148 148 148  148 148 148  148 148 148  148 148 148  148 148 148  148 148 148  148 148 148  148 148 148  148 148 148  148 148 148  148 148 148  148 148 148  148 148 148  148 148 148  148 148 148
148 148 148  148 148 148  148 148 148  148 148 148  148 148 148  148 148 148  148 148 148  148 148 148  148 148 148  148 148 148  148 148 148  148 148 148  148 148 148  148 148 148  148 148 148  148 148 148  148 148 148  148 148 148  148 148 148  148 148 148  148 148 148  148 148 148  148 148 148  148 148 148  148 148 148  148 148 148  148 148 148  148 148 148  148 148 148  148 148 148  148 148 148  148 148 148  148 148 148  148 148 148  148 148 148  148 148 148  148 148 148  148 148 148  148 148 148  149 149 149  149 149 149  149 149 149  149 149 149  149 149 149  149 149 149  149 149 149  149 149 149  149 149 149  149 149 149  149 149 149  149 149 149  149 149 149  149 149 149  149 149 149  149 149 149  149 149 149  149 149 149  149 149 149  149 149 149  149 149 149  149 149 149  149 149 149  149 149 149  149 149 149  149 149 149  149 149 149  149 149 149  149 149 149  149 149 149  149 149 149  149 149 149  149 149 149  149 149 149  149 149 149  149 149 149  149 149 149  149 149 149  149 149 149  149 149 149  149 149 149  149 149 149  149 149 149  149 149 149  149 149 149  149 149 149  149 149 149  149 149 149  149 149 149  149 149 149  149 149 149  149 149 149  149 149 149  149 149 149  149 149 149  149 149 149  149 149 149  149 149 149  149 149 149  149 149 149  149 149 149  149 149 149  149 149 149  149 149 149  149 149 149  149 149 149  149 149 149  149 149 149  149 149 149  149 149 149  149 149 149  149 149 149  118 32 23  123 34 24  126 35 25  129 36 26  131 36 26  133 37 27  135 38 27  136 38 28  137 39 28  139 39 29  140 39 29  141 40 29  142 40 30  143 41 30  144 41 30  145 41 30  146 41 31  147 42 31  148 42 31  149 42 31  149 43 32  150 43 32  151 43 32  151 43 32  152 44 32  153 44 32  153 44 33  154 44 33  154 44 33  155 44 33  155 45 33  156 45 33  156 45 33  157 45 34  157 45 34  157 46 34  158 46 35  158 47 35  159 47 36  159 48 38  160 50 39  161 52 42  162 54 45  163 57 48  164 60 52  166 63 55  167 66 59  168 70 63  170 74 67  172 78 72  174 82 77  177 88 82  180 94 89  184 101 96  188 108 104  192 116 112  197 123 119  201 129 126  204 134 131  207 138 135  208 140 137  208 139 136  206 137 134  203 133 130  199 127 123  194 119 115  189 110 106  184 101 96  178 91 86  174 81 76  170 73 66  167 65 57  165 59 50  163 54 44  162 51 40  161 49 38  160 48 36  160 47 35  160 46 35  159 46 34  159 46 34  159 46 34  158 46 34  158 45 34  157 45 34  157 45 34  156 45 33  156 45 33  155 45 33  154 44 33  153 44 33  153 44 32  152 43 32  151 43 32  149 43 32  148 42 31  146 41 31  143 40 30  149 149 149  149 149 149  149 149 149  149 149 149  149 149 149  149 149 149  149 149 149  149 149 149  149 149 149  149 149 149  149 149 149  149 149 149  149 149 149  149 149 149  149 149 149  149 149 149  149 149 149  149 149 149  149 149 149  149 149 149  149 149 149  149 149 149  149 149 149  149 149 149  149 149 149  149 149 149  149 149 149  149 149 149  149 149 149  149 149 149  149 149 149  149 149 149  149 149 149  149 149 149  149 149 149  149 149 149  149 149 149  149 149 149  149 149 149  149 149 149  149 149 149  149 149 149  149 149 149  149 149 149  149 149 149  149 149 149  149 149 149  149 149 149  149 149 149  149 149 149  149 149 149  149 149 149  149 149 149  149 149 149  149 149 149  149 149 149  149 149 149  149 149 149  149 149 149  149 149 149  149 149 149  149 149 149  149 149 149  149 149 149  149 149 149  149 149 149  149 149 149  149 149 149  149 149 149  149 149 149  149 149 149  149 149 149  148 148 148  148 148 148  148 148 148  148 148 148  148 148 148  148 148 148  148 148 148  148 148 148  148 148 148  148 148 148  148 148 148  148 148 148  148 148 148  148 148 148  148 148 148  148 148 148  148 148 148  148 148 148  148 148 148  148 148 148  148 148 148  148 148 148  148 148 148  148 148 148  148 148 148  148 148 148  148 148 148  148 148 148  148 148 148  148 148 148  148 148 148  148 148 148  148 148 148  148 148 148  148 148 148  148 148 148  148 148 148  148 148 148  148 148 148
148 148 148  148 148 148  148 148 148  148 148 148  148 148 148  148 148 148  148 148 148  148 148 148  148 148 148  148 148 148  148 148 148  148 148 148  148 148 148  148 148 148  148 148 148  148 148 148  148 148 148  149 149 149  149 149 149  149 149 149  149 149 149  149 149 149  149 149 149  149 149 149  149 149 149  149 149 149  149 149 149  149 149 149  149 149 149  149 149 149  149 149 149  149 149 149  149 149 149  149 149 149  149 149 149  149 149 149  149 149 149  149 149 149  149 149 149  149 149 149  149 149 149  149 149 149  149 149 149  149 149 149  149 149 149  149 149 149  149 149 149  149 149 149  149 149 149  149 149 149  149 149 149  149 149 149  149 149 149  149 149 149  149 149 149  149 149 149  149 149 149  149 149 149  149 149 149  149 149 149  149 149 149  149 149 149  149 149 149  149 149 149  149 149 149  149 149 149  149 149 149  149 149 149  149 149 149  149 149 149  149 149 149  149 149 149  149 149 149  149 149 149  149 149 149  149 149 149  149 149 149  149 149 149  149 149 149  149 149 149  149 149 149  149 149 149  149 149 149  149 149 149  149 149 149  149 149 149  149 149 149  149 149 149  149 149 149  149 149 149  149 149 149  149 149 149  149 149 149  149 149 149  149 149 149  149 149 149  149 149 149  149 149 149  149 149 149  149 149 149  149 149 149  149 149 149  149 149 149  149 149 149  149 149 149  149 149 149  149 149 149  149 149 149  149 149 149  149 149 149  149 149 149  121 33 24  124 34 25  127 35 25  129 36 26  131 36 27  133 37 27  134 37 27  136 38 28  137 38 28  139 39 29  140 39 29  141 40 29  142 40 30  143 40 30  144 41 30  145 41 30  146 41 31  147 42 31  147 42 31  148 42 31  149 42 31  150 43 32  150 43 32  151 43 32  151 43 32  152 44 32  153 44 32  153 44 33  154 44 33  154 44 33  155 44 33  155 45 33  156 45 33  156 45 34  157 45 34  157 46 34  157 46 35  158 47 36  159 48 38  160 50 40  161 53 43  162 56 47  163 59 51  165 63 56  167 68 60  168 72 65  170 76 69  172 79 73  173 82 77  175 85 80  177 89 83  178 92 87  181 96 91  183 101 96  186 106 102  190 112 108  193 118 114  197 123 120  200 128 124  202 131 128  203 133 129  203 133 129  202 131 127  199 127 123  195 121 118  191 114 111  186 106 102  182 98 93  177 89 83  173 80 74  169 71 65  166 64 56  164 58 50  163 54 44  161 51 40  161 49 38  160 47 36  160 47 35  159 46 35  159 46 34  159 46 34  158 46 34  158 46 34  157 45 34  157 45 34  156 45 34  156 45 33  155 45 33  155 44 33  154 44 33  153 44 33  153 44 32  152 43 32  151 43 32  149 43 32  148 42 31  147 42 31  144 41 30  149 149 149  149 149 149  149 149 149  149 149 149  149 149 149  149 149 149  149 149 149  149 149 149  149 149 149  149 149 149  149 149 149  149 149 149  149 149 149  149 149 149  149 149 149  149 149 149  149 149 149  149 149 149  149 149 149  149 149 149  149 149 149  149 149 149  149 149 149  149 149 149  149 149 149  149 149 149  149 149 149  149 149 149  149 149 149  149 149 149  149 149 149  149 149 149  149 149 149  149 149 149  149 149 149  149 149 149  149 149 149  149 149 149  149 149 149  149 149 149  149 149 149  149 149 149  149 149 149  149 149 149  149 149 149  149 149 149  149 149 149  149 149 149  149 149 149  149 149 149  149 149 149  149 149 149  149 149 149  149 149 149  149 149 149  149 149 149  149 149 149  149 149 149  149 149 149  149 149 149  149 149 149  149 149 149  149 149 149  149 149 149  149 149 149  149 149 149  149 149 149  149 149 149  149 149 149  149 149 149  149 149 149  149 149 149  149 149 149  149 149 149  149 149 149  149 149 149  149 149 149  149 149 149  149 149 149  149 149 149  149 149 149  149 149 149  149 149 149  149 149 149  149 149 149  149 149 149  149 149 149  149 149 149  149 149 149  149 149 149  149 149 149  149 149 149  149 149 149  149 149 149  148 148 148  148 148 148  148 148 148  148 148 148  148 148 148  148 148 148  148 148 148  148 148 148  148 148 148  148 148 148  148 148 148  148 148 148  148 148 148  148 148 148  148 148 148  148 148 148  148 148 148
149 149 149  149 149 149  149 149 149  149 149 149  149 149 149  149 149 149  149 149 149  149 149 149  149 149 149  149 149 149  149 149 149  149 149 149  149 149 149  149 149 149  149 149 149  149 149 149  149 149 149  149 149 149  149 149 149  149 149 149  149 149 149  149 149 149  149 149 149  149 149 149  149 149 149  149 149 149  149 149 149  149 149 149  149 149 149  149 149 149  149 149 149  149 149 149  149 149 149  149 149 149  149 149 149  149 149 149  149 149 149  149 149 149  149 149 149  149 149 149  149 149 149  149 149 149  149 149 149  149 149 149  149 149 149  149 149 149  149 149 149  149 149 149  149 149 149  149 149 149  149 149 149  149 149 149  149 149 149  149 149 149  149 149 149  149 149 149  149 149 149  149 149 149  149 149 149  149 149 149  149 149 149  149 149 149  149 149 149  149 149 149  149 149 149  149 149 149  149 149 149  149 149 149  149 149 149  149 149 149  149 149 149  149 149 149  149 149 149  149 149 149  149 149 149  149 149 149  149 149 149  149 149 149  149 149 149  149 149 149  149 149 149  149 149 149  149 149 149  149 149 149  149 149 149  149 149 149  149 149 149  149 149 149  149 149 149  149 149 149  149 149 149  149 149 149  149 149 149  149 149 149  149 149 149  149 149 149  149 149 149  149 149 149  149 149 149  149 149 149  149 149 149  149 149 149  149 149 149  149 149 149  149 149 149  149 149 149  149 149 149  149 149 149  149 149 149  149 149 149  117 32 23  122 33 24  125 34 25  127 35 25  129 36 26  131 36 26  133 37 27  134 37 27  136 38 28  137 38 28  138 39 28  139 39 29  141 40 29  142 40 29  143 40 30  144 41 30  144 41 30  145 41 30  146 42 31  147 42 31  148 42 31  148 42 31  149 43 31  150 43 32  150 43 32  151 43 32  152 43 32  152 44 32  153 44 32  153 44 33  154 44 33  154 44 33  155 45 33  155 45 33  156 45 34  156 45 34  157 46 35  157 47 36  158 48 37  159 50 40  160 53 43  161 57 48  163 61 53  165 66 59  167 71 65  170 77 71  172 82 76  175 86 81  176 90 85  178 93 88  179 95 90  180 97 92  181 98 94  182 100 95  183 102 97  185 104 100  187 108 104  189 112 108  191 115 112  194 119 115  195 121 118  196 123 119  196 123 119  195 121 117  193 118 114  190 113 109  186 107 103  182 100 95  178 92 87  174 84 78  171 76 70  168 69 62  165 62 54  163 57 48  162 53 43  161 50 40  160 48 37  160 47 36  159 47 35  159 46 34  158 46 34  158 46 34  158 46 34  157 45 34  157 45 34  157 45 34  156 45 33  156 45 33  155 45 33  154 44 33  154 44 33  153 44 33  152 44 32  151 43 32  151 43 32  149 43 32  148 42 31  147 42 31  145 41 30  142 40 30  149 149 149  149 149 149  149 149 149  149 149 149  149 149 149  149 149 149  149 149 149  149 149 149  149 149 149  149 149 149  149 149 149  149 149 149  149 149 149  149 149 149  149 149 149  149 149 149  149 149 149  149 149 149  149 149 149  149 149 149  149 149 149  149 149 149  149 149 149  149 149 149  149 149 149  149 149 149  149 149 149  149 149 149  149 149 149  149 149 149  149 149 149  149 149 149  149 149 149  149 149 149  149 149 149  149 149 149  149 149 149  149 149 149  149 149 149  149 149 149  149 149 149  149 149 149  149 149 149  149 149 149  149 149 149  149 149 149  149 149 149  149 149 149  149 149 149  149 149 149  149 149 149  149 149 149  149 149 149  149 149 149  149 149 149  149 149 149  149 149 149  149 149 149  149 149 149  149 149 149  149 149 149  149 149 149  149 149 149  149 149 149  149 149 149  149 149 149  149 149 149  149 149 149  149 149 149  149 149 149  149 149 149  149 149 149  149 149 149  149 149 149  149 149 149  149 149 149  149 149 149  149 149 149  149 149 149  149 149 149  149 149 149  149 149 149  149 149 149  149 149 149  149 149 149  149 149 149  149 149 149  149 149 149  149 149 149  149 149 149  149 149 149  149 149 149  149 149 149  149 149 149  149 149 149  149 149 149  149 149 149  149 149 149  149 149 149  149 149 149  149 149 149  149 149 149  149 149 149  149 149 149  149 149 149  149 149 149  149 149 149  149 149 149  149 149 149  149 149 149
149 149 149  149 149 149  149 149 149  149 149 149  149 149 149  149 149 149  149 149 149  149 149 149  149 149 149  149 149 149  149 149 149  149 149 149  149 149 149  149 149 149  149 149 149  149 149 149  149 149 149  149 149 149  149 149 149  149 149 149  149 149 149  149 149 149  149 149 149  149 149 149  149 149 149  149 149 149  149 149 149  149 149 149  149 149 149  149 149 149  149 149 149  149 149 149  149 149 149  149 149 149  149 149 149  149 149 149  149 149 149  149 149 149  149 149 149  149 149 149  149 149 149  149 149 149  149 149 149  149 149 149  149 149 149  149 149 149  149 149 149  149 149 149  149 149 149  149 149 149  149 149 149  149 149 149  149 149 149  149 149 149  149 149 149  149 149 149  149 149 149  149 149 149  149 149 149  149 149 149  149 149 149  149 149 149  149 149 149  149 149 149  149 149 149  149 149 149  149 149 149  149 149 149  149 149 149  149 149 149  149 149 149  149 149 149  149 149 149  149 149 149  149 149 149  149 149 149  149 149 149  149 149 149  149 149 149  149 149 149  149 149 149  149 149 149  149 149 149  149 149 149  149 149 149  149 149 149  149 149 149  149 149 149  149 149 149  149 149 149  149 149 149  149 149 149  149 149 149  149 149 149  149 149 149  149 149 149  149 149 149  149 149 149  149 149 149  149 149 149  149 149 149  149 149 149  149 149 149  149 149 149  149 149 149  149 149 149  149 149 149  149 149 149  149 149 149  112 30 21  119 32 23  122 33 24  125 34 25  127 35 25  129 36 26  131 36 26  133 37 27  134 37 27  135 38 28  137 38 28  138 39 28  139 39 29  140 39 29  141 40 29  142 40 30  143 40 30  144 41 30  145 41 30  146 41 31  146 42 31  147 42 31  148 42 31  149 42 31  149 43 32  150 43 32  150 43 32  151 43 32  152 43 32  152 44 32  153 44 32  153 44 33  154 44 33  154 44 33  155 45 33  155 45 34  156 45 34  156 46 35  157 47 37  158 49 39  159 52 43  160 56 47  162 61 53  165 67 60  167 73 67  171 80 74  174 87 81  177 93 88  180 98 93  182 102 97  184 104 100  185 106 102  185 106 102  185 106 101  184 105 100  184 104 100  184 104 99  184 104 100  185 105 101  186 107 103  187 109 105  188 110 106  188 111 107  188 111 107  187 109 105  186 106 102  184 102 98  181 97 93  178 91 86  174 85 79  171 78 72  168 71 64  166 65 57  164 60 51  162 55 46  161 52 42  160 49 39  160 48 37  159 47 36  159 46 35  158 46 34  158 46 34  158 46 34  157 45 34  157 45 34  157 45 34  156 45 33  156 45 33  155 45 33  155 44 33  154 44 33  153 44 33  153 44 33  152 44 32  151 43 32  150 43 32  149 43 32  148 42 31  147 42 31  145 41 30  143 41 30  139 39 29  149 149 149  149 149 149  149 149 149  149 149 149  149 149 149  149 149 149  149 149 149  149 149 149  149 149 149  149 149 149  149 149 149  149 149 149  149 149 149  149 149 149  149 149 149  149 149 149  149 149 149  149 149 149  149 149 149  149 149 149  149 149 149  149 149 149  149 149 149  149 149 149  149 149 149  149 149 149  149 149 149  149 149 149  149 149 149  149 149 149  149 149 149  149 149 149  149 149 149  149 149 149  149 149 149  149 149 149  149 149 149  149 149 149  149 149 149  149 149 149  149 149 149  149 149 149  149 149 149  149 149 149  149 149 149  149 149 149  149 149 149  149 149 149  149 149 149  149 149 149  149 149 149  149 149 149  149 149 149  149 149 149  149 149 149  149 149 149  149 149 149  149 149 149  149 149 149  149 149 149  149 149 149  149 149 149  149 149 149  149 149 149  149 149 149  149 149 149  149 149 149  149 149 149  149 149 149  149 149 149  149 149 149  149 149 149  149 149 149  149 149 149  149 149 149  149 149 149  149 149 149  149 149 149  149 149 149  149 149 149  149 149 149  149 149 149  149 149 149  149 149 149  149 149 149  149 149 149  149 149 149  149 149 149  149 149 149  149 149 149  149 149 149  149 149 149  149 149 149  149 149 149  149 149 149  149 149 149  149 149 149  149 149 149  149 149 149  149 149 149  149 149 149  149 149 149  149 149 149  149 149 149  149 149 149  149 149 149  149 149 149  149 149 149  149 149 149
149 149 149  149 149 149  149 149 149  149 149 149  149 149 149  149 149 149  149 149 149  149 149 149  149 149 149  149 149 149  149 149 149  149 149 149  149 149 149  149 149 149  149 149 149  149 149 149  149 149 149  149 149 149  149 149 149  149 149 149  149 149 149  149 149 149  149 149 149  149 149 149  149 149 149  149 149 149  149 149 149  149 149 149  149 149 149  149 149 149  149 149 149  149 149 149  149 149 149  149 149 149  149 149 149  149 149 149  149 149 149  149 149 149  149 149 149  149 149 149  149 149 149  149 149 149  149 149 149  149 149 149  149 149 149  149 149 149  149 149 149  149 149 149  149 149 149  149 149 149  149 149 149  149 149 149  149 149 149  149 149 149  149 149 149  149 149 149  149 149 149  149 149 149  149 149 149  149 149 149  149 149 149  149 149 149  149 149 149  149 149 149  149 149 149  149 149 149  149 149 149  149 149 149  149 149 149  149 149 149  149 149 149  149 149 149  149 149 149  149 149 149  149 149 149  149 149 149  149 149 149  149 149 149  149 149 149  149 149 149  149 149 149  149 149 149  149 149 149  149 149 149  149 149 149  149 149 149  149 149 149  149 149 149  149 149 149  149 149 149  149 149 149  149 149 149  149 149 149  149 149 149  149 149 149  149 149 149  149 149 149  149 149 149  149 149 149  149 149 149  149 149 149  149 149 149  149 149 149  149 149 149  149 149 149  149 149 149  149 149 149  149 149 149  149 149 149  115 31 22  119 32 23  122 33 24  125 34 25  127 35 25  129 36 26  131 36 26  132 37 27  134 37 27  135 38 28  136 38 28  138 39 28  139 39 29  140 39 29  141 40 29  142 40 29  143 40 30  143 41 30  144 41 30  145 41 30  146 41 31  147 42 31  147 42 31  148 42 31  149 42 31  149 43 32  150 43 32  151 43 32  151 43 32  152 43 32  152 44 32  153 44 32  153 44 33  154 44 33  154 44 33  155 45 34  155 45 34  156 47 36  157 48 38  158 51 41  159 54 45  161 59 51  163 65 58  166 72 66  170 80 74  174 88 83  178 96 91  182 102 98  185 108 104  188 112 108  189 115 111  190 116 112  190 115 111  189 113 109  187 110 106  185 107 103  184 104 99  182 101 97  181 100 95  181 99 94  181 99 94  181 99 94  181 99 94  181 98 93  180 97 92  179 94 89  177 91 86  175 87 81  173 82 76  170 76 70  168 71 64  166 66 58  164 61 53  162 56 48  161 53 43  160 50 40  159 49 38  159 47 36  159 47 35  158 46 35  158 46 34  158 46 34  157 45 34  157 45 34  156 45 34  156 45 33  156 45 33  155 45 33  155 44 33  154 44 33  154 44 33  153 44 33  152 44 32  152 43 32  151 43 32  150 43 32  149 43 32  148 42 31  147 42 31  145 41 30  144 41 30  141 40 29  149 149 149  149 149 149  149 149 149  149 149 149  149 149 149  149 149 149  149 149 149  149 149 149  149 149 149  149 149 149  149 149 149  149 149 149  149 149 149  149 149 149  149 149 149  149 149 149  149 149 149  149 149 149  149 149 149  149 149 149  149 149 149  149 149 149  149 149 149  149 149 149  149 149 149  149 149 149  149 149 149  149 149 149  149 149 149  149 149 149  149 149 149  149 149 149  149 149 149  149 149 149  149 149 149  149 149 149  149 149 149  149 149 149  149 149 149  149 149 149  149 149 149  149 149 149  149 149 149  149 149 149  149 149 149  149 149 149  149 149 149  149 149 149  149 149 149  149 149 149  149 149 149  149 149 149  149 149 149  149 149 149  149 149 149  149 149 149  149 149 149  149 149 149  149 149 149  149 149 149  149 149 149  149 149 149  149 149 149  149 149 149  149 149 149  149 149 149  149 149 149  149 149 149  149 149 149  149 149 149  149 149 149  149 149 149  149 149 149  149 149 149  149 149 149  149 149 149  149 149 149  149 149 149  149 149 149  149 149 149  149 149 149  149 149 149  149 149 149  149 149 149  149 149 149  149 149 149  149 149 149  149 149 149  149 149 149  149 149 149  149 149 149  149 149 149  149 149 149  149 149 149  149 149 149  149 149 149  149 149 149  149 149 149  149 149 149  149 149 149  149 149 149  149 149 149  149 149 149  149 149 149  149 149 149  149 149 149  149 149 149  149 149 149  149 149 149
149 149 149  149 149 149  149 149 149  149 149 149  149 149 149  149 149 149  149 149 149  149 149 149  149 149 149  149 149 149  149 149 149  149 149 149  149 149 149  149 149 149  149 149 149  149 149 149  149 149 149  149 149 149  149 149 149  149 149 149  149 149 149  149 149 149  149 149 149  149 149 149  149 149 149  149 149 149  149 149 149  149 149 149  149 149 149  149 149 149  149 149 149  149 149 149  149 149 149  149 149 149  149 149 149  149 149 149  149 149 149  149 149 149  149 149 149  149 149 149  149 149 149  149 149 149  149 149 149  149 149 149  149 149 149  149 149 149  149 149 149  149 149 149  149 149 149  149 149 149  149 149 149  149 149 149  149 149 149  149 149 149  149 149 149  149 149 149  149 149 149  149 149 149  149 149 149  149 149 149  149 149 149  149 149 149  149 149 149  149 149 149  149 149 149  149 149 149  149 149 149  149 149 149  149 149 149  149 149 149  149 149 149  149 149 149  149 149 149  149 149 149  149 149 149  149 149 149  149 149 149  149 149 149  149 149 149  149 149 149  149 149 149  149 149 149  149 149 149  149 149 149  149 149 149  149 149 149  149 149 149  149 149 149  149 149 149  149 149 149  149 149 149  149 149 149  149 149 149  149 149 149  149 149 149  149 149 149  149 149 149  149 149 149  149 149 149  149 149 149  149 149 149  149 149 149  149 149 149  149 149 149  149 149 149  149 149 149  149 149 149  149 149 149  110 29 21  116 31 22  120 32 23  122 33 24  125 34 25  127 35 25  129 35 26  130 36 26  132 37 27  133 37 27  135 38 27  136 38 28  137 38 28  138 39 28  139 39 29  140 39 29  141 40 29  142 40 30  143 40 30  144 41 30  145 41 30  145 41 30  146 41 31  147 42 31  147 42 31  148 42 31  149 42 31  149 43 32  150 43 32  150 43 32  151 43 32  152 43 32  152 44 32  153 44 32  153 44 33  153 44 33  154 45 34  155 46 35  155 47 36  156 49 39  157 52 43  159 56 48  161 62 55  164 69 62  168 77 71  172 86 81  177 94 90  181 103 98  186 110 106  190 116 112  192 121 117  194 123 120  195 124 120  194 122 119  192 119 116  190 115 111  187 110 106  184 104 100  181 99 95  179 95 90  177 92 87  176 90 85  175 88 83  175 87 82  174 86 81  173 84 79  172 82 77  171 80 74  170 76 70  168 72 66  166 68 61  165 64 57  163 60 52  162 57 48  161 53 44  160 51 41  159 49 38  159 48 37  158 47 35  158 46 35  158 46 34  157 45 34  157 45 34  157 45 34  156 45 33  156 45 33  156 45 33  155 45 33  155 44 33  154 44 33  154 44 33  153 44 33  153 44 32  152 44 32  151 43 32  151 43 32  150 43 32  149 42 31  148 42 31  147 42 31  145 41 30  144 41 30  142 40 29  138 39 28  149 149 149  149 149 149  149 149 149  149 149 149  149 149 149  149 149 149  149 149 149  149 149 149  149 149 149  149 149 149  149 149 149  149 149 149  149 149 149  149 149 149  149 149 149  149 149 149  149 149 149  149 149 149  149 149 149  149 149 149  149 149 149  149 149 149  149 149 149  149 149 149  149 149 149  149 149 149  149 149 149  149 149 149  149 149 149  149 149 149  149 149 149  149 149 149  149 149 149  149 149 149  149 149 149  149 149 149  149 149 149  149 149 149  149 149 149  149 149 149  149 149 149  149 149 149  149 149 149  149 149 149  149 149 149  149 149 149  149 149 149  149 149 149  149 149 149  149 149 149  149 149 149  149 149 149  149 149 149  149 149 149  149 149 149  149 149 149  149 149 149  149 149 149  149 149 149  149 149 149  149 149 149  149 149 149  149 149 149  149 149 149  149 149 149  149 149 149  149 149 149  149 149 149  149 149 149  149 149 149  149 149 149  149 149 149  149 149 149  149 149 149  149 149 149  149 149 149  149 149 149  149 149 149  149 149 149  149 149 149  149 149 149  149 149 149  149 149 149  149 149 149  149 149 149  149 149 149  149 149 149  149 149 149  149 149 149  149 149 149  149 149 149  149 149 149  149 149 149  149 149 149  149 149 149  149 149 149  149 149 149  149 149 149  149 149 149  149 149 149  149 149 149  149 149 149  149 149 149  149 149 149  149 149 149  149 149 149  149 149 149  149 149 149
149 149 149  149 149 149  149 149 149  149 149 149  149 149 149  149 149 149  149 149 149  149 149 149  149 149 149  149 149 149  149 149 149  149 149 149  149 149 149  149 149 149  149 149 149  149 149 149  149 149 149  149 149 149  149 149 149  149 149 149  149 149 149  149 149 149  149 149 149  149 149 149  149 149 149  149 149 149  149 149 149  149 149 149  149 149 149  149 149 149  149 149 149  149 149 149  149 149 149  149 149 149  149 149 149  149 149 149  149 149 149  149 149 149  149 149 149  149 149 149  149 149 149  149 149 149  149 149 149  149 149 149  149 149 149  149 149 149  149 149 149  149 149 149  149 149 149  149 149 149  149 149 149  149 149 149  149 149 149  149 149 149  149 149 149  149 149 149  149 149 149  149 149 149  149 149 149  149 149 149  149 149 149  149 149 149  149 149 149  149 149 149  149 149 149  149 149 149  149 149 149  149 149 149  149 149 149  149 149 149  149 149 149  149 149 149  149 149 149  149 149 149  149 149 149  149 149 149  149 149 149  149 149 149  149 149 149  149 149 149  149 149 149  149 149 149  149 149 149  149 149 149  149 149 149  149 149 149  149 149 149  149 149 149  149 149 149  149 149 149  149 149 149  149 149 149  149 149 149  149 149 149  149 149 149  149 149 149  149 149 149  149 149 149  149 149 149  149 149 149  149 149 149  149 149 149  149 149 149  149 149 149  149 149 149  149 149 149  149 149 149  149 149 149  112 30 21  116 31 22  120 32 23  122 33 24  125 34 25  127 35 25  128 35 26  130 36 26  131 36 27  133 37 27  134 37 27  135 38 28  137 38 28  138 39 28  139 39 29  140 39 29  141 40 29  141 40 29  142 40 30  143 40 30  144 41 30  145 41 30  145 41 30  146 42 31  147 42 31  147 42 31  148 42 31  149 42 31  149 43 32  150 43 32  150 43 32  151 43 32  151 43 32  152 44 32  152 44 33  153 44 33  153 45 34  154 46 35  155 47 37  156 49 39  157 53 44  159 58 49  161 64 57  165 71 65  169 80 74  173 89 84  178 98 94  183 107 103  188 115 111  192 121 117  195 125 122  197 128 125  197 128 125  196 126 123  194 123 119  191 118 114  187 111 107  183 104 100  179 98 93  176 91 86  174 86 81  172 82 76  170 79 73  170 77 71  169 75 69  168 73 67  167 72 65  166 69 63  165 67 60  164 64 57  163 61 53  162 58 50  161 55 46  160 53 43  160 51 41  159 49 38  158 48 37  158 47 36  158 46 35  157 46 34  157 45 34  157 45 34  156 45 34  156 45 33  156 45 33  155 45 33  155 45 33  155 44 33  154 44 33  154 44 33  153 44 33  153 44 32  152 44 32  152 43 32  151 43 32  150 43 32  149 43 32  149 42 31  148 42 31  146 42 31  145 41 30  144 41 30  142 40 29  139 39 29  149 149 149  149 149 149  149 149 149  149 149 149  149 149 149  149 149 149  149 149 149  149 149 149  149 149 149  149 149 149  149 149 149  149 149 149  149 149 149  149 149 149  149 149 149  149 149 149  149 149 149  149 149 149  149 149 149  149 149 149  149 149 149  149 149 149  149 149 149  149 149 149  149 149 149  149 149 149  149 149 149  149 149 149  149 149 149  149 149 149  149 149 149  149 149 149  149 149 149  149 149 149  149 149 149  149 149 149  149 149 149  149 149 149  149 149 149  149 149 149  149 149 149  149 149 149  149 149 149  149 149 149  149 149 149  149 149 149  149 149 149  149 149 149  149 149 149  149 149 149  149 149 149  149 149 149  149 149 149  149 149 149  149 149 149  149 149 149  149 149 149  149 149 149  149 149 149  149 149 149  149 149 149  149 149 149  149 149 149  149 149 149  149 149 149  149 149 149  149 149 149  149 149 149  149 149 149  149 149 149  149 149 149  149 149 149  149 149 149  149 149 149  149 149 149  149 149 149  149 149 149  149 149 149  149 149 149  149 149 149  149 149 149  149 149 149  149 149 149  149 149 149  149 149 149  149 149 149  149 149 149  149 149 149  149 149 149  149 149 149  149 149 149  149 149 149  149 149 149  149 149 149  149 149 149  149 149 149  149 149 149  149 149 149  149 149 149  149 149 149  149 149 149  149 149 149  149 149 149  149 149 149  149 149 149  149 149 149  149 149 149  149 149 149
149 149 149  149 149 149  149 149 149  149 149 149  149 149 149  149 149 149  149 149 149  149 149 149  149 149 149  149 149 149  149 149 149  149 149 149  149 149 149  149 149 149  149 149 149  149 149 149  149 149 149  149 149 149  149 149 149  149 149 149  149 149 149  149 149 149  149 149 149  149 149 149  149 149 149  149 149 149  149 149 149  149 149 149  149 149 149  149 149 149  149 149 149  149 149 149  149 149 149  149 149 149  149 149 149  149 149 149  149 149 149  149 149 149  149 149 149  149 149 149  149 149 149  149 149 149  149 149 149  149 149 149  149 149 149  149 149 149  149 149 149  149 149 149  149 149 149  149 149 149  149 149 149  149 149 149  149 149 149  149 149 149  149 149 149  149 149 149  149 149 149  149 149 149  149 149 149  149 149 149  149 149 149  149 149 149  149 149 149  149 149 149  149 149 149  149 149 149  149 149 149  149 149 149  149 149 149  149 149 149  149 149 149  149 149 149  149 149 149  149 149 149  149 149 149  149 149 149  149 149 149  149 149 149  149 149 149  149 149 149  149 149 149  149 149 149  149 149 149  149 149 149  149 149 149  149 149 149  149 149 149  149 149 149  149 149 149  149 149 149  149 149 149  149 149 149  149 149 149  149 149 149  149 149 149  149 149 149  149 149 149  149 149 149  149 149 149  149 149 149  149 149 149  149 149 149  149 149 149  149 149 149  149 149 149  149 149 149  149 149 149  105 27 19  113 30 21  117 31 22  120 32 23  122 33 24  124 34 25  126 35 25  128 35 26  129 36 26  131 36 26  132 37 27  134 37 27  135 38 28  136 38 28  137 38 28  138 39 28  139 39 29  140 39 29  141 40 29  142 40 29  143 40 30  143 41 30  144 41 30  145 41 30  146 41 30  146 42 31  147 42 31  147 42 31  148 42 31  149 42 31  149 43 32  150 43 32  150 43 32  151 43 32  151 43 32  152 44 32  152 44 33  153 45 33  153 45 35  154 47 37  155 49 40  157 53 44  158 58 50  161 64 57  164 72 66  168 81 75  173 90 85  178 99 95  183 108 104  188 116 112  192 122 119  195 126 123  197 129 126  197 129 126  196 127 124  194 123 120  190 117 114  186 111 107  182 103 99  178 95 90  174 88 83  171 81 76  168 76 70  167 72 65  166 69 62  165 66 59  164 64 57  163 63 55  163 61 53  162 59 51  161 57 49  161 55 46  160 53 44  159 52 42  159 50 40  158 49 38  158 47 37  158 47 36  157 46 35  157 46 34  157 45 34  156 45 34  156 45 34  156 45 33  156 45 33  155 45 33  155 45 33  154 44 33  154 44 33  154 44 33  153 44 33  153 44 32  152 44 32  152 43 32  151 43 32  150 43 32  150 43 32  149 42 31  148 42 31  147 42 31  146 42 31  145 41 30  144 41 30  142 40 29  140 39 29  134 37 27  149 149 149  149 149 149  149 149 149  149 149 149  149 149 149  149 149 149  149 149 149  149 149 149  149 149 149  149 149 149  149 149 149  149 149 149  149 149 149  149 149 149  149 149 149  149 149 149  149 149 149  149 149 149  149 149 149  149 149 149  149 149 149  149 149 149  149 149 149  149 149 149  149 149 149  149 149 149  149 149 149  149 149 149  149 149 149  149 149 149  149 149 149  149 149 149  149 149 149  149 149 149  149 149 149  149 149 149  149 149 149  149 149 149  149 149 149  149 149 149  149 149 149  149 149 149  149 149 149  149 149 149  149 149 149  149 149 149  149 149 149  149 149 149  149 149 149  149 149 149  149 149 149  149 149 149  149 149 149  149 149 149  149 149 149  149 149 149  149 149 149  149 149 149  149 149 149  149 149 149  149 149 149  149 149 149  149 149 149  149 149 149  149 149 149  149 149 149  149 149 149  149 149 149  149 149 149  149 149 149  149 149 149  149 149 149  149 149 149  149 149 149  149 149 149  149 149 149  149 149 149  149 149 149  149 149 149  149 149 149  149 149 149  149 149 149  149 149 149  149 149 149  149 149 149  149 149 149  149 149 149  149 149 149  149 149 149  149 149 149  149 149 149  149 149 149  149 149 149  149 149 149  149 149 149  149 149 149  149 149 149  149 149 149  149 149 149  149 149 149  149 149 149  149 149 149  149 149 149  149 149 149  149 149 149  149 149 149  149 149 149
149 149 149  149 149 149  149 149 149  149 149 149  149 149 149  149 149 149  149 149 149  149 149 149  149 149 149  149 149 149  149 149 149  149 149 149  149 149 149  149 149 149  149 149 149  149 149 149  149 149 149  149 149 149  149 149 149  149 149 149  149 149 149  149 149 149  149 149 149  149 149 149  149 149 149  149 149 149  149 149 149  149 149 149  149 149 149  149 149 149  149 149 149  149 149 149  149 149 149  149 149 149  149 149 149  149 149 149  149 149 149  149 149 149  149 149 149  149 149 149  149 149 149  149 149 149  149 149 149  149 149 149  149 149 149  149 149 149  149 149 149  149 149 149  149 149 149  149 149 149  149 149 149  149 149 149  149 149 149  149 149 149  149 149 149  149 149 149  149 149 149  149 149 149  149 149 149  149 149 149  149 149 149  149 149 149  149 149 149  149 149 149  149 149 149  149 149 149  149 149 149  149 149 149  149 149 149  149 149 149  149 149 149  149 149 149  149 149 149  149 149 149  149 149 149  149 149 149  149 149 149  149 149 149  149 149 149  149 149 149  149 149 149  149 149 149  149 149 149  149 149 149  149 149 149  149 149 149  149 149 149  149 149 149  149 149 149  149 149 149  149 149 149  149 149 149  149 149 149  149 149 149  149 149 149  149 149 149  149 149 149  149 149 149  149 149 149  149 149 149  149 149 149  149 149 149  149 149 149  149 149 149  149 149 149  149 149 149  149 149 149  108 28 20  113 30 21  117 31 22  119 32 23  122 33 24  124 34 24  126 34 25  127 35 25  129 36 26  130 36 26  132 37 27  133 37 27  134 37 27  135 38 28  136 38 28  137 39 28  138 39 29  139 39 29  140 39 29  141 40 29  142 40 29  143 40 30  143 41 30  144 41 30  145 41 30  146 41 30  146 42 31  147 42 31  147 42 31  148 42 31  149 42 31  149 43 31  150 43 32  150 43 32  151 43 32  151 43 32  152 44 33  152 44 33  153 45 34  153 47 36  154 49 39  156 53 44  158 57 49  160 64 56  163 71 65  167 79 74  172 88 83  177 97 93  181 106 102  186 113 109  190 119 116  193 123 120  195 126 122  195 126 122  194 124 120  191 120 116  188 114 110  184 107 103  179 99 95  175 91 87  171 84 78  168 76 70  166 70 64  164 66 58  163 62 54  162 60 51  161 58 49  161 56 47  160 55 46  160 54 44  159 52 43  159 51 41  158 50 40  158 49 38  158 48 37  157 47 36  157 46 35  157 46 35  156 46 34  156 45 34  156 45 34  156 45 33  155 45 33  155 45 33  155 45 33  155 44 33  154 44 33  154 44 33  153 44 33  153 44 33  153 44 32  152 44 32  152 43 32  151 43 32  151 43 32  150 43 32  149 43 32  148 42 31  148 42 31  147 42 31  146 41 31  145 41 30  143 41 30  142 40 29  140 39 29  136 38 28  149 149 149  149 149 149  149 149 149  149 149 149  149 149 149  149 149 149  149 149 149  149 149 149  149 149 149  149 149 149  149 149 149  149 149 149  149 149 149  149 149 149  149 149 149  149 149 149  149 149 149  149 149 149  149 149 149  149 149 149  149 149 149  149 149 149  149 149 149  149 149 149  149 149 149  149 149 149  149 149 149  149 149 149  149 149 149  149 149 149  149 149 149  149 149 149  149 149 149  149 149 149  149 149 149  149 149 149  149 149 149  149 149 149  149 149 149  149 149 149  149 149 149  149 149 149  149 149 149  149 149 149  149 149 149  149 149 149  149 149 149  149 149 149  149 149 149  149 149 149  149 149 149  149 149 149  149 149 149  149 149 149  149 149 149  149 149 149  149 149 149  149 149 149  149 149 149  149 149 149  149 149 149  149 149 149  149 149 149  149 149 149  149 149 149  149 149 149  149 149 149  149 149 149  149 149 149  149 149 149  149 149 149  149 149 149  149 149 149  149 149 149  149 149 149  149 149 149  149 149 149  149 149 149  149 149 149  149 149 149  149 149 149  149 149 149  149 149 149  149 149 149  149 149 149  149 149 149  149 149 149  149 149 149  149 149 149  149 149 149  149 149 149  149 149 149  149 149 149  149 149 149  149 149 149  149 149 149  149 149 149  149 149 149  149 149 149  149 149 149  149 149 149  149 149 149  149 149 149  149 149 149  149 149 149  149 149 149  149 149 149
149 149 149  149 149 149  149 149 149  149 149 149  149 149 149  149 149 149  149 149 149  149 149 149  149 149 149  149 149 149  149 149 149  149 149 149  149 149 149  149 149 149  149 149 149  149 149 149  149 149 149  149 149 149  149 149 149  149 149 149  149 149 149  149 149 149  149 149 149  149 149 149  149 149 149  149 149 149  149 149 149  149 149 149  149 149 149  149 149 149  149 149 149  149 149 149  149 149 149  149 149 149  149 149 149  149 149 149  149 149 149  149 149 149  149 149 149  149 149 149  149 149 149  149 149 149  149 149 149  149 149 149  149 149 149  149 149 149  149 149 149  149 149 149  149 149 149  149 149 149  149 149 149  149 149 149  149 149 149  149 149 149  149 149 149  149 149 149  149 149 149  149 149 149  149 149 149  149 149 149  149 149 149  149 149 149  149 149 149  149 149 149  149 149 149  149 149 149  149 149 149  149 149 149  149 149 149  149 149 149  149 149 149  149 149 149  149 149 149  149 149 149  149 149 149  149 149 149  149 149 149  149 149 149  149 149 149  149 149 149  149 149 149  149 149 149  149 149 149  149 149 149  149 149 149  149 149 149  149 149 149  149 149 149  149 149 149  149 149 149  149 149 149  149 149 149  149 149 149  149 149 149  149 149 149  149 149 149  149 149 149  149 149 149  149 149 149  149 149 149  149 149 149  149 149 149  149 149 149  149 149 149  149 149 149  149 149 149  149 149 149  108 29 20  113 30 21  116 31 22  119 32 23  121 33 24  123 34 24  125 34 25  127 35 25  128 35 26  130 36 26  131 36 26  132 37 27  134 37 27  135 38 27  136 38 28  137 38 28  138 39 28  139 39 29  140 39 29  140 40 29  141 40 29  142 40 30  143 40 30  143 41 30  144 41 30  145 41 30  145 41 30  146 41 31  147 42 31  147 42 31  148 42 31  148 42 31  149 42 31  149 43 32  150 43 32  150 43 32  151 43 32  151 44 33  152 45 34  153 46 36  154 48 38  155 51 42  156 56 48  159 61 54  162 68 62  165 76 70  169 84 79  173 92 88  178 100 96  182 107 103  186 113 109  188 117 113  190 119 115  190 119 115  189 117 113  186 113 109  183 108 104  180 101 97  176 94 89  172 86 81  168 78 73  165 72 65  163 66 58  162 61 53  160 57 49  159 55 46  159 53 43  159 52 42  158 51 41  158 50 40  158 49 39  157 48 38  157 48 37  157 47 36  157 46 35  156 46 35  156 46 34  156 45 34  156 45 34  156 45 33  155 45 33  155 45 33  155 45 33  155 44 33  154 44 33  154 44 33  154 44 33  153 44 33  153 44 33  152 44 32  152 44 32  152 43 32  151 43 32  151 43 32  150 43 32  149 43 32  149 42 31  148 42 31  147 42 31  146 42 31  145 41 30  144 41 30  143 40 30  141 40 29  140 39 29  137 38 28  149 149 149  149 149 149  149 149 149  149 149 149  149 149 149  149 149 149  149 149 149  149 149 149  149 149 149  149 149 149  149 149 149  149 149 149  149 149 149  149 149 149  149 149 149  149 149 149  149 149 149  149 149 149  149 149 149  149 149 149  149 149 149  149 149 149  149 149 149  149 149 149  149 149 149  149 149 149  149 149 149  149 149 149  149 149 149  149 149 149  149 149 149  149 149 149  149 149 149  149 149 149  149 149 149  149 149 149  149 149 149  149 149 149  149 149 149  149 149 149  149 149 149  149 149 149  149 149 149  149 149 149  149 149 149  149 149 149  149 149 149  149 149 149  149 149 149  149 149 149  149 149 149  149 149 149  149 149 149  149 149 149  149 149 149  149 149 149  149 149 149  149 149 149  149 149 149  149 149 149  149 149 149  149 149 149  149 149 149  149 149 149  149 149 149  149 149 149  149 149 149  149 149 149  149 149 149  149 149 149  149 149 149  149 149 149  149 149 149  149 149 149  149 149 149  149 149 149  149 149 149  149 149 149  149 149 149  149 149 149  149 149 149  149 149 149  149 149 149  149 149 149  149 149 149  149 149 149  149 149 149  149 149 149  149 149 149  149 149 149  149 149 149  149 149 149  149 149 149  149 149 149  149 149 149  149 149 149  149 149 149  149 149 149  149 149 149  149 149 149  149 149 149  149 149 149  149 149 149  149 149 149  149 149 149  149 149 149  149 149 149
149 149 149  149 149 149  149 149 149  149 149 149  149 149 149  149 149 149  149 149 149  149 149 149  149 149 149  149 149 149  149 149 149  149 149 149  149 149 149  149 149 149  149 149 149  149 149 149  149 149 149  149 149 149  149 149 149  149 149 149  149 149 149  149 149 149  149 149 149  149 149 149  149 149 149  149 149 149  149 149 149  149 149 149  149 149 149  149 149 149  149 149 149  149 149 149  149 149 149  149 149 149  149 149 149  149 149 149  149 149 149  149 149 149  149 149 149  149 149 149  149 149 149  149 149 149  149 149 149  149 149 149  149 149 149  149 149 149  149 149 149  149 149 149  149 149 149  149 149 149  149 149 149  149 149 149  149 149 149  149 149 149  149 149 149  149 149 149  149 149 149  149 149 149  149 149 149  149 149 149  149 149 149  149 149 149  149 149 149  149 149 149  149 149 149  149 149 149  149 149 149  149 149 149  149 149 149  149 149 149  149 149 149  149 149 149  149 149 149  149 149 149  149 149 149  149 149 149  149 149 149  149 149 149  149 149 149  149 149 149  149 149 149  149 149 149  149 149 149  149 149 149  149 149 149  149 149 149  149 149 149  149 149 149  149 149 149  149 149 149  149 149 149  149 149 149  149 149 149  149 149 149  149 149 149  149 149 149  149 149 149  149 149 149  149 149 149  149 149 149  149 149 149  149 149 149  149 149 149  149 149 149  149 149 149  149 149 149  104 27 19  109 29 20  113 30 21  116 31 22  118 32 23  121 33 24  123 33 24  124 34 25  126 35 25  128 35 26  129 36 26  130 36 26  132 37 27  133 37 27  134 37 27  135 38 28  136 38 28  137 38 28  138 39 28  139 39 29  140 39 29  140 40 29  141 40 29  142 40 30  143 40 30  143 41 30  144 41 30  145 41 30  145 41 30  146 41 31  146 42 31  147 42 31  148 42 31  148 42 31  149 42 31  149 43 32  150 43 32  150 43 32  150 44 33  151 44 34  152 45 35  153 47 37  154 50 41  155 54 45  157 58 51  159 64 57  162 71 65  166 78 73  169 86 81  173 93 88  177 99 94  180 104 100  182 107 103  183 109 105  183 109 105  182 107 103  180 104 100  178 99 95  175 93 89  171 86 81  168 79 74  165 73 66  163 66 59  161 61 53  159 57 48  158 53 44  158 51 42  157 50 40  157 49 38  157 48 37  157 47 37  156 47 36  156 46 35  156 46 35  156 46 35  156 45 34  156 45 34  155 45 34  155 45 33  155 45 33  155 45 33  155 44 33  154 44 33  154 44 33  154 44 33  154 44 33  153 44 33  153 44 33  153 44 32  152 44 32  152 43 32  151 43 32  151 43 32  150 43 32  150 43 32  149 43 32  149 42 31  148 42 31  147 42 31  147 42 31  146 41 31  145 41 30  144 41 30  142 40 30  141 40 29  139 39 29  137 38 28  131 36 27  149 149 149  149 149 149  149 149 149  149 149 149  149 149 149  149 149 149  149 149 149  149 149 149  149 149 149  149 149 149  149 149 149  149 149 149  149 149 149  149 149 149  149 149 149  149 149 149  149 149 149  149 149 149  149 149 149  149 149 149  149 149 149  149 149 149  149 149 149  149 149 149  149 149 149  149 149 149  149 149 149  149 149 149  149 149 149  149 149 149  149 149 149  149 149 149  149 149 149  149 149 149  149 149 149  149 149 149  149 149 149  149 149 149  149 149 149  149 149 149  149 149 149  149 149 149  149 149 149  149 149 149  149 149 149  149 149 149  149 149 149  149 149 149  149 149 149  149 149 149  149 149 149  149 149 149  149 149 149  149 149 149  149 149 149  149 149 149  149 149 149  149 149 149  149 149 149  149 149 149  149 149 149  149 149 149  149 149 149  149 149 149  149 149 149  149 149 149  149 149 149  149 149 149  149 149 149  149 149 149  149 149 149  149 149 149  149 149 149  149 149 149  149 149 149  149 149 149  149 149 149  149 149 149  149 149 149  149 149 149  149 149 149  149 149 149  149 149 149  149 149 149  149 149 149  149 149 149  149 149 149  149 149 149  149 149 149  149 149 149  149 149 149  149 149 149  149 149 149  149 149 149  149 149 149  149 149 149  149 149 149  149 149 149  149 149 149  149 149 149  149 149 149  149 149 149  149 149 149  149 149 149  149 149 149  149 149 149
149 149 149  149 149 149  149 149 149  149 149 149  149 149 149  149 149 149  149 149 149  149 149 149  149 149 149  149 149 149  149 149 149  149 149 149  149 149 149  149 149 149  149 149 149  149 149 149  149 149 149  149 149 149  149 149 149  149 149 149  149 149 149  149 149 149  149 149 149  149 149 149  149 149 149  149 149 149  149 149 149  149 149 149  149 149 149  149 149 149  149 149 149  149 149 149  149 149 149  149 149 149  149 149 149  149 149 149  149 149 149  149 149 149  149 149 149  149 149 149  149 149 149  149 149 149  149 149 149  149 149 149  149 149 149  149 149 149  149 149 149  149 149 149  149 149 149  149 149 149  149 149 149  149 149 149  149 149 149  149 149 149  149 149 149  149 149 149  149 149 149  149 149 149  149 149 149  149 149 149  149 149 149  149 149 149  149 149 149  149 149 149  149 149 149  149 149 149  149 149 149  149 149 149  149 149 149  149 149 149  149 149 149  149 149 149  149 149 149  149 149 149  149 149 149  149 149 149  149 149 149  149 149 149  149 149 149  149 149 149  149 149 149  149 149 149  149 149 149  150 150 150  150 150 150  150 150 150  150 150 150  150 150 150  150 150 150  150 150 150  150 150 150  150 150 150  150 150 150  150 150 150  150 150 150  150 150 150  150 150 150  150 150 150  150 150 150  150 150 150  150 150 150  150 150 150  150 150 150  150 150 150  150 150 150  150 150 150  106 28 20  109 29 20  112 30 21  115 31 22  118 32 23  120 33 23  122 33 24  124 34 24  125 34 25  127 35 25  128 35 26  130 36 26  131 36 26  132 37 27  133 37 27  134 37 27  135 38 28  136 38 28  137 38 28  138 39 28  139 39 29  140 39 29  140 40 29  141 40 29  142 40 29  143 40 30  143 41 30  144 41 30  145 41 30  145 41 30  146 41 31  146 42 31  147 42 31  147 42 31  148 42 31  148 42 31  149 43 32  149 43 32  150 43 32  150 44 33  151 45 34  152 46 36  152 48 39  154 51 42  155 55 47  157 60 52  159 65 59  162 71 65  165 77 72  168 83 78  171 89 84  173 93 88  175 96 91  176 97 93  176 97 93  175 96 92  174 93 88  172 89 84  169 84 79  167 78 72  164 72 66  162 66 60  160 61 54  159 57 48  158 53 44  157 51 41  156 49 39  156 48 37  156 47 36  156 46 35  156 46 35  155 46 34  155 45 34  155 45 34  155 45 34  155 45 33  155 45 33  155 45 33  154 44 33  154 44 33  154 44 33  154 44 33  154 44 33  153 44 33  153 44 33  153 44 33  153 44 32  152 44 32  152 43 32  152 43 32  151 43 32  151 43 32  150 43 32  150 43 32  149 43 32  149 42 31  148 42 31  147 42 31  147 42 31  146 41 31  145 41 30  144 41 30  143 40 30  142 40 30  141 40 29  139 39 29  137 38 28  133 37 27  150 150 150  150 150 150  150 150 150  150 150 150  150 150 150  150 150 150  150 150 150  150 150 150  150 150 150  150 150 150  150 150 150  150 150 150  150 150 150  150 150 150  150 150 150  150 150 150  150 150 150  150 150 150  150 150 150  150 150 150  150 150 150  150 150 150  150 150 150  149 149 149  149 149 149  149 149 149  149 149 149  149 149 149  149 149 149  149 149 149  149 149 149  149 149 149  149 149 149  149 149 149  149 149 149  149 149 149  149 149 149  149 149 149  149 149 149  149 149 149  149 149 149  149 149 149  149 149 149  149 149 149  149 149 149  149 149 149  149 149 149  149 149 149  149 149 149  149 149 149  149 149 149  149 149 149  149 149 149  149 149 149  149 149 149  149 149 149  149 149 149  149 149 149  149 149 149  149 149 149  149 149 149  149 149 149  149 149 149  149 149 149  149 149 149  149 149 149  149 149 149  149 149 149  149 149 149  149 149 149  149 149 149  149 149 149  149 149 149  149 149 149  149 149 149  149 149 149  149 149 149  149 149 149  149 149 149  149 149 149  149 149 149  149 149 149  149 149 149  149 149 149  149 149 149  149 149 149  149 149 149  149 149 149  149 149 149  149 149 149  149 149 149  149 149 149  149 149 149  149 149 149  149 149 149  149 149 149  149 149 149  149 149 149  149 149 149  149 149 149  149 149 149  149 149 149  149 149 149  149 149 149  149 149 149  149 149 149
149 149 149  149 149 149  149 149 149  149 149 149  149 149 149  149 149 149  149 149 149  149 149 149  149 149 149  149 149 149  149 149 149  149 149 149  149 149 149  149 149 149  149 149 149  149 149 149  149 149 149  149 149 149  149 149 149  149 149 149  149 149 149  149 149 149  149 149 149  149 149 149  149 149 149  149 149 149  149 149 149  149 149 149  149 149 149  149 149 149  149 149 149  149 149 149  149 149 149  149 149 149  149 149 149  149 149 149  149 149 149  149 149 149  149 149 149  149 149 149  149 149 149  149 149 149  149 149 149  149 149 149  149 149 149  149 149 149  149 149 149  149 149 149  149 149 149  149 149 149  149 149 149  149 149 149  149 149 149  149 149 149  149 149 149  149 149 149  149 149 149  149 149 149  149 149 149  149 149 149  149 149 149  150 150 150  150 150 150  150 150 150  150 150 150  150 150 150  150 150 150  150 150 150  150 150 150  150 150 150  150 150 150  150 150 150  150 150 150  150 150 150  150 150 150  150 150 150  150 150 150  150 150 150  150 150 150  150 150 150  150 150 150  150 150 150  150 150 150  150 150 150  150 150 150  150 150 150  150 150 150  150 150 150  150 150 150  150 150 150  150 150 150  150 150 150  150 150 150  150 150 150  150 150 150  150 150 150  150 150 150  150 150 150  150 150 150  150 150 150  150 150 150  150 150 150  150 150 150  150 150 150  150 150 150  150 150 150  106 28 20  109 29 20  112 30 21  115 31 22  117 32 23  119 32 23  121 33 24  123 34 24  125 34 25  126 35 25  127 35 26  129 36 26  130 36 26  131 36 27  132 37 27  133 37 27  134 37 27  135 38 28  136 38 28  137 38 28  138 39 28  139 39 29  140 39 29  140 40 29  141 40 29  142 40 29  142 40 30  143 40 30  144 41 30  144 41 30  145 41 30  145 41 30  146 41 31  146 42 31  147 42 31  147 42 31  148 42 31  148 42 31  149 43 32  149 43 32  150 44 33  150 45 35  151 47 36  152 49 39  153 52 43  155 55 47  156 59 52  158 64 57  161 69 63  163 74 68  165 78 72  167 81 76  168 84 79  169 85 80  169 85 80  168 84 79  167 82 76  166 78 73  164 74 68  163 70 63  161 65 58  159 60 53  158 56 48  157 53 44  156 50 41  156 48 38  155 47 36  155 46 35  155 46 34  155 45 34  155 45 34  155 45 34  154 45 33  154 45 33  154 44 33  154 44 33  154 44 33  154 44 33  154 44 33  153 44 33  153 44 33  153 44 33  153 44 33  153 44 32  152 44 32  152 44 32  152 43 32  151 43 32  151 43 32  151 43 32  150 43 32  150 43 32  150 43 32  149 43 31  149 42 31  148 42 31  147 42 31  147 42 31  146 41 31  145 41 30  144 41 30  144 41 30  143 40 30  141 40 29  140 39 29  138 39 29  136 38 28  133 37 27  150 150 150  150 150 150  150 150 150  150 150 150  150 150 150  150 150 150  150 150 150  150 150 150  150 150 150  150 150 150  150 150 150  150 150 150  150 150 150  150 150 150  150 150 150  150 150 150  150 150 150  150 150 150  150 150 150  150 150 150  150 150 150  150 150 150  150 150 150  150 150 150  150 150 150  150 150 150  150 150 150  150 150 150  150 150 150  150 150 150  150 150 150  150 150 150  150 150 150  150 150 150  150 150 150  150 150 150  150 150 150  150 150 150  150 150 150  150 150 150  150 150 150  150 150 150  150 150 150  150 150 150  150 150 150  149 149 149  149 149 149  149 149 149  149 149 149  149 149 149  149 149 149  149 149 149  149 149 149  149 149 149  149 149 149  149 149 149  149 149 149  149 149 149  149 149 149  149 149 149  149 149 149  149 149 149  149 149 149  149 149 149  149 149 149  149 149 149  149 149 149  149 149 149  149 149 149  149 149 149  149 149 149  149 149 149  149 149 149  149 149 149  149 149 149  149 149 149  149 149 149  149 149 149  149 149 149  149 149 149  149 149 149  149 149 149  149 149 149  149 149 149  149 149 149  149 149 149  149 149 149  149 149 149  149 149 149  149 149 149  149 149 149  149 149 149  149 149 149  149 149 149  149 149 149  149 149 149  149 149 149  149 149 149  149 149 149  149 149 149  149 149 149  149 149 149  149 149 149  149 149 149  149 149 149  149 149 149
149 149 149  149 149 149  149 149 149  149 149 149  149 149 149  149 149 149  149 149 149  149 149 149  149 149 149  149 149 149  149 149 149  149 149 149  149 149 149  149 149 149  149 149 149  149 149 149  149 149 149  149 149 149  149 149 149  149 149 149  149 149 149  149 149 149  149 149 149  149 149 149  149 149 149  149 149 149  149 149 149  149 149 149  149 149 149  149 149 149  149 149 149  149 149 149  149 149 149  149 149 149  149 149 149  149 149 149  149 149 149  149 149 149  149 149 149  149 149 149  149 149 149  149 149 149  149 149 149  150 150 150  150 150 150  150 150 150  150 150 150  150 150 150  150 150 150  150 150 150  150 150 150  150 150 150  150 150 150  150 150 150  150 150 150  150 150 150  150 150 150  150 150 150  150 150 150  150 150 150  150 150 150  150 150 150  150 150 150  150 150 150  150 150 150  150 150 150  150 150 150  150 150 150  150 150 150  150 150 150  108 51 133  108 51 133  109 51 133  109 51 133  109 51 133  109 51 133  109 51 133  109 51 133  109 51 133  109 51 133  109 51 133  109 51 133  109 51 133  109 51 133  109 51 133  109 51 133  109 51 133  109 51 133  109 51 134  150 150 150  150 150 150  150 150 150  150 150 150  150 150 150  150 150 150  150 150 150  150 150 150  150 150 150  150 150 150  150 150 150  150 150 150  150 150 150  150 150 150  150 150 150  150 150 150  150 150 150  107 28 20  109 29 20  111 29 21  114 30 22  116 31 22  118 32 23  120 33 24  122 33 24  124 34 24  125 34 25  127 35 25  128 35 26  129 36 26  130 36 26  131 36 27  133 37 27  134 37 27  135 38 27  135 38 28  136 38 28  137 38 28  138 39 28  139 39 29  140 39 29  140 39 29  141 40 29  142 40 29  142 40 30  143 40 30  143 41 30  144 41 30  145 41 30  145 41 30  146 41 31  146 42 31  147 42 31  147 42 31  148 42 31  148 42 31  148 43 32  149 43 32  149 44 33  150 45 35  151 47 37  152 49 39  153 51 42  154 54 46  155 58 50  157 61 54  158 65 58  160 68 61  161 70 64  162 72 66  163 73 68  163 73 68  163 72 67  162 71 65  161 68 62  160 65 58  159 62 54  158 58 50  157 55 47  156 52 43  155 50 40  155 48 38  154 47 36  154 46 35  154 45 34  154 45 34  154 45 33  154 44 33  154 44 33  154 44 33  153 44 33  153 44 33  153 44 33  153 44 33  153 44 33  153 44 33  153 44 32  153 44 32  152 44 32  152 44 32  152 43 32  152 43 32  151 43 32  151 43 32  151 43 32  150 43 32  150 43 32  150 43 32  149 43 32  149 42 31  148 42 31  148 42 31  147 42 31  147 42 31  146 41 31  145 41 30  145 41 30  144 41 30  143 40 30  142 40 29  141 40 29  139 39 29  138 39 28  136 38 28  133 37 27  150 150 150  150 150 150  150 150 150  150 150 150  150 150 150  150 150 150  150 150 150  150 150 150  150 150 150  150 150 150  150 150 150  150 150 150  150 150 150  150 150 150  150 150 150  150 150 150  150 150 150  150 150 150  150 150 150  150 150 150  150 150 150  150 150 150  150 150 150  150 150 150  150 150 150  150 150 150  150 150 150  150 150 150  150 150 150  150 150 150  150 150 150  150 150 150  150 150 150  150 150 150  150 150 150  150 150 150  150 150 150  150 150 150  150 150 150  150 150 150  150 150 150  150 150 150  150 150 150  150 150 150  150 150 150  150 150 150  150 150 150  150 150 150  150 150 150  150 150 150  150 150 150  150 150 150  150 150 150  150 150 150  150 150 150  150 150 150  150 150 150  150 150 150  150 150 150  150 150 150  150 150 150  150 150 150  150 150 150  149 149 149  149 149 149  149 149 149  149 149 149  149 149 149  149 149 149  149 149 149  149 149 149  149 149 149  149 149 149  149 149 149  149 149 149  149 149 149  149 149 149  149 149 149  149 149 149  149 149 149  149 149 149  149 149 149  149 149 149  149 149 149  149 149 149  149 149 149  149 149 149  149 149 149  149 149 149  149 149 149  149 149 149  149 149 149  149 149 149  149 149 149  149 149 149  149 149 149  149 149 149  149 149 149  149 149 149  149 149 149  149 149 149  149 149 149  149 149 149  149 149 149  149 149 149  149 149 149
149 149 149  149 149 149  149 149 149  149 149 149  149 149 149  149 149 149  149 149 149  149 149 149  149 149 149  149 149 149  149 149 149  149 149 149  149 149 149  149 149 149  149 149 149  149 149 149  149 149 149  149 149 149  149 149 149  149 149 149  149 149 149  149 149 149  149 149 149  149 149 149  149 149 149  149 149 149  149 149 149  150 150 150  150 150 150  150 150 150  150 150 150  150 150 150  150 150 150  150 150 150  150 150 150  150 150 150  150 150 150  150 150 150  150 150 150  150 150 150  150 150 150  150 150 150  150 150 150  150 150 150  150 150 150  150 150 150  150 150 150  150 150 150  150 150 150  150 150 150  150 150 150  150 150 150  150 150 150  150 150 150  150 150 150  150 150 150  150 150 150  150 150 150  150 150 150  150 150 150  150 150 150  150 150 150  150 150 150  150 150 150  150 150 150  108 50 132  108 50 132  108 50 132  108 50 132  108 51 132  108 51 133  108 51 133  108 51 133  108 51 133  108 51 133  109 51 133  109 51 133  109 51 133  109 51 133  109 51 133  109 51 133  109 51 133  109 51 133  109 51 133  109 51 133  109 51 133  109 51 133  109 51 133  109 51 133  109 51 133  109 51 133  109 51 134  109 51 134  109 51 134  150 150 150  150 150 150  150 150 150  150 150 150  150 150 150  150 150 150  150 150 150  150 150 150  150 150 150  150 150 150  150 150 150  150 150 150  107 28 20  109 29 20  110 29 21  113 30 22  115 31 22  118 32 23  120 32 23  121 33 24  123 33 24  124 34 25  126 34 25  127 35 25  128 35 26  129 36 26  131 36 26  132 37 27  133 37 27  134 37 27  135 38 27  135 38 28  136 38 28  137 38 28  138 39 28  139 39 29  139 39 29  140 39 29  141 40 29  141 40 29  142 40 30  143 40 30  143 40 30  144 41 30  144 41 30  145 41 30  145 41 30  146 41 31  146 42 31  147 42 31  147 42 31  148 42 31  148 43 32  148 43 32  149 44 33  150 45 34  150 46 36  151 48 38  152 50 41  153 52 43  154 54 46  155 57 49  156 59 52  157 61 54  157 62 55  158 63 56  158 63 56  158 63 55  158 61 54  157 59 52  156 57 49  156 55 47  155 53 44  155 51 41  154 49 39  154 47 37  153 46 36  153 45 34  153 45 34  153 44 33  153 44 33  153 44 33  153 44 33  153 44 33  153 44 33  153 44 33  153 44 32  152 44 32  152 44 32  152 44 32  152 44 32  152 44 32  152 43 32  152 43 32  151 43 32  151 43 32  151 43 32  151 43 32  150 43 32  150 43 32  150 43 32  149 43 32  149 42 31  148 42 31  148 42 31  148 42 31  147 42 31  146 42 31  146 41 31  145 41 30  145 41 30  144 41 30  143 40 30  142 40 30  141 40 29  140 39 29  139 39 29  137 38 28  135 38 28  133 37 27  150 150 150  150 150 150  150 150 150  150 150 150  150 150 150  150 150 150  150 150 150  150 150 150  150 150 150  150 150 150  150 150 150  150 150 150  150 150 150  150 150 150  150 150 150  150 150 150  150 150 150  150 150 150  150 150 150  150 150 150  150 150 150  150 150 150  150 150 150  150 150 150  150 150 150  150 150 150  150 150 150  150 150 150  150 150 150  150 150 150  150 150 150  150 150 150  150 150 150  150 150 150  150 150 150  150 150 150  150 150 150  150 150 150  150 150 150  150 150 150  150 150 150  150 150 150  150 150 150  150 150 150  150 150 150  150 150 150  150 150 150  150 150 150  150 150 150  150 150 150  150 150 150  150 150 150  150 150 150  150 150 150  150 150 150  150 150 150  150 150 150  150 150 150  150 150 150  150 150 150  150 150 150  150 150 150  150 150 150  150 150 150  150 150 150  150 150 150  150 150 150  150 150 150  150 150 150  150 150 150  150 150 150  150 150 150  150 150 150  150 150 150  150 150 150  150 150 150  150 150 150  150 150 150  150 150 150  150 150 150  149 149 149  149 149 149  149 149 149  149 149 149  149 149 149  149 149 149  149 149 149  149 149 149  149 149 149  149 149 149  149 149 149  149 149 149  149 149 149  149 149 149  149 149 149  149 149 149  149 149 149  149 149 149  149 149 149  149 149 149  149 149 149  149 149 149  149 149 149  149 149 149  149 149 149  149 149 149
149 149 149  149 149 149  149 149 149  149 149 149  149 149 149  149 149 149  149 149 149  149 149 149  149 149 149  149 149 149  149 149 149  149 149 149  150 150 150  150 150 150  150 150 150  150 150 150  150 150 150  150 150 150  150 150 150  150 150 150  150 150 150  150 150 150  150 150 150  150 150 150  150 150 150  150 150 150  150 150 150  150 150 150  150 150 150  150 150 150  150 150 150  150 150 150  150 150 150  150 150 150  150 150 150  150 150 150  150 150 150  150 150 150  150 150 150  150 150 150  150 150 150  150 150 150  150 150 150  150 150 150  150 150 150  150 150 150  150 150 150  150 150 150  150 150 150  150 150 150  150 150 150  150 150 150  150 150 150  150 150 150  150 150 150  150 150 150  150 150 150  150 150 150  150 150 150  150 150 150  150 150 150  108 50 132  108 50 132  108 50 132  108 50 132  108 50 132  108 50 132  108 50 132  108 50 132  108 50 132  108 50 132  108 51 132  108 51 133  108 51 133  108 51 133  108 51 133  108 51 133  108 51 133  109 51 133  109 51 133  109 51 133  109 51 133  109 51 133  109 51 133  109 51 133  109 51 133  109 51 133  109 51 133  109 51 133  109 51 133  109 51 133  109 51 133  109 51 133  109 51 133  109 51 133  109 51 134  109 51 134  109 51 134  150 150 150  150 150 150  150 150 150  150 150 150  150 150 150  150 150 150  150 150 150  150 150 150  107 28 20  109 29 20  110 29 21  112 30 21  115 31 22  117 31 23  119 32 23  120 33 24  122 33 24  123 34 24  125 34 25  126 35 25  127 35 25  129 35 26  130 36 26  131 36 26  132 37 27  133 37 27  134 37 27  134 38 27  135 38 28  136 38 28  137 38 28  138 39 28  138 39 29  139 39 29  140 39 29  140 40 29  141 40 29  142 40 29  142 40 30  143 40 30  143 41 30  144 41 30  144 41 30  145 41 30  145 41 30  146 41 31  146 42 31  147 42 31  147 42 31  147 42 32  148 43 32  148 43 33  149 44 34  149 45 35  150 47 37  151 48 38  151 49 40  152 51 42  153 52 44  153 54 45  154 55 46  154 55 47  154 55 47  154 55 47  154 54 46  154 53 44  154 51 43  153 50 41  153 49 39  153 47 37  153 46 36  152 45 35  152 45 34  152 44 33  152 44 33  152 44 33  152 44 33  152 44 32  152 44 32  152 44 32  152 44 32  152 43 32  152 43 32  152 43 32  151 43 32  151 43 32  151 43 32  151 43 32  151 43 32  151 43 32  150 43 32  150 43 32  150 43 32  150 43 32  149 43 32  149 43 31  149 42 31  148 42 31  148 42 31  148 42 31  147 42 31  147 42 31  146 42 31  146 41 31  145 41 30  144 41 30  144 41 30  143 40 30  142 40 30  141 40 29  140 40 29  139 39 29  138 39 28  137 38 28  135 38 28  132 37 27  150 150 150  150 150 150  150 150 150  150 150 150  150 150 150  150 150 150  150 150 150  150 150 150  150 150 150  150 150 150  150 150 150  150 150 150  150 150 150  150 150 150  150 150 150  150 150 150  150 150 150  150 150 150  150 150 150  150 150 150  150 150 150  150 150 150  150 150 150  150 150 150  150 150 150  150 150 150  150 150 150  150 150 150  150 150 150  150 150 150  150 150 150  150 150 150  150 150 150  150 150 150  150 150 150  150 150 150  150 150 150  150 150 150  150 150 150  150 150 150  150 150 150  150 150 150  150 150 150  150 150 150  150 150 150  150 150 150  150 150 150  150 150 150  150 150 150  150 150 150  150 150 150  150 150 150  150 150 150  150 150 150  150 150 150  150 150 150  150 150 150  150 150 150  150 150 150  150 150 150  150 150 150  150 150 150  150 150 150  150 150 150  150 150 150  150 150 150  150 150 150  150 150 150  150 150 150  150 150 150  150 150 150  150 150 150  150 150 150  150 150 150  150 150 150  150 150 150  150 150 150  150 150 150  150 150 150  150 150 150  150 150 150  150 150 150  150 150 150  150 150 150  150 150 150  150 150 150  150 150 150  150 150 150  150 150 150  150 150 150  150 150 150  150 150 150  150 150 150  150 150 150  149 149 149  149 149 149  149 149 149  149 149 149  149 149 149  149 149 149  149 149 149  149 149 149  149 149 149  149 149 149  149 149 149  149 149 149
150 150 150  150 150 150  150 150 150  150 150 150  150 150 150  150 150 150  150 150 150  150 150 150  150 150 150  150 150 150  150 150 150  150 150 150  150 150 150  150 150 150  150 150 150  150 150 150  150 150 150  150 150 150  150 150 150  150 150 150  150 150 150  150 150 150  150 150 150  150 150 150  150 150 150  150 150 150  150 150 150  150 150 150  150 150 150  150 150 150  150 150 150  150 150 150  150 150 150  150 150 150  150 150 150  150 150 150  150 150 150  150 150 150  150 150 150  150 150 150  150 150 150  150 150 150  150 150 150  150 150 150  150 150 150  150 150 150  150 150 150  150 150 150  150 150 150  150 150 150  150 150 150  150 150 150  150 150 150  150 150 150  150 150 150  150 150 150  150 150 150  150 150 150  108 50 132  108 50 132  108 50 132  108 50 132  108 50 132  108 50 132  108 50 132  108 50 132  108 50 132  108 50 132  108 50 132  108 50 132  108 50 132  108 50 132  108 50 132  108 50 132  108 51 132  108 51 133  108 51 133  108 51 133  108 51 133  108 51 133  108 51 133  109 51 133  109 51 133  109 51 133  109 51 133  109 51 133  109 51 133  109 51 133  109 51 133  109 51 133  109 51 133  109 51 133  109 51 133  109 51 133  109 51 133  109 51 133  109 51 133  109 51 133  109 51 133  109 51 134  109 51 134  150 150 150  150 150 150  150 150 150  150 150 150  103 27 19  107 28 20  109 29 20  110 29 21  111 30 21  114 30 22  116 31 22  118 32 23  119 32 23  121 33 24  122 33 24  124 34 24  125 34 25  126 35 25  128 35 26  129 35 26  130 36 26  131 36 26  132 37 27  133 37 27  134 37 27  134 37 27  135 38 28  136 38 28  137 38 28  137 39 28  138 39 28  139 39 29  139 39 29  140 39 29  141 40 29  141 40 29  142 40 29  142 40 30  143 40 30  143 41 30  144 41 30  144 41 30  145 41 30  145 41 30  146 41 31  146 42 31  146 42 31  147 42 31  147 43 32  148 43 32  148 44 33  149 44 34  149 45 35  150 46 36  150 47 37  151 48 38  151 48 39  151 49 40  152 49 40  152 49 40  152 49 40  152 49 39  152 48 39  152 47 38  152 47 37  152 46 36  151 45 35  151 45 34  151 44 33  151 44 33  151 44 33  151 43 32  151 43 32  151 43 32  151 43 32  151 43 32  151 43 32  151 43 32  151 43 32  151 43 32  151 43 32  151 43 32  150 43 32  150 43 32  150 43 32  150 43 32  150 43 32  150 43 32  149 43 32  149 43 31  149 42 31  149 42 31  148 42 31  148 42 31  148 42 31  147 42 31  147 42 31  146 42 31  146 41 31  145 41 30  145 41 30  144 41 30  144 41 30  143 40 30  142 40 30  141 40 29  141 40 29  140 39 29  138 39 29  137 38 28  136 38 28  134 37 27  132 36 27  127 35 25  150 150 150  150 150 150  150 150 150  150 150 150  150 150 150  150 150 150  150 150 150  150 150 150  150 150 150  150 150 150  150 150 150  150 150 150  150 150 150  150 150 150  150 150 150  150 150 150  150 150 150  150 150 150  150 150 150  150 150 150  150 150 150  150 150 150  150 150 150  150 150 150  150 150 150  150 150 150  150 150 150  150 150 150  150 150 150  150 150 150  150 150 150  150 150 150  150 150 150  150 150 150  150 150 150  150 150 150  150 150 150  150 150 150  150 150 150  150 150 150  150 150 150  150 150 150  150 150 150  150 150 150  150 150 150  150 150 150  150 150 150  150 150 150  150 150 150  150 150 150  150 150 150  150 150 150  150 150 150  150 150 150  150 150 150  150 150 150  150 150 150  150 150 150  150 150 150  150 150 150  150 150 150  150 150 150  150 150 150  150 150 150  150 150 150  150 150 150  150 150 150  150 150 150  150 150 150  150 150 150  150 150 150  150 150 150  150 150 150  150 150 150  150 150 150  150 150 150  150 150 150  150 150 150  150 150 150  150 150 150  150 150 150  150 150 150  150 150 150  150 150 150  150 150 150  150 150 150  150 150 150  150 150 150  150 150 150  150 150 150  150 150 150  150 150 150  150 150 150  150 150 150  150 150 150  150 150 150  150 150 150  150 150 150  150 150 150  150 150 150  150 150 150  150 150 150  150 150 150  150 150 150  150 150 150
150 150 150  150 150 150  150 150 150  150 150 150  150 150 150  150 150 150  150 150 150  150 150 150  150 150 150  150 150 150  150 150 150  150 150 150  150 150 150  150 150 150  150 150 150  150 150 150  150 150 150  150 150 150  150 150 150  150 150 150  150 150 150  150 150 150  150 150 150  150 150 150  150 150 150  150 150 150  150 150 150  150 150 150  150 150 150  150 150 150  150 150 150  150 150 150  150 150 150  150 150 150  150 150 150  150 150 150  150 150 150  150 150 150  150 150 150  150 150 150  150 150 150  150 150 150  150 150 150  150 150 150  150 150 150  150 150 150  150 150 150  150 150 150  150 150 150  150 150 150  150 150 150  150 150 150  150 150 150  150 150 150  150 150 150  150 150 150  107 50 131  107 50 131  107 50 132  108 50 132  108 50 132  108 50 132  108 50 132  108 50 132  108 50 132  108 50 132  108 50 132  108 50 132  108 50 132  108 50 132  108 50 132  108 50 132  108 50 132  108 50 132  108 50 132  108 50 132  108 50 132  108 51 132  108 51 133  108 51 133  108 51 133  108 51 133  108 51 133  108 51 133  109 51 133  109 51 133  109 51 133  109 51 133  109 51 133  109 51 133  109 51 133  109 51 133  109 51 133  109 51 133  109 51 133  109 51 133  109 51 133  109 51 133  109 51 133  109 51 133  109 51 133  109 51 133  109 51 133  150 150 150  150 150 150  103 27 19  106 28 20  108 28 20  110 29 21  111 29 21  112 30 21  115 31 22  116 31 22  118 32 23  120 32 23  121 33 24  123 33 24  124 34 25  125 34 25  126 35 25  128 35 26  129 36 26  130 36 26  131 36 26  132 37 27  133 37 27  133 37 27  134 37 27  135 38 28  136 38 28  136 38 28  137 38 28  138 39 28  139 39 29  139 39 29  140 39 29  140 40 29  141 40 29  141 40 29  142 40 30  142 40 30  143 40 30  143 41 30  144 41 30  144 41 30  145 41 30  145 41 30  145 41 31  146 42 31  146 42 31  147 42 31  147 42 32  147 43 32  148 43 33  148 44 33  149 44 34  149 45 35  149 45 35  149 46 36  150 46 36  150 46 36  150 46 36  150 46 35  150 45 35  150 45 35  150 45 34  150 44 34  150 44 33  150 44 33  150 43 32  150 43 32  150 43 32  150 43 32  150 43 32  150 43 32  150 43 32  150 43 32  150 43 32  150 43 32  150 43 32  150 43 32  150 43 32  150 43 32  150 43 32  149 43 32  149 43 32  149 43 31  149 42 31  149 42 31  148 42 31  148 42 31  148 42 31  148 42 31  147 42 31  147 42 31  147 42 31  146 42 31  146 41 31  145 41 30  145 41 30  144 41 30  144 41 30  143 41 30  143 40 30  142 40 30  141 40 29  141 40 29  140 39 29  139 39 29  138 39 28  136 38 28  135 38 28  133 37 27  131 36 26  126 35 25  150 150 150  150 150 150  150 150 150  150 150 150  150 150 150  150 150 150  150 150 150  150 150 150  150 150 150  150 150 150  150 150 150  150 150 150  150 150 150  150 150 150  150 150 150  150 150 150  150 150 150  150 150 150  150 150 150  150 150 150  150 150 150  150 150 150  150 150 150  150 150 150  150 150 150  150 150 150  150 150 150  150 150 150  150 150 150  150 150 150  150 150 150  150 150 150  150 150 150  150 150 150  150 150 150  150 150 150  150 150 150  150 150 150  150 150 150  150 150 150  150 150 150  150 150 150  150 150 150  150 150 150  150 150 150  150 150 150  150 150 150  150 150 150  150 150 150  150 150 150  150 150 150  150 150 150  150 150 150  150 150 150  150 150 150  150 150 150  150 150 150  150 150 150  150 150 150  150 150 150  150 150 150  150 150 150  150 150 150  150 150 150  150 150 150  150 150 150  150 150 150  150 150 150  150 150 150  150 150 150  150 150 150  150 150 150  150 150 150  150 150 150  150 150 150  150 150 150  150 150 150  150 150 150  150 150 150  150 150 150  150 150 150  150 150 150  150 150 150  150 150 150  150 150 150  150 150 150  150 150 150  150 150 150  150 150 150  150 150 150  150 150 150  150 150 150  150 150 150  150 150 150  150 150 150  150 150 150  150 150 150  150 150 150  150 150 150  150 150 150  150 150 150  150 150 150  150 150 150  150 150 150  150 150 150
150 150 150  150 150 150  150 150 150  150 150 150  150 150 150  150 150 150  150 150 150  150 150 150  150 150 150  150 150 150  150 150 150  150 150 150  150 150 150  150 150 150  150 150 150  150 150 150  150 150 150  150 150 150  150 150 150  150 150 150  150 150 150  150 150 150  150 150 150  150 150 150  150 150 150  150 150 150  150 150 150  150 150 150  150 150 150  150 150 150  150 150 150  150 150 150  150 150 150  150 150 150  150 150 150  150 150 150  150 150 150  150 150 150  150 150 150  150 150 150  150 150 150  150 150 150  150 150 150  150 150 150  150 150 150  150 150 150  150 150 150  150 150 150  150 150 150  150 150 150  150 150 150  150 150 150  150 150 150  150 150 150  107 50 131  107 50 131  107 50 131  107 50 131  107 50 131  107 50 131  107 50 132  108 50 132  108 50 132  108 50 132  108 50 132  108 50 132  108 50 132  108 50 132  108 50 132  108 50 132  108 50 132  108 50 132  108 50 132  108 50 132  108 50 132  108 50 132  108 50 132  108 50 132  108 50 132  108 50 132  108 51 132  108 51 132  108 51 133  108 51 133  108 51 133  108 51 133  108 51 133  109 51 133  109 51 133  109 51 133  109 51 133  109 51 133  109 51 133  109 51 133  109 51 133  109 51 133  109 51 133  109 51 133  109 51 133  109 51 133  109 51 133  109 51 133  109 51 133  109 51 133  109 51 133  103 27 19  106 28 20  108 28 20  109 29 21  111 29 21  112 30 21  113 30 22  115 31 22  117 31 23  119 32 23  120 33 23  122 33 24  123 34 24  124 34 25  125 34 25  127 35 25  128 35 26  129 35 26  130 36 26  131 36 26  131 36 27  132 37 27  133 37 27  134 37 27  135 38 28  135 38 28  136 38 28  137 38 28  138 39 28  138 39 28  139 39 29  139 39 29  140 39 29  140 40 29  141 40 29  141 40 29  142 40 30  142 40 30  143 40 30  143 41 30  144 41 30  144 41 30  144 41 30  145 41 30  145 41 31  146 42 31  146 42 31  146 42 31  147 42 32  147 43 32  147 43 32  148 43 33  148 43 33  148 43 33  148 44 33  148 44 33  149 44 33  149 44 33  149 44 33  149 43 33  149 43 32  149 43 32  149 43 32  149 43 32  149 43 32  149 43 32  149 43 32  149 43 32  149 43 32  149 43 32  149 43 32  149 43 32  149 43 32  149 43 32  149 43 31  149 43 31  149 42 31  149 42 31  149 42 31  149 42 31  148 42 31  148 42 31  148 42 31  148 42 31  148 42 31  147 42 31  147 42 31  147 42 31  146 42 31  146 42 31  146 41 31  145 41 30  145 41 30  145 41 30  144 41 30  144 41 30  143 40 30  142 40 30  142 40 29  141 40 29  140 40 29  140 39 29  139 39 29  138 39 28  137 38 28  135 38 28  134 37 27  132 37 27  130 36 26  126 34 25  150 150 150  150 150 150  150 150 150  150 150 150  150 150 150  150 150 150  150 150 150  150 150 150  150 150 150  150 150 150  150 150 150  150 150 150  150 150 150  150 150 150  150 150 150  150 150 150  150 150 150  150 150 150  150 150 150  150 150 150  150 150 150  150 150 150  150 150 150  150 150 150  150 150 150  150 150 150  150 150 150  150 150 150  150 150 150  150 150 150  150 150 150  150 150 150  150 150 150  150 150 150  150 150 150  150 150 150  150 150 150  150 150 150  150 150 150  150 150 150  150 150 150  150 150 150  150 150 150  150 150 150  150 150 150  150 150 150  150 150 150  150 150 150  150 150 150  150 150 150  150 150 150  150 150 150  150 150 150  150 150 150  150 150 150  150 150 150  150 150 150  150 150 150  150 150 150  150 150 150  150 150 150  150 150 150  150 150 150  150 150 150  150 150 150  150 150 150  150 150 150  150 150 150  150 150 150  150 150 150  150 150 150  150 150 150  150 150 150  150 150 150  150 150 150  150 150 150  150 150 150  150 150 150  150 150 150  150 150 150  150 150 150  150 150 150  150 150 150  150 150 150  150 150 150  150 150 150  150 150 150  150 150 150  150 150 150  150 150 150  150 150 150  150 150 150  150 150 150  150 150 150  150 150 150  150 150 150  150 150 150  150 150 150  150 150 150  150 150 150  150 150 150  150 150 150  150 150 150  150 150 150  150 150 150
150 150 150  150 150 150  150 150 150  150 150 150  150 150 150  150 150 150  150 150 150  150 150 150  150 150 150  150 150 150  150 150 150  150 150 150  150 150 150  150 150 150  150 150 150  150 150 150  150 150 150  150 150 150  150 150 150  150 150 150  150 150 150  150 150 150  150 150 150  150 150 150  150 150 150  150 150 150  150 150 150  150 150 150  150 150 150  150 150 150  150 150 150  150 150 150  150 150 150  150 150 150  150 150 150  150 150 150  150 150 150  150 150 150  150 150 150  150 150 150  150 150 150  150 150 150  150 150 150  150 150 150  150 150 150  150 150 150  150 150 150  150 150 150  150 150 150  150 150 150  150 150 150  150 150 150  107 50 131  107 50 131  107 50 131  107 50 131  107 50 131  107 50 131  107 50 131  107 50 131  107 50 131  107 50 131  107 50 131  107 50 132  108 50 132  108 50 132  108 50 132  108 50 132  108 50 132  108 50 132  108 50 132  108 50 132  108 50 132  108 50 132  108 50 132  108 50 132  108 50 132  108 50 132  108 50 132  108 50 132  108 50 132  108 50 132  108 50 132  108 50 132  108 51 132  108 51 133  108 51 133  108 51 133  108 51 133  108 51 133  108 51 133  109 51 133  109 51 133  109 51 133  109 51 133  109 51 133  109 51 133  109 51 133  109 51 133  109 51 133  109 51 133  109 51 133  109 51 133  109 51 133  109 51 133  109 51 133  109 51 133  108 28 20  109 29 20  110 29 21  111 30 21  112 30 21  114 30 22  116 31 22  117 32 23  119 32 23  120 33 24  122 33 24  123 34 24  124 34 25  125 34 25  127 35 25  128 35 26  129 35 26  129 36 26  130 36 26  131 36 27  132 37 27  133 37 27  134 37 27  134 37 27  135 38 28  136 38 28  136 38 28  137 38 28  138 39 28  138 39 28  139 39 29  139 39 29  140 39 29  140 40 29  141 40 29  141 40 29  142 40 29  142 40 30  143 40 30  143 40 30  143 41 30  144 41 30  144 41 30  145 41 30  145 41 30  145 41 31  146 42 31  146 42 31  146 42 31  146 42 31  147 42 31  147 42 32  147 42 32  147 42 32  147 42 32  148 43 32  148 42 32  148 42 32  148 42 32  148 42 32  148 42 31  148 42 31  148 42 31  148 42 31  148 42 31  148 42 31  148 42 31  148 42 31  148 42 31  148 42 31  148 42 31  148 42 31  148 42 31  148 42 31  148 42 31  148 42 31  148 42 31  148 42 31  147 42 31  147 42 31  147 42 31  147 42 31  147 42 31  146 42 31  146 42 31  146 41 31  145 41 30  145 41 30  145 41 30  144 41 30  144 41 30  144 41 30  143 40 30  143 40 30  142 40 30  141 40 29  141 40 29  140 39 29  139 39 29  139 39 29  138 39 28  137 38 28  136 38 28  134 37 27  133 37 27  131 36 27  129 36 26  125 34 25  151 151 151  151 151 151  151 151 151  151 151 151  151 151 151  151 151 151  151 151 151  151 151 151  151 151 151  151 151 151  151 151 151  151 151 151  151 151 151  151 151 151  151 151 151  151 151 151  151 151 151  151 151 151  151 151 151  150 150 150  150 150 150  150 150 150  150 150 150  150 150 150  150 150 150  150 150 150  150 150 150  150 150 150  150 150 150  150 150 150  150 150 150  150 150 150  150 150 150  150 150 150  150 150 150  150 150 150  150 150 150  150 150 150  150 150 150  150 150 150  150 150 150  150 150 150  150 150 150  150 150 150  150 150 150  150 150 150  150 150 150  150 150 150  150 150 150  150 150 150  150 150 150  150 150 150  150 150 150  150 150 150  150 150 150  150 150 150  150 150 150  150 150 150  150 150 150  150 150 150  150 150 150  150 150 150  150 150 150  150 150 150  150 150 150  150 150 150  150 150 150  150 150 150  150 150 150  150 150 150  150 150 150  150 150 150  150 150 150  150 150 150  150 150 150  150 150 150  150 150 150  150 150 150  150 150 150  150 150 150  150 150 150  150 150 150  150 150 150  150 150 150  150 150 150  150 150 150  150 150 150  150 150 150  150 150 150  150 150 150  150 150 150  150 150 150  150 150 150  150 150 150  150 150 150  150 150 150  150 150 150  150 150 150  150 150 150  150 150 150  150 150 150  150 150 150  150 150 150  150 150 150  150 150 150
150 150 150  150 150 150  150 150 150  150 150 150  150 150 150  150 150 150  150 150 150  150 150 150  150 150 150  150 150 150  150 150 150  150 150 150  150 150 150  150 150 150  150 150 150  150 150 150  150 150 150  150 150 150  150 150 150  150 150 150  150 150 150  150 150 150  150 150 150  150 150 150  150 150 150  150 150 150  150 150 150  150 150 150  150 150 150  150 150 150  150 150 150  150 150 150  150 150 150  150 150 150  150 150 150  150 150 150  150 150 150  150 150 150  150 150 150  150 150 150  150 150 150  150 150 150  150 150 150  150 150 150  150 150 150  150 150 150  150 150 150  150 150 150  150 150 150  150 150 150  107 50 131  107 50 131  107 50 131  107 50 131  107 50 131  107 50 131  107 50 131  107 50 131  107 50 131  107 50 131  107 50 131  107 50 131  107 50 131  107 50 131  107 50 131  107 50 131  107 50 132  108 50 132  108 50 132  108 50 132  108 50 132  108 50 132  108 50 132  108 50 132  108 50 132  108 50 132  108 50 132  108 50 132  108 50 132  108 50 132  108 50 132  108 50 132  108 50 132  108 50 132  108 50 132  108 50 132  108 50 132  108 51 132  108 51 133  108 51 133  108 51 133  108 51 133  108 51 133  108 51 133  108 51 133  109 51 133  109 51 133  109 51 133  109 51 133  109 51 133  109 51 133  109 51 133  109 51 133  109 51 133  109 51 133  109 51 133  109 51 133  109 51 133  109 51 133  110 29 21  111 29 21  112 30 21  113 30 21  115 31 22  116 31 22  118 32 23  119 32 23  121 33 24  122 33 24  123 34 24  124 34 25  125 34 25  126 35 25  127 35 25  128 35 26  129 36 26  130 36 26  131 36 26  132 37 27  133 37 27  133 37 27  134 37 27  135 38 28  135 38 28  136 38 28  137 38 28  137 38 28  138 39 28  138 39 29  139 39 29  139 39 29  140 39 29  140 40 29  141 40 29  141 40 29  142 40 29  142 40 30  142 40 30  143 40 30  143 41 30  144 41 30  144 41 30  144 41 30  144 41 30  145 41 30  145 41 31  145 41 31  145 41 31  146 42 31  146 42 31  146 42 31  146 42 31  146 42 31  147 42 31  147 42 31  147 42 31  147 42 31  147 42 31  147 42 31  147 42 31  147 42 31  147 42 31  147 42 31  147 42 31  147 42 31  147 42 31  147 42 31  147 42 31  147 42 31  147 42 31  147 42 31  147 42 31  147 42 31  147 42 31  147 42 31  146 42 31  146 42 31  146 41 31  146 41 31  146 41 31  145 41 30  145 41 30  145 41 30  145 41 30  144 41 30  144 41 30  143 41 30  143 40 30  143 40 30  142 40 30  142 40 29  141 40 29  141 40 29  140 39 29  139 39 29  138 39 29  138 39 28  137 38 28  136 38 28  135 38 27  133 37 27  132 37 27  130 36 26  128 35 26  124 34 24  151 151 151  151 151 151  151 151 151  151 151 151  151 151 151  151 151 151  151 151 151  151 151 151  151 151 151  151 151 151  151 151 151  120 98 27  121 99 28  122 100 28  123 101 28  124 101 28  124 102 29  124 102 29  124 102 29  151 151 151  151 151 151  151 151 151  151 151 151  151 151 151  151 151 151  151 151 151  151 151 151  151 151 151  151 151 151  151 151 151  151 151 151  151 151 151  151 151 151  151 151 151  151 151 151  151 151 151  151 151 151  151 151 151  150 150 150  150 150 150  150 150 150  150 150 150  150 150 150  150 150 150  150 150 150  150 150 150  150 150 150  150 150 150  150 150 150  150 150 150  150 150 150  150 150 150  150 150 150  150 150 150  150 150 150  150 150 150  150 150 150  150 150 150  150 150 150  150 150 150  150 150 150  150 150 150  150 150 150  150 150 150  150 150 150  150 150 150  150 150 150  150 150 150  150 150 150  150 150 150  150 150 150  150 150 150  150 150 150  150 150 150  150 150 150  150 150 150  150 150 150  150 150 150  150 150 150  150 150 150  150 150 150  150 150 150  150 150 150  150 150 150  150 150 150  150 150 150  150 150 150  150 150 150  150 150 150  150 150 150  150 150 150  150 150 150  150 150 150  150 150 150  150 150 150  150 150 150  150 150 150  150 150 150  150 150 150  150 150 150  150 150 150  150 150 150  150 150 150  150 150 150  150 150 150
150 150 150  150 150 150  150 150 150  150 150 150  150 150 150  150 150 150  150 150 150  150 150 150  150 150 150  150 150 150  150 150 150  150 150 150  150 150 150  150 150 150  150 150 150  150 150 150  150 150 150  150 150 150  150 150 150  150 150 150  150 150 150  150 150 150  150 150 150  150 150 150  150 150 150  150 150 150  150 150 150  150 150 150  150 150 150  150 150 150  150 150 150  150 150 150  150 150 150  150 150 150  150 150 150  150 150 150  150 150 150  150 150 150  150 150 150  150 150 150  150 150 150  150 150 150  150 150 150  150 150 150  150 150 150  150 150 150  150 150 150  150 150 150  150 150 150  107 50 131  107 50 131  107 50 131  107 50 131  107 50 131  107 50 131  107 50 131  107 50 131  107 50 131  107 50 131  107 50 131  107 50 131  107 50 131  107 50 131  107 50 131  107 50 131  107 50 131  107 50 131  107 50 131  107 50 131  107 50 132  108 50 132  108 50 132  108 50 132  108 50 132  108 50 132  108 50 132  108 50 132  108 50 132  108 50 132  108 50 132  108 50 132  108 50 132  108 50 132  108 50 132  108 50 132  108 50 132  108 50 132  108 50 132  108 50 132  108 50 132  108 50 132  108 51 132  108 51 133  108 51 133  108 51 133  108 51 133  108 51 133  108 51 133  108 51 133  109 51 133  109 51 133  109 51 133  109 51 133  109 51 133  109 51 133  109 51 133  109 51 133  109 51 133  109 51 133  109 51 133  109 51 133  112 30 21  113 30 21  113 30 22  115 31 22  116 31 22  118 32 23  119 32 23  121 33 24  122 33 24  123 34 24  124 34 25  125 34 25  126 35 25  127 35 25  128 35 26  129 36 26  130 36 26  131 36 26  131 36 27  132 37 27  133 37 27  134 37 27  134 37 27  135 38 28  136 38 28  136 38 28  137 38 28  137 38 28  138 39 28  138 39 28  139 39 29  139 39 29  140 39 29  140 39 29  141 40 29  141 40 29  141 40 29  142 40 29  142 40 30  142 40 30  143 40 30  143 40 30  143 41 30  144 41 30  144 41 30  144 41 30  144 41 30  145 41 30  145 41 30  145 41 30  145 41 31  145 41 31  146 41 31  146 41 31  146 41 31  146 41 31  146 41 31  146 42 31  146 42 31  146 42 31  146 42 31  146 42 31  146 42 31  146 42 31  146 42 31  146 42 31  146 42 31  146 42 31  146 42 31  146 41 31  146 41 31  146 41 31  146 41 31  146 41 31  145 41 30  145 41 30  145 41 30  145 41 30  145 41 30  144 41 30  144 41 30  144 41 30  144 41 30  143 40 30  143 40 30  142 40 30  142 40 30  142 40 29  141 40 29  141 40 29  140 39 29  139 39 29  139 39 29  138 39 28  137 39 28  137 38 28  136 38 28  135 38 28  134 37 27  132 37 27  131 36 26  129 36 26  126 35 25  123 33 24  151 151 151  151 151 151  151 151 151  151 151 151  151 151 151  151 151 151  151 151 151  151 151 151  114 93 25  116 95 26  117 96 26  119 97 27  120 98 27  121 99 28  122 100 28  123 101 28  124 101 28  124 102 29  125 102 29  125 102 29  124 101 28  151 151 151  151 151 151  151 151 151  151 151 151  151 151 151  151 151 151  151 151 151  151 151 151  151 151 151  151 151 151  151 151 151  151 151 151  151 151 151  151 151 151  151 151 151  151 151 151  151 151 151  151 151 151  151 151 151  151 151 151  151 151 151  151 151 151  151 151 151  151 151 151  151 151 151  151 151 151  151 151 151  151 151 151  151 151 151  151 151 151  151 151 151  151 151 151  151 151 151  150 150 150  150 150 150  150 150 150  150 150 150  150 150 150  150 150 150  150 150 150  150 150 150  150 150 150  150 150 150  150 150 150  150 150 150  150 150 150  150 150 150  150 150 150  150 150 150  150 150 150  150 150 150  150 150 150  150 150 150  150 150 150  150 150 150  150 150 150  150 150 150  150 150 150  150 150 150  150 150 150  150 150 150  150 150 150  150 150 150  150 150 150  150 150 150  150 150 150  150 150 150  150 150 150  150 150 150  150 150 150  150 150 150  150 150 150  150 150 150  150 150 150  150 150 150  150 150 150  150 150 150  150 150 150  150 150 150  150 150 150  150 150 150  150 150 150  150 150 150  150 150 150
150 150 150  150 150 150  150 150 150  150 150 150  150 150 150  150 150 150  150 150 150  150 150 150  150 150 150  150 150 150  150 150 150  150 150 150  150 150 150  150 150 150  150 150 150  150 150 150  150 150 150  150 150 150  150 150 150  150 150 150  150 150 150  150 150 150  150 150 150  150 150 150  150 150 150  150 150 150  150 150 150  150 150 150  150 150 150  150 150 150  150 150 150  150 150 150  150 150 150  150 150 150  150 150 150  150 150 150  150 150 150  151 151 151  151 151 151  151 151 151  151 151 151  151 151 151  151 151 151  151 151 151  151 151 151  151 151 151  151 151 151  107 50 130  107 50 130  107 50 130  107 50 130  107 50 131  107 50 131  107 50 131  107 50 131  107 50 131  107 50 131  107 50 131  107 50 131  107 50 131  107 50 131  107 50 131  107 50 131  107 50 131  107 50 131  107 50 131  107 50 131  107 50 131  107 50 131  107 50 131  107 50 131  107 50 131  107 50 132  108 50 132  108 50 132  108 50 132  108 50 132  108 50 132  108 50 132  108 50 132  108 50 132  108 50 132  108 50 132  108 50 132  108 50 132  108 50 132  108 50 132  108 50 132  108 50 132  108 50 132  108 50 132  108 50 132  108 50 132  108 50 132  108 50 132  108 51 132  108 51 133  108 51 133  108 51 133  108 51 133  108 51 133  108 51 133  108 51 133  109 51 133  109 51 133  109 51 133  109 51 133  109 51 133  109 51 133  109 51 133  109 51 133  109 51 133  112 30 21  113 30 21  114 30 22  115 31 22  117 31 22  118 32 23  119 32 23  121 33 24  122 33 24  123 33 24  124 34 25  125 34 25  126 35 25  127 35 25  128 35 26  129 35 26  129 36 26  130 36 26  131 36 26  132 37 27  132 37 27  133 37 27  134 37 27  134 37 27  135 38 28  136 38 28  136 38 28  137 38 28  137 38 28  138 39 28  138 39 28  139 39 29  139 39 29  139 39 29  140 39 29  140 40 29  141 40 29  141 40 29  141 40 29  142 40 29  142 40 30  142 40 30  143 40 30  143 40 30  143 40 30  143 41 30  144 41 30  144 41 30  144 41 30  144 41 30  144 41 30  144 41 30  145 41 30  145 41 30  145 41 30  145 41 30  145 41 30  145 41 30  145 41 30  145 41 30  145 41 30  145 41 30  145 41 30  145 41 30  145 41 30  145 41 30  145 41 30  145 41 30  145 41 30  145 41 30  145 41 30  145 41 30  145 41 30  144 41 30  144 41 30  144 41 30  144 41 30  144 41 30  143 41 30  143 40 30  143 40 30  142 40 30  142 40 30  142 40 29  141 40 29  141 40 29  141 40 29  140 39 29  140 39 29  139 39 29  138 39 29  138 39 28  137 38 28  136 38 28  135 38 28  135 38 27  134 37 27  132 37 27  131 36 27  130 36 26  128 35 26  125 34 25  151 151 151  151 151 151  151 151 151  151 151 151  151 151 151  151 151 151  151 151 151  108 88 24  110 90 24  112 92 25  114 93 26  116 95 26  118 96 27  119 97 27  120 98 27  122 99 28  123 100 28  123 101 28  124 102 29  125 102 29  125 102 29  125 102 29  124 102 29  122 100 28  151 151 151  151 151 151  151 151 151  151 151 151  151 151 151  151 151 151  151 151 151  151 151 151  151 151 151  151 151 151  151 151 151  151 151 151  151 151 151  151 151 151  151 151 151  151 151 151  151 151 151  151 151 151  151 151 151  151 151 151  151 151 151  151 151 151  151 151 151  151 151 151  151 151 151  151 151 151  151 151 151  151 151 151  151 151 151  151 151 151  151 151 151  151 151 151  151 151 151  151 151 151  151 151 151  151 151 151  151 151 151  151 151 151  151 151 151  151 151 151  151 151 151  151 151 151  151 151 151  151 151 151  151 151 151  150 150 150  150 150 150  150 150 150  150 150 150  150 150 150  150 150 150  150 150 150  150 150 150  150 150 150  150 150 150  150 150 150  150 150 150  150 150 150  150 150 150  150 150 150  150 150 150  150 150 150  150 150 150  150 150 150  150 150 150  150 150 150  150 150 150  150 150 150  150 150 150  150 150 150  150 150 150  150 150 150  150 150 150  150 150 150  150 150 150  150 150 150  150 150 150  150 150 150  150 150 150  150 150 150  150 150 150  150 150 150
150 150 150  150 150 150  150 150 150  150 150 150  150 150 150  150 150 150  150 150 150  150 150 150  150 150 150  150 150 150  150 150 150  150 150 150  150 150 150  150 150 150  150 150 150  150 150 150  150 150 150  150 150 150  150 150 150  150 150 150  150 150 150  150 150 150  150 150 150  150 150 150  151 151 151  151 151 151  151 151 151  151 151 151  151 151 151  151 151 151  151 151 151  151 151 151  151 151 151  151 151 151  151 151 151  151 151 151  151 151 151  151 151 151  151 151 151  151 151 151  151 151 151  151 151 151  151 151 151  151 151 151  151 151 151  151 151 151  106 50 130  106 50 130  106 50 130  106 50 130  107 50 130  107 50 130  107 50 130  107 50 131  107 50 131  107 50 131  107 50 131  107 50 131  107 50 131  107 50 131  107 50 131  107 50 131  107 50 131  107 50 131  107 50 131  107 50 131  107 50 131  107 50 131  107 50 131  107 50 131  107 50 131  107 50 131  107 50 131  107 50 131  107 50 131  107 50 132  108 50 132  108 50 132  108 50 132  108 50 132  108 50 132  108 50 132  108 50 132  108 50 132  108 50 132  108 50 132  108 50 132  108 50 132  108 50 132  108 50 132  108 50 132  108 50 132  108 50 132  108 50 132  108 50 132  108 50 132  108 50 132  108 50 132  108 50 132  108 51 132  108 51 133  108 51 133  108 51 133  108 51 133  108 51 133  108 51 133  108 51 133  108 51 133  109 51 133  109 51 133  109 51 133  109 51 133  109 51 133  109 51 133  113 30 22  114 30 22  115 31 22  117 31 22  118 32 23  119 32 23  120 33 24  122 33 24  123 33 24  124 34 24  125 34 25  126 34 25  127 35 25  127 35 25  128 35 26  129 36 26  130 36 26  131 36 26  131 36 27  132 37 27  133 37 27  133 37 27  134 37 27  134 37 27  135 38 28  136 38 28  136 38 28  137 38 28  137 38 28  137 39 28  138 39 28  138 39 29  139 39 29  139 39 29  140 39 29  140 39 29  140 39 29  141 40 29  141 40 29  141 40 29  141 40 29  142 40 29  142 40 30  142 40 30  142 40 30  143 40 30  143 40 30  143 40 30  143 41 30  143 41 30  144 41 30  144 41 30  144 41 30  144 41 30  144 41 30  144 41 30  144 41 30  144 41 30  144 41 30  144 41 30  144 41 30  144 41 30  144 41 30  144 41 30  144 41 30  144 41 30  144 41 30  144 41 30  144 41 30  144 41 30  143 41 30  143 41 30  143 40 30  143 40 30  143 40 30  143 40 30  142 40 30  142 40 30  142 40 29  141 40 29  141 40 29  141 40 29  140 40 29  140 39 29  139 39 29  139 39 29  138 39 29  138 39 28  137 38 28  137 38 28  136 38 28  135 38 28  134 37 27  133 37 27  132 37 27  131 36 27  130 36 26  128 35 26  126 35 25  124 34 24  151 151 151  151 151 151  151 151 151  151 151 151  151 151 151  151 151 151  103 84 22  106 86 23  108 88 24  111 90 24  113 92 25  115 94 26  116 95 26  118 96 27  119 98 27  121 99 27  122 100 28  123 100 28  124 101 28  124 102 29  125 102 29  125 102 29  125 102 29  125 102 29  123 101 28  151 151 151  151 151 151  151 151 151  151 151 151  151 151 151  151 151 151  151 151 151  151 151 151  151 151 151  151 151 151  151 151 151  151 151 151  151 151 151  151 151 151  151 151 151  151 151 151  151 151 151  151 151 151  151 151 151  151 151 151  151 151 151  151 151 151  151 151 151  151 151 151  151 151 151  151 151 151  151 151 151  151 151 151  151 151 151  151 151 151  151 151 151  151 151 151  151 151 151  151 151 151  151 151 151  151 151 151  151 151 151  151 151 151  151 151 151  151 151 151  151 151 151  151 151 151  151 151 151  151 151 151  151 151 151  151 151 151  151 151 151  151 151 151  151 151 151  151 151 151  151 151 151  151 151 151  151 151 151  151 151 151  151 151 151  151 151 151  151 151 151  150 150 150  150 150 150  150 150 150  150 150 150  150 150 150  150 150 150  150 150 150  150 150 150  150 150 150  150 150 150  150 150 150  150 150 150  150 150 150  150 150 150  150 150 150  150 150 150  150 150 150  150 150 150  150 150 150  150 150 150  150 150 150  150 150 150  150 150 150  150 150 150
150 150 150  150 150 150  150 150 150  150 150 150  150 150 150  150 150 150  150 150 150  150 150 150  150 150 150  150 150 150  150 150 150  150 150 150  150 150 150  151 151 151  151 151 151  151 151 151  151 151 151  151 151 151  151 151 151  151 151 151  151 151 151  151 151 151  151 151 151  151 151 151  151 151 151  151 151 151  151 151 151  151 151 151  151 151 151  151 151 151  151 151 151  151 151 151  151 151 151  151 151 151  151 151 151  151 151 151  151 151 151  151 151 151  151 151 151  151 151 151  151 151 151  151 151 151  151 151 151  151 151 151  151 151 151  106 49 130  106 49 130  106 49 130  106 49 130  106 50 130  106 50 130  106 50 130  107 50 130  107 50 130  107 50 130  107 50 130  107 50 131  107 50 131  107 50 131  107 50 131  107 50 131  107 50 131  107 50 131  107 50 131  107 50 131  107 50 131  107 50 131  107 50 131  107 50 131  107 50 131  107 50 131  107 50 131  107 50 131  107 50 131  107 50 131  107 50 131  107 50 131  107 50 131  107 50 132  108 50 132  108 50 132  108 50 132  108 50 132  108 50 132  108 50 132  108 50 132  108 50 132  108 50 132  108 50 132  108 50 132  108 50 132  108 50 132  108 50 132  108 50 132  108 50 132  108 50 132  108 50 132  108 50 132  108 50 132  108 50 132  108 50 132  108 50 132  108 50 132  108 51 132  108 51 132  108 51 133  108 51 133  108 51 133  108 51 133  108 51 133  108 51 133  108 51 133  108 51 133  109 51 133  109 51 133  113 30 22  114 30 22  115 31 22  117 31 22  118 32 23  119 32 23  120 33 23  121 33 24  122 33 24  123 34 24  124 34 25  125 34 25  126 35 25  127 35 25  128 35 26  129 35 26  129 36 26  130 36 26  131 36 26  131 36 27  132 37 27  133 37 27  133 37 27  134 37 27  134 37 27  135 38 28  135 38 28  136 38 28  136 38 28  137 38 28  137 38 28  138 39 28  138 39 28  138 39 29  139 39 29  139 39 29  139 39 29  140 39 29  140 39 29  140 40 29  141 40 29  141 40 29  141 40 29  141 40 29  142 40 29  142 40 29  142 40 30  142 40 30  142 40 30  142 40 30  143 40 30  143 40 30  143 40 30  143 40 30  143 40 30  143 40 30  143 40 30  143 40 30  143 40 30  143 40 30  143 40 30  143 40 30  143 40 30  143 40 30  143 40 30  143 40 30  143 40 30  143 40 30  143 40 30  142 40 30  142 40 30  142 40 30  142 40 29  142 40 29  141 40 29  141 40 29  141 40 29  141 40 29  140 39 29  140 39 29  140 39 29  139 39 29  139 39 29  138 39 29  138 39 28  137 38 28  137 38 28  136 38 28  135 38 28  135 38 28  134 37 27  133 37 27  132 37 27  131 36 27  130 36 26  129 35 26  127 35 25  125 34 25  122 33 24  151 151 151  151 151 151  151 151 151  151 151 151  151 151 151  97 79 20  101 82 21  104 84 22  106 87 23  109 89 24  111 91 24  113 92 25  115 94 26  116 95 26  118 97 27  119 98 27  121 99 27  122 100 28  123 101 28  124 101 28  124 102 29  125 102 29  125 103 29  125 103 29  125 102 29  124 101 28  151 151 151  151 151 151  151 151 151  151 151 151  151 151 151  151 151 151  151 151 151  151 151 151  151 151 151  151 151 151  151 151 151  151 151 151  151 151 151  151 151 151  151 151 151  151 151 151  151 151 151  151 151 151  151 151 151  151 151 151  151 151 151  151 151 151  151 151 151  151 151 151  151 151 151  151 151 151  151 151 151  151 151 151  151 151 151  151 151 151  151 151 151  151 151 151  151 151 151  151 151 151  151 151 151  151 151 151  151 151 151  151 151 151  151 151 151  151 151 151  151 151 151  151 151 151  151 151 151  151 151 151  151 151 151  151 151 151  151 151 151  151 151 151  151 151 151  151 151 151  151 151 151  151 151 151  151 151 151  151 151 151  151 151 151  151 151 151  151 151 151  151 151 151  151 151 151  151 151 151  151 151 151  151 151 151  151 151 151  151 151 151  151 151 151  151 151 151  151 151 151  151 151 151  150 150 150  150 150 150  150 150 150  150 150 150  150 150 150  150 150 150  150 150 150  150 150 150  150 150 150  150 150 150  150 150 150  150 150 150
150 150 150  150 150 150  151 151 151  151 151 151  151 151 151  151 151 151  151 151 151  151 151 151  151 151 151  151 151 151  151 151 151  151 151 151  151 151 151  151 151 151  151 151 151  151 151 151  151 151 151  151 151 151  151 151 151  151 151 151  151 151 151  151 151 151  151 151 151  151 151 151  151 151 151  151 151 151  151 151 151  151 151 151  151 151 151  151 151 151  151 151 151  151 151 151  151 151 151  151 151 151  151 151 151  151 151 151  151 151 151  151 151 151  151 151 151  151 151 151  151 151 151  151 151 151  151 151 151  151 151 151  106 49 130  106 49 130  106 49 130  106 49 130  106 49 130  106 49 130  106 49 130  106 50 130  106 50 130  106 50 130  106 50 130  107 50 130  107 50 130  107 50 130  107 50 131  107 50 131  107 50 131  107 50 131  107 50 131  107 50 131  107 50 131  107 50 131  107 50 131  107 50 131  107 50 131  107 50 131  107 50 131  107 50 131  107 50 131  107 50 131  107 50 131  107 50 131  107 50 131  107 50 131  107 50 131  107 50 131  107 50 131  107 50 132  108 50 132  108 50 132  108 50 132  108 50 132  108 50 132  108 50 132  108 50 132  108 50 132  108 50 132  108 50 132  108 50 132  108 50 132  108 50 132  108 50 132  108 50 132  108 50 132  108 50 132  108 50 132  108 50 132  108 50 132  108 50 132  108 50 132  108 50 132  108 50 132  108 50 132  108 50 132  108 51 132  108 51 132  108 51 133  108 51 133  108 51 133  108 51 133  108 51 133  108 51 133  114 30 22  114 31 22  115 31 22  116 31 22  118 32 23  119 32 23  120 32 23  121 33 24  122 33 24  123 34 24  124 34 25  125 34 25  126 34 25  126 35 25  127 35 25  128 35 26  129 36 26  129 36 26  130 36 26  131 36 26  131 36 27  132 37 27  133 37 27  133 37 27  134 37 27  134 37 27  135 38 27  135 38 28  136 38 28  136 38 28  136 38 28  137 38 28  137 38 28  138 39 28  138 39 28  138 39 28  139 39 29  139 39 29  139 39 29  139 39 29  140 39 29  140 39 29  140 39 29  140 40 29  141 40 29  141 40 29  141 40 29  141 40 29  141 40 29  141 40 29  142 40 29  142 40 29  142 40 29  142 40 29  142 40 29  142 40 30  142 40 30  142 40 30  142 40 30  142 40 30  142 40 30  142 40 30  142 40 29  142 40 29  142 40 29  142 40 29  142 40 29  141 40 29  141 40 29  141 40 29  141 40 29  141 40 29  141 40 29  140 40 29  140 39 29  140 39 29  139 39 29  139 39 29  139 39 29  138 39 29  138 39 28  138 39 28  137 38 28  137 38 28  136 38 28  136 38 28  135 38 28  134 37 27  134 37 27  133 37 27  132 37 27  131 36 26  130 36 26  129 35 26  127 35 25  125 34 25  123 34 24  121 33 24  152 152 152  152 152 152  152 152 152  152 152 152  91 74 18  94 77 19  98 80 21  101 82 21  104 85 22  107 87 23  109 89 24  111 91 25  113 92 25  115 94 26  117 95 26  118 97 27  120 98 27  121 99 28  122 100 28  123 101 28  124 101 28  125 102 29  125 102 29  126 103 29  126 103 29  125 103 29  124 102 29  121 99 27  151 151 151  151 151 151  151 151 151  151 151 151  151 151 151  151 151 151  151 151 151  151 151 151  151 151 151  151 151 151  151 151 151  151 151 151  151 151 151  151 151 151  151 151 151  151 151 151  151 151 151  151 151 151  151 151 151  151 151 151  151 151 151  151 151 151  151 151 151  151 151 151  151 151 151  151 151 151  151 151 151  151 151 151  151 151 151  151 151 151  151 151 151  151 151 151  151 151 151  151 151 151  151 151 151  151 151 151  151 151 151  151 151 151  151 151 151  151 151 151  151 151 151  151 151 151  151 151 151  151 151 151  151 151 151  151 151 151  151 151 151  151 151 151  151 151 151  151 151 151  151 151 151  151 151 151  151 151 151  151 151 151  151 151 151  151 151 151  151 151 151  151 151 151  151 151 151  151 151 151  151 151 151  151 151 151  151 151 151  151 151 151  151 151 151  151 151 151  151 151 151  151 151 151  151 151 151  151 151 151  151 151 151  151 151 151  151 151 151  151 151 151  151 151 151  151 151 151  151 151 151  150 150 150
151 151 151  151 151 151  151 151 151  151 151 151  151 151 151  151 151 151  151 151 151  151 151 151  151 151 151  151 151 151  151 151 151  151 151 151  151 151 151  151 151 151  151 151 151  151 151 151  151 151 151  151 151 151  151 151 151  151 151 151  151 151 151  151 151 151  151 151 151  151 151 151  151 151 151  151 151 151  151 151 151  151 151 151  151 151 151  151 151 151  151 151 151  151 151 151  151 151 151  151 151 151  151 151 151  151 151 151  151 151 151  151 151 151  151 151 151  151 151 151  151 151 151  151 151 151  151 151 151  106 49 130  106 49 130  106 49 130  106 49 130  106 49 130  106 49 130  106 49 130  106 49 130  106 49 130  106 49 130  106 49 130  106 50 130  106 50 130  106 50 130  106 50 130  107 50 130  107 50 130  107 50 130  107 50 131  107 50 131  107 50 131  107 50 131  107 50 131  107 50 131  107 50 131  107 50 131  107 50 131  107 50 131  107 50 131  107 50 131  107 50 131  107 50 131  107 50 131  107 50 131  107 50 131  107 50 131  107 50 131  107 50 131  107 50 131  107 50 131  107 50 131  107 50 131  107 50 132  108 50 132  108 50 132  108 50 132  108 50 132  108 50 132  108 50 132  108 50 132  108 50 132  108 50 132  108 50 132  108 50 132  108 50 132  108 50 132  108 50 132  108 50 132  108 50 132  108 50 132  108 50 132  108 50 132  108 50 132  108 50 132  108 50 132  108 50 132  108 50 132  108 50 132  108 50 132  108 50 132  108 51 132  108 51 132  108 51 133  108 51 133  114 30 22  114 31 22  115 31 22  116 31 22  117 32 23  118 32 23  120 32 23  121 33 24  122 33 24  123 33 24  123 34 24  124 34 25  125 34 25  126 35 25  127 35 25  127 35 25  128 35 26  129 36 26  129 36 26  130 36 26  131 36 26  131 36 27  132 37 27  132 37 27  133 37 27  133 37 27  134 37 27  134 37 27  135 38 28  135 38 28  136 38 28  136 38 28  136 38 28  137 38 28  137 38 28  137 39 28  138 39 28  138 39 28  138 39 28  139 39 29  139 39 29  139 39 29  139 39 29  139 39 29  140 39 29  140 39 29  140 39 29  140 39 29  140 39 29  140 40 29  140 40 29  141 40 29  141 40 29  141 40 29  141 40 29  141 40 29  141 40 29  141 40 29  141 40 29  141 40 29  141 40 29  141 40 29  141 40 29  141 40 29  140 40 29  140 40 29  140 39 29  140 39 29  140 39 29  140 39 29  140 39 29  139 39 29  139 39 29  139 39 29  139 39 29  138 39 28  138 39 28  138 39 28  137 38 28  137 38 28  136 38 28  136 38 28  135 38 28  135 38 28  134 37 27  134 37 27  133 37 27  132 37 27  131 36 27  131 36 26  130 36 26  128 35 26  127 35 25  126 34 25  124 34 24  121 33 24  119 32 23  152 152 152  152 152 152  152 152 152  152 152 152  91 74 18  92 74 19  95 77 20  98 80 21  102 83 22  104 85 22  107 87 23  109 89 24  111 91 25  113 93 25  115 94 26  117 96 26  118 97 27  120 98 27  121 99 28  122 100 28  123 101 28  124 102 29  125 102 29  125 103 29  126 103 29  126 103 29  126 103 29  125 102 29  123 100 28  151 151 151  151 151 151  151 151 151  151 151 151  151 151 151  151 151 151  151 151 151  151 151 151  151 151 151  151 151 151  151 151 151  151 151 151  151 151 151  151 151 151  151 151 151  151 151 151  151 151 151  151 151 151  151 151 151  151 151 151  151 151 151  151 151 151  151 151 151  151 151 151  151 151 151  151 151 151  151 151 151  151 151 151  151 151 151  151 151 151  151 151 151  151 151 151  151 151 151  151 151 151  151 151 151  151 151 151  151 151 151  151 151 151  151 151 151  151 151 151  151 151 151  151 151 151  151 151 151  151 151 151  151 151 151  151 151 151  151 151 151  151 151 151  151 151 151  151 151 151  151 151 151  151 151 151  151 151 151  151 151 151  151 151 151  151 151 151  151 151 151  151 151 151  151 151 151  151 151 151  151 151 151  151 151 151  151 151 151  151 151 151  151 151 151  151 151 151  151 151 151  151 151 151  151 151 151  151 151 151  151 151 151  151 151 151  151 151 151  151 151 151  151 151 151  151 151 151  151 151 151
151 151 151  151 151 151  151 151 151  151 151 151  151 151 151  151 151 151  151 151 151  151 151 151  151 151 151  151 151 151  151 151 151  151 151 151  151 151 151  151 151 151  151 151 151  151 151 151  151 151 151  151 151 151  151 151 151  151 151 151  151 151 151  151 151 151  151 151 151  151 151 151  151 151 151  151 151 151  151 151 151  151 151 151  151 151 151  151 151 151  151 151 151  151 151 151  151 151 151  151 151 151  151 151 151  151 151 151  151 151 151  151 151 151  151 151 151  151 151 151  151 151 151  151 151 151  106 49 130  106 49 130  106 49 130  106 49 130  106 49 130  106 49 130  106 49 130  106 49 130  106 49 130  106 49 130  106 49 130  106 49 130  106 49 130  106 49 130  106 49 130  106 50 130  106 50 130  106 50 130  107 50 130  107 50 130  107 50 130  107 50 130  107 50 131  107 50 131  107 50 131  107 50 131  107 50 131  107 50 131  107 50 131  107 50 131  107 50 131  107 50 131  107 50 131  107 50 131  107 50 131  107 50 131  107 50 131  107 50 131  107 50 131  107 50 131  107 50 131  107 50 131  107 50 131  107 50 131  107 50 131  107 50 131  107 50 132  108 50 132  108 50 132  108 50 132  108 50 132  108 50 132  108 50 132  108 50 132  108 50 132  108 50 132  108 50 132  108 50 132  108 50 132  108 50 132  108 50 132  108 50 132  108 50 132  108 50 132  108 50 132  108 50 132  108 50 132  108 50 132  108 50 132  108 50 132  108 50 132  108 50 132  108 50 132  108 50 132  108 50 132  108 50 132  114 30 22  114 31 22  115 31 22  116 31 22  117 31 23  118 32 23  119 32 23  120 33 23  121 33 24  122 33 24  123 33 24  124 34 24  125 34 25  125 34 25  126 35 25  127 35 25  127 35 25  128 35 26  129 36 26  129 36 26  130 36 26  131 36 26  131 36 27  132 37 27  132 37 27  133 37 27  133 37 27  134 37 27  134 37 27  134 37 27  135 38 28  135 38 28  135 38 28  136 38 28  136 38 28  136 38 28  137 38 28  137 38 28  137 38 28  138 39 28  138 39 28  138 39 28  138 39 28  138 39 29  139 39 29  139 39 29  139 39 29  139 39 29  139 39 29  139 39 29  139 39 29  139 39 29  140 39 29  140 39 29  140 39 29  140 39 29  140 39 29  140 39 29  140 39 29  140 39 29  140 39 29  139 39 29  139 39 29  139 39 29  139 39 29  139 39 29  139 39 29  139 39 29  139 39 29  138 39 29  138 39 28  138 39 28  138 39 28  137 38 28  137 38 28  137 38 28  136 38 28  136 38 28  136 38 28  135 38 28  135 38 27  134 37 27  134 37 27  133 37 27  132 37 27  132 37 27  131 36 26  130 36 26  129 36 26  128 35 26  127 35 25  126 34 25  124 34 25  122 33 24  120 32 23  152 152 152  152 152 152  152 152 152  152 152 152  152 152 152  90 73 18  91 74 18  92 75 19  95 78 20  99 81 21  102 83 22  105 85 23  107 88 23  110 89 24  112 91 25  114 93 25  116 94 26  117 96 26  119 97 27  120 98 27  121 99 28  122 100 28  123 101 28  124 102 29  125 102 29  126 103 29  126 103 29  126 103 29  126 103 29  125 103 29  124 101 28  152 152 152  152 152 152  152 152 152  152 152 152  152 152 152  152 152 152  152 152 152  152 152 152  152 152 152  152 152 152  152 152 152  152 152 152  152 152 152  152 152 152  151 151 151  151 151 151  151 151 151  151 151 151  151 151 151  151 151 151  151 151 151  151 151 151  151 151 151  151 151 151  151 151 151  151 151 151  151 151 151  151 151 151  151 151 151  151 151 151  151 151 151  151 151 151  151 151 151  151 151 151  151 151 151  151 151 151  151 151 151  151 151 151  151 151 151  151 151 151  151 151 151  151 151 151  151 151 151  151 151 151  151 151 151  151 151 151  151 151 151  151 151 151  151 151 151  151 151 151  151 151 151  151 151 151  151 151 151  151 151 151  151 151 151  151 151 151  151 151 151  151 151 151  151 151 151  151 151 151  151 151 151  151 151 151  151 151 151  151 151 151  151 151 151  151 151 151  151 151 151  151 151 151  151 151 151  151 151 151  151 151 151  151 151 151  151 151 151  151 151 151  151 151 151  151 151 151
151 151 151  151 151 151  151 151 151  151 151 151  151 151 151  151 151 151  151 151 151  151 151 151  151 151 151  151 151 151  151 151 151  151 151 151  151 151 151  151 151 151  151 151 151  151 151 151  151 151 151  151 151 151  151 151 151  151 151 151  151 151 151  151 151 151  151 151 151  151 151 151  151 151 151  151 151 151  151 151 151  151 151 151  151 151 151  151 151 151  151 151 151  151 151 151  151 151 151  151 151 151  151 151 151  151 151 151  151 151 151  151 151 151  151 151 151  151 151 151  151 151 151  106 49 129  106 49 129  106 49 129  106 49 129  106 49 130  106 49 130  106 49 130  106 49 130  106 49 130  106 49 130  106 49 130  106 49 130  106 49 130  106 49 130  106 49 130  106 49 130  106 49 130  106 49 130  106 50 130  106 50 130  106 50 130  106 50 130  107 50 130  107 50 130  107 50 130  107 50 130  107 50 131  107 50 131  107 50 131  107 50 131  107 50 131  107 50 131  107 50 131  107 50 131  107 50 131  107 50 131  107 50 131  107 50 131  107 50 131  107 50 131  107 50 131  107 50 131  107 50 131  107 50 131  107 50 131  107 50 131  107 50 131  107 50 131  107 50 131  107 50 131  107 50 131  107 50 132  108 50 132  108 50 132  108 50 132  108 50 132  108 50 132  108 50 132  108 50 132  108 50 132  108 50 132  108 50 132  108 50 132  108 50 132  108 50 132  108 50 132  108 50 132  108 50 132  108 50 132  108 50 132  108 50 132  108 50 132  108 50 132  108 50 132  108 50 132  108 50 132  108 50 132  108 50 132  114 30 22  114 31 22  115 31 22  115 31 22  117 31 22  118 32 23  119 32 23  120 32 23  121 33 24  121 33 24  122 33 24  123 34 24  124 34 25  125 34 25  125 34 25  126 35 25  127 35 25  127 35 25  128 35 26  129 35 26  129 36 26  130 36 26  130 36 26  131 36 26  131 36 27  132 37 27  132 37 27  133 37 27  133 37 27  133 37 27  134 37 27  134 37 27  135 38 27  135 38 28  135 38 28  136 38 28  136 38 28  136 38 28  136 38 28  137 38 28  137 38 28  137 38 28  137 38 28  137 38 28  138 39 28  138 39 28  138 39 28  138 39 28  138 39 28  138 39 28  138 39 28  138 39 29  138 39 29  138 39 29  138 39 29  138 39 29  138 39 29  138 39 29  138 39 29  138 39 29  138 39 28  138 39 28  138 39 28  138 39 28  138 39 28  138 39 28  138 39 28  137 38 28  137 38 28  137 38 28  137 38 28  136 38 28  136 38 28  136 38 28  135 38 28  135 38 28  135 38 28  134 37 27  134 37 27  133 37 27  133 37 27  132 37 27  132 37 27  131 36 26  130 36 26  130 36 26  129 35 26  128 35 26  127 35 25  125 34 25  124 34 25  122 33 24  120 33 23  118 32 23  152 152 152  152 152 152  152 152 152  152 152 152  152 152 152  89 72 18  90 73 18  91 74 19  92 75 19  96 78 20  99 81 21  102 83 22  105 86 23  108 88 23  110 90 24  112 92 25  114 93 25  116 95 26  117 96 26  119 97 27  120 98 27  122 99 28  123 100 28  124 101 28  125 102 29  125 103 29  126 103 29  126 103 29  126 103 29  126 103 29  126 103 29  124 102 29  152 152 152  152 152 152  152 152 152  152 152 152  152 152 152  152 152 152  152 152 152  152 152 152  152 152 152  152 152 152  152 152 152  152 152 152  152 152 152  152 152 152  152 152 152  152 152 152  152 152 152  152 152 152  152 152 152  152 152 152  152 152 152  152 152 152  152 152 152  152 152 152  152 152 152  152 152 152  152 152 152  151 151 151  151 151 151  151 151 151  151 151 151  151 151 151  151 151 151  151 151 151  151 151 151  151 151 151  151 151 151  151 151 151  151 151 151  151 151 151  151 151 151  151 151 151  151 151 151  151 151 151  151 151 151  151 151 151  151 151 151  151 151 151  151 151 151  151 151 151  151 151 151  151 151 151  151 151 151  151 151 151  151 151 151  151 151 151  151 151 151  151 151 151  151 151 151  151 151 151  151 151 151  151 151 151  151 151 151  151 151 151  151 151 151  151 151 151  151 151 151  151 151 151  151 151 151  151 151 151  151 151 151  151 151 151  151 151 151  151 151 151  151 151 151
151 151 151  151 151 151  151 151 151  151 151 151  151 151 151  151 151 151  151 151 151  151 151 151  151 151 151  151 151 151  151 151 151  151 151 151  151 151 151  151 151 151  151 151 151  151 151 151  151 151 151  151 151 151  151 151 151  151 151 151  151 151 151  151 151 151  151 151 151  151 151 151  151 151 151  151 151 151  151 151 151  151 151 151  151 151 151  151 151 151  151 151 151  151 151 151  151 151 151  151 151 151  151 151 151  151 151 151  151 151 151  152 152 152  152 152 152  152 152 152  152 152 152  106 49 129  106 49 129  106 49 129  106 49 129  106 49 129  106 49 129  106 49 130  106 49 130  106 49 130  106 49 130  106 49 130  106 49 130  106 49 130  106 49 130  106 49 130  106 49 130  106 49 130  106 49 130  106 49 130  106 49 130  106 49 130  106 50 130  106 50 130  106 50 130  106 50 130  107 50 130  107 50 130  107 50 130  107 50 130  107 50 131  107 50 131  107 50 131  107 50 131  107 50 131  107 50 131  107 50 131  107 50 131  107 50 131  107 50 131  107 50 131  107 50 131  107 50 131  107 50 131  107 50 131  107 50 131  107 50 131  107 50 131  107 50 131  107 50 131  107 50 131  107 50 131  107 50 131  107 50 131  107 50 131  107 50 131  107 50 132  107 50 132  108 50 132  108 50 132  108 50 132  108 50 132  108 50 132  108 50 132  108 50 132  108 50 132  108 50 132  108 50 132  108 50 132  108 50 132  108 50 132  108 50 132  108 50 132  108 50 132  108 50 132  108 50 132  108 50 132  108 50 132  108 50 132  108 50 132  114 30 22  114 30 22  115 31 22  115 31 22  116 31 22  117 31 23  118 32 23  119 32 23  120 32 23  121 33 24  122 33 24  122 33 24  123 34 24  124 34 25  125 34 25  125 34 25  126 35 25  127 35 25  127 35 25  128 35 26  128 35 26  129 36 26  129 36 26  130 36 26  130 36 26  131 36 26  131 36 27  132 37 27  132 37 27  133 37 27  133 37 27  133 37 27  134 37 27  134 37 27  134 37 27  135 38 27  135 38 28  135 38 28  135 38 28  136 38 28  136 38 28  136 38 28  136 38 28  136 38 28  136 38 28  137 38 28  137 38 28  137 38 28  137 38 28  137 38 28  137 38 28  137 38 28  137 38 28  137 38 28  137 38 28  137 38 28  137 38 28  137 38 28  137 38 28  137 38 28  137 38 28  137 38 28  137 38 28  137 38 28  136 38 28  136 38 28  136 38 28  136 38 28  136 38 28  135 38 28  135 38 28  135 38 28  135 38 27  134 37 27  134 37 27  133 37 27  133 37 27  133 37 27  132 37 27  132 36 27  131 36 26  130 36 26  130 36 26  129 36 26  128 35 26  127 35 25  126 35 25  125 34 25  124 34 24  122 33 24  120 33 24  118 32 23  116 31 22  152 152 152  152 152 152  152 152 152  152 152 152  152 152 152  88 72 18  90 73 18  91 74 18  92 75 19  93 75 19  97 79 20  100 81 21  103 84 22  106 86 23  108 88 24  110 90 24  112 92 25  114 93 26  116 95 26  118 96 27  119 97 27  121 99 27  122 100 28  123 101 28  124 101 28  125 102 29  125 103 29  126 103 29  126 103 29  127 104 29  127 104 29  126 103 29  125 102 29  121 99 28  152 152 152  152 152 152  152 152 152  152 152 152  152 152 152  152 152 152  152 152 152  152 152 152  152 152 152  152 152 152  152 152 152  152 152 152  152 152 152  152 152 152  152 152 152  152 152 152  152 152 152  152 152 152  152 152 152  152 152 152  152 152 152  152 152 152  152 152 152  152 152 152  152 152 152  152 152 152  152 152 152  152 152 152  152 152 152  152 152 152  152 152 152  152 152 152  152 152 152  152 152 152  152 152 152  152 152 152  152 152 152  151 151 151  151 151 151  151 151 151  151 151 151  151 151 151  151 151 151  151 151 151  151 151 151  151 151 151  151 151 151  151 151 151  151 151 151  151 151 151  151 151 151  151 151 151  151 151 151  151 151 151  151 151 151  151 151 151  151 151 151  151 151 151  151 151 151  151 151 151  151 151 151  151 151 151  151 151 151  151 151 151  151 151 151  151 151 151  151 151 151  151 151 151  151 151 151  151 151 151  151 151 151  151 151 151  151 151 151
151 151 151  151 151 151  151 151 151  151 151 151  151 151 151  151 151 151  151 151 151  151 151 151  151 151 151  151 151 151  151 151 151  151 151 151  151 151 151  151 151 151  151 151 151  151 151 151  151 151 151  151 151 151  151 151 151  151 151 151  151 151 151  151 151 151  151 151 151  151 151 151  151 151 151  151 151 151  152 152 152  152 152 152  152 152 152  152 152 152  152 152 152  152 152 152  152 152 152  152 152 152  152 152 152  152 152 152  152 152 152  152 152 152  152 152 152  152 152 152  105 49 129  105 49 129  106 49 129  106 49 129  106 49 129  106 49 129  106 49 129  106 49 129  106 49 129  106 49 129  106 49 130  106 49 130  106 49 130  106 49 130  106 49 130  106 49 130  106 49 130  106 49 130  106 49 130  106 49 130  106 49 130  106 49 130  106 49 130  106 49 130  106 49 130  106 50 130  106 50 130  106 50 130  106 50 130  107 50 130  107 50 130  107 50 130  107 50 130  107 50 131  107 50 131  107 50 131  107 50 131  107 50 131  107 50 131  107 50 131  107 50 131  107 50 131  107 50 131  107 50 131  107 50 131  107 50 131  107 50 131  107 50 131  107 50 131  107 50 131  107 50 131  107 50 131  107 50 131  107 50 131  107 50 131  107 50 131  107 50 131  107 50 131  107 50 131  107 50 131  107 50 131  107 50 132  108 50 132  108 50 132  108 50 132  108 50 132  108 50 132  108 50 132  108 50 132  108 50 132  108 50 132  108 50 132  108 50 132  108 50 132  108 50 132  108 50 132  108 50 132  108 50 132  108 50 132  108 50 132  108 50 132  113 30 22  114 30 22  114 31 22  115 31 22  115 31 22  116 31 22  117 32 23  118 32 23  119 32 23  120 33 23  121 33 24  122 33 24  122 33 24  123 34 24  124 34 25  125 34 25  125 34 25  126 35 25  126 35 25  127 35 25  128 35 26  128 35 26  129 35 26  129 36 26  130 36 26  130 36 26  130 36 26  131 36 26  131 36 27  132 36 27  132 37 27  132 37 27  133 37 27  133 37 27  133 37 27  133 37 27  134 37 27  134 37 27  134 37 27  134 37 27  135 38 27  135 38 28  135 38 28  135 38 28  135 38 28  135 38 28  136 38 28  136 38 28  136 38 28  136 38 28  136 38 28  136 38 28  136 38 28  136 38 28  136 38 28  136 38 28  136 38 28  136 38 28  136 38 28  136 38 28  136 38 28  135 38 28  135 38 28  135 38 28  135 38 28  135 38 28  135 38 27  134 37 27  134 37 27  134 37 27  134 37 27  133 37 27  133 37 27  132 37 27  132 37 27  132 37 27  131 36 27  131 36 26  130 36 26  130 36 26  129 36 26  128 35 26  127 35 25  127 35 25  126 34 25  125 34 25  123 34 24  122 33 24  120 33 24  118 32 23  117 31 23  153 153 153  152 152 152  152 152 152  152 152 152  152 152 152  152 152 152  87 71 17  89 72 18  90 73 18  91 74 18  92 75 19  94 76 19  97 79 20  100 82 21  103 84 22  106 86 23  108 88 24  111 90 24  113 92 25  115 94 26  116 95 26  118 96 27  119 98 27  121 99 27  122 100 28  123 101 28  124 102 28  125 102 29  126 103 29  126 103 29  127 104 29  127 104 29  127 104 29  126 104 29  126 103 29  123 101 28  152 152 152  152 152 152  152 152 152  152 152 152  152 152 152  152 152 152  152 152 152  152 152 152  152 152 152  152 152 152  152 152 152  152 152 152  152 152 152  152 152 152  152 152 152  152 152 152  152 152 152  152 152 152  152 152 152  152 152 152  152 152 152  152 152 152  152 152 152  152 152 152  152 152 152  152 152 152  152 152 152  152 152 152  152 152 152  152 152 152  152 152 152  152 152 152  152 152 152  152 152 152  152 152 152  152 152 152  152 152 152  152 152 152  152 152 152  152 152 152  152 152 152  152 152 152  152 152 152  152 152 152  152 152 152  152 152 152  152 152 152  151 151 151  151 151 151  151 151 151  151 151 151  151 151 151  151 151 151  151 151 151  151 151 151  151 151 151  151 151 151  151 151 151  151 151 151  151 151 151  151 151 151  151 151 151  151 151 151  151 151 151  151 151 151  151 151 151  151 151 151  151 151 151  151 151 151  151 151 151  151 151 151  151 151 151
151 151 151  151 151 151  151 151 151  151 151 151  151 151 151  151 151 151  151 151 151  151 151 151  151 151 151  151 151 151  151 151 151  151 151 151  151 151 151  151 151 151  151 151 151  152 152 152  152 152 152  152 152 152  152 152 152  152 152 152  152 152 152  152 152 152  152 152 152  152 152 152  152 152 152  152 152 152  152 152 152  152 152 152  152 152 152  152 152 152  152 152 152  152 152 152  152 152 152  152 152 152  152 152 152  152 152 152  152 152 152  152 152 152  152 152 152  105 49 129  105 49 129  105 49 129  105 49 129  105 49 129  106 49 129  106 49 129  106 49 129  106 49 129  106 49 129  106 49 129  106 49 129  106 49 129  106 49 130  106 49 130  106 49 130  106 49 130  106 49 130  106 49 130  106 49 130  106 49 130  106 49 130  106 49 130  106 49 130  106 49 130  106 49 130  106 49 130  106 49 130  106 49 130  106 50 130  106 50 130  106 50 130  106 50 130  107 50 130  107 50 130  107 50 130  107 50 130  107 50 131  107 50 131  107 50 131  107 50 131  107 50 131  107 50 131  107 50 131  107 50 131  107 50 131  107 50 131  107 50 131  107 50 131  107 50 131  107 50 131  107 50 131  107 50 131  107 50 131  107 50 131  107 50 131  107 50 131  107 50 131  107 50 131  107 50 131  107 50 131  107 50 131  107 50 131  107 50 131  107 50 131  107 50 131  107 50 131  107 50 132  108 50 132  108 50 132  108 50 132  108 50 132  108 50 132  108 50 132  108 50 132  108 50 132  108 50 132  108 50 132  108 50 132  108 50 132  108 50 132  108 50 132  108 50 132  113 30 22  114 30 22  114 31 22  115 31 22  115 31 22  116 31 22  117 31 23  118 32 23  119 32 23  119 32 23  120 33 23  121 33 24  122 33 24  122 33 24  123 34 24  124 34 24  124 34 25  125 34 25  126 34 25  126 35 25  127 35 25  127 35 25  128 35 26  128 35 26  129 35 26  129 36 26  129 36 26  130 36 26  130 36 26  131 36 26  131 36 26  131 36 27  132 36 27  132 37 27  132 37 27  132 37 27  133 37 27  133 37 27  133 37 27  133 37 27  133 37 27  134 37 27  134 37 27  134 37 27  134 37 27  134 37 27  134 37 27  134 37 27  134 37 27  134 38 27  135 38 27  135 38 27  135 38 27  135 38 27  135 38 27  135 38 27  134 37 27  134 37 27  134 37 27  134 37 27  134 37 27  134 37 27  134 37 27  134 37 27  133 37 27  133 37 27  133 37 27  133 37 27  132 37 27  132 37 27  132 37 27  131 36 27  131 36 26  131 36 26  130 36 26  130 36 26  129 36 26  129 35 26  128 35 26  127 35 25  127 35 25  126 35 25  125 34 25  124 34 25  123 34 24  122 33 24  120 33 23  118 32 23  117 31 22  115 31 22  153 153 153  153 153 153  153 153 153  153 153 153  153 153 153  153 153 153  85 69 17  88 71 17  89 72 18  90 73 18  91 74 19  92 75 19  94 77 19  98 80 20  101 82 21  104 85 22  106 87 23  109 89 24  111 91 24  113 92 25  115 94 26  117 95 26  118 97 27  120 98 27  121 99 28  122 100 28  123 101 28  124 102 29  125 102 29  126 103 29  126 103 29  127 104 29  127 104 29  127 104 29  127 104 29  126 103 29  124 102 29  152 152 152  152 152 152  152 152 152  152 152 152  152 152 152  152 152 152  152 152 152  152 152 152  152 152 152  152 152 152  152 152 152  152 152 152  152 152 152  152 152 152  152 152 152  152 152 152  152 152 152  152 152 152  152 152 152  152 152 152  152 152 152  152 152 152  152 152 152  152 152 152  152 152 152  152 152 152  152 152 152  152 152 152  152 152 152  152 152 152  152 152 152  152 152 152  152 152 152  152 152 152  152 152 152  152 152 152  152 152 152  152 152 152  152 152 152  152 152 152  152 152 152  152 152 152  152 152 152  152 152 152  152 152 152  152 152 152  152 152 152  152 152 152  152 152 152  152 152 152  152 152 152  152 152 152  152 152 152  152 152 152  152 152 152  152 152 152  151 151 151  151 151 151  151 151 151  151 151 151  151 151 151  151 151 151  151 151 151  151 151 151  151 151 151  151 151 151  151 151 151  151 151 151  151 151 151  151 151 151  151 151 151
151 151 151  151 151 151  151 151 151  151 151 151  151 151 151  151 151 151  152 152 152  152 152 152  152 152 152  152 152 152  152 152 152  152 152 152  152 152 152  152 152 152  152 152 152  152 152 152  152 152 152  152 152 152  152 152 152  152 152 152  152 152 152  152 152 152  152 152 152  152 152 152  152 152 152  152 152 152  152 152 152  152 152 152  152 152 152  152 152 152  152 152 152  152 152 152  152 152 152  152 152 152  152 152 152  152 152 152  152 152 152  152 152 152  152 152 152  105 49 129  105 49 129  105 49 129  105 49 129  105 49 129  105 49 129  105 49 129  105 49 129  106 49 129  106 49 129  106 49 129  106 49 129  106 49 129  106 49 129  106 49 129  106 49 129  106 49 130  106 49 130  106 49 130  106 49 130  106 49 130  106 49 130  106 49 130  106 49 130  106 49 130  106 49 130  106 49 130  106 49 130  106 49 130  106 49 130  106 49 130  106 49 130  106 50 130  106 50 130  106 50 130  106 50 130  107 50 130  107 50 130  107 50 130  107 50 130  107 50 131  107 50 131  107 50 131  107 50 131  107 50 131  107 50 131  107 50 131  107 50 131  107 50 131  107 50 131  107 50 131  107 50 131  107 50 131  107 50 131  107 50 131  107 50 131  107 50 131  107 50 131  107 50 131  107 50 131  107 50 131  107 50 131  107 50 131  107 50 131  107 50 131  107 50 131  107 50 131  107 50 131  107 50 131  107 50 131  107 50 131  107 50 131  107 50 132  107 50 132  108 50 132  108 50 132  108 50 132  108 50 132  108 50 132  108 50 132  108 50 132  108 50 132  108 50 132  108 50 132  113 30 22  114 30 22  114 30 22  115 31 22  115 31 22  115 31 22  116 31 22  117 31 23  118 32 23  119 32 23  119 32 23  120 33 23  121 33 24  121 33 24  122 33 24  123 33 24  123 34 24  124 34 25  125 34 25  125 34 25  126 34 25  126 35 25  127 35 25  127 35 25  128 35 26  128 35 26  128 35 26  129 36 26  129 36 26  129 36 26  130 36 26  130 36 26  130 36 26  131 36 26  131 36 26  131 36 27  131 36 27  132 37 27  132 37 27  132 37 27  132 37 27  132 37 27  133 37 27  133 37 27  133 37 27  133 37 27  133 37 27  133 37 27  133 37 27  133 37 27  133 37 27  133 37 27  133 37 27  133 37 27  133 37 27  133 37 27  133 37 27  133 37 27  133 37 27  133 37 27  133 37 27  132 37 27  132 37 27  132 37 27  132 37 27  132 36 27  131 36 27  131 36 26  131 36 26  130 36 26  130 36 26  130 36 26  129 36 26  129 36 26  128 35 26  128 35 26  127 35 25  126 35 25  126 35 25  125 34 25  124 34 25  123 34 24  122 33 24  121 33 24  120 32 23  118 32 23  116 31 22  115 31 22  112 30 21  148 148 148  153 153 153  153 153 153  153 153 153  153 153 153  153 153 153  153 153 153  86 70 17  88 71 17  89 73 18  91 74 18  92 75 19  93 75 19  95 77 20  98 80 21  101 83 22  104 85 22  107 87 23  109 89 24  111 91 25  113 93 25  115 94 26  117 96 26  118 97 27  120 98 27  121 99 28  122 100 28  123 101 28  124 102 29  125 103 29  126 103 29  127 104 29  127 104 29  127 104 29  127 104 29  127 104 29  127 104 29  125 102 29  152 152 152  152 152 152  152 152 152  152 152 152  152 152 152  152 152 152  152 152 152  152 152 152  152 152 152  152 152 152  152 152 152  152 152 152  152 152 152  152 152 152  152 152 152  152 152 152  152 152 152  152 152 152  152 152 152  152 152 152  152 152 152  152 152 152  152 152 152  152 152 152  152 152 152  152 152 152  152 152 152  152 152 152  152 152 152  152 152 152  152 152 152  152 152 152  152 152 152  152 152 152  152 152 152  152 152 152  152 152 152  152 152 152  152 152 152  152 152 152  152 152 152  152 152 152  152 152 152  152 152 152  152 152 152  152 152 152  152 152 152  152 152 152  152 152 152  152 152 152  152 152 152  152 152 152  152 152 152  152 152 152  152 152 152  152 152 152  152 152 152  152 152 152  152 152 152  152 152 152  152 152 152  152 152 152  152 152 152  152 152 152  152 152 152  151 151 151  151 151 151  151 151 151  151 151 151  151 151 151
152 152 152  152 152 152  152 152 152  152 152 152  152 152 152  152 152 152  152 152 152  152 152 152  152 152 152  152 152 152  152 152 152  152 152 152  152 152 152  152 152 152  152 152 152  152 152 152  152 152 152  152 152 152  152 152 152  152 152 152  152 152 152  152 152 152  152 152 152  152 152 152  152 152 152  152 152 152  152 152 152  152 152 152  152 152 152  152 152 152  152 152 152  152 152 152  152 152 152  152 152 152  152 152 152  152 152 152  152 152 152  152 152 152  105 49 129  105 49 129  105 49 129  105 49 129  105 49 129  105 49 129  105 49 129  105 49 129  105 49 129  105 49 129  105 49 129  106 49 129  106 49 129  106 49 129  106 49 129  106 49 129  106 49 129  106 49 129  106 49 129  106 49 129  106 49 130  106 49 130  106 49 130  106 49 130  106 49 130  106 49 130  106 49 130  106 49 130  106 49 130  106 49 130  106 49 130  106 49 130  106 49 130  106 49 130  106 49 130  106 49 130  106 50 130  106 50 130  106 50 130  106 50 130  106 50 130  107 50 130  107 50 130  107 50 130  107 50 130  107 50 131  107 50 131  107 50 131  107 50 131  107 50 131  107 50 131  107 50 131  107 50 131  107 50 131  107 50 131  107 50 131  107 50 131  107 50 131  107 50 131  107 50 131  107 50 131  107 50 131  107 50 131  107 50 131  107 50 131  107 50 131  107 50 131  107 50 131  107 50 131  107 50 131  107 50 131  107 50 131  107 50 131  107 50 131  107 50 131  107 50 131  107 50 131  107 50 131  107 50 131  107 50 132  107 50 132  108 50 132  108 50 132  108 50 132  108 50 132  112 30 21  113 30 21  113 30 22  114 30 22  114 31 22  115 31 22  115 31 22  115 31 22  116 31 22  117 31 23  118 32 23  118 32 23  119 32 23  120 32 23  121 33 24  121 33 24  122 33 24  122 33 24  123 34 24  124 34 24  124 34 25  125 34 25  125 34 25  126 34 25  126 35 25  126 35 25  127 35 25  127 35 25  128 35 26  128 35 26  128 35 26  129 35 26  129 36 26  129 36 26  130 36 26  130 36 26  130 36 26  130 36 26  130 36 26  131 36 26  131 36 26  131 36 26  131 36 27  131 36 27  131 36 27  132 36 27  132 37 27  132 37 27  132 37 27  132 37 27  132 37 27  132 37 27  132 37 27  132 37 27  132 37 27  132 37 27  132 37 27  132 36 27  131 36 27  131 36 27  131 36 27  131 36 26  131 36 26  131 36 26  130 36 26  130 36 26  130 36 26  130 36 26  129 36 26  129 36 26  129 35 26  128 35 26  128 35 26  127 35 25  127 35 25  126 35 25  126 34 25  125 34 25  124 34 25  123 34 24  122 33 24  122 33 24  120 33 24  119 32 23  118 32 23  116 31 22  115 31 22  113 30 22  148 148 148  148 148 148  148 148 148  153 153 153  153 153 153  153 153 153  153 153 153  153 153 153  153 153 153  86 70 17  88 72 18  90 73 18  91 74 18  92 75 19  93 76 19  95 78 20  99 80 21  102 83 22  105 85 23  107 87 23  109 89 24  112 91 25  114 93 25  115 94 26  117 96 26  119 97 27  120 98 27  121 99 28  123 100 28  124 101 28  125 102 29  125 103 29  126 103 29  127 104 29  127 104 29  128 104 30  128 105 30  127 104 30  127 104 29  126 103 29  122 100 28  153 153 153  153 153 153  153 153 153  153 153 153  153 153 153  153 153 153  153 153 153  153 153 153  153 153 153  152 152 152  152 152 152  152 152 152  152 152 152  152 152 152  152 152 152  152 152 152  152 152 152  152 152 152  152 152 152  152 152 152  152 152 152  152 152 152  152 152 152  152 152 152  152 152 152  152 152 152  152 152 152  152 152 152  152 152 152  152 152 152  152 152 152  152 152 152  152 152 152  152 152 152  152 152 152  152 152 152  152 152 152  152 152 152  152 152 152  152 152 152  152 152 152  152 152 152  152 152 152  152 152 152  152 152 152  152 152 152  152 152 152  152 152 152  152 152 152  152 152 152  152 152 152  152 152 152  152 152 152  152 152 152  152 152 152  152 152 152  152 152 152  152 152 152  152 152 152  152 152 152  152 152 152  152 152 152  152 152 152  152 152 152  152 152 152  152 152 152  152 152 152  152 152 152
152 152 152  152 152 152  152 152 152  152 152 152  152 152 152  152 152 152  152 152 152  152 152 152  152 152 152  152 152 152  152 152 152  152 152 152  152 152 152  152 152 152  152 152 152  152 152 152  152 152 152  152 152 152  152 152 152  152 152 152  152 152 152  152 152 152  152 152 152  152 152 152  152 152 152  152 152 152  152 152 152  152 152 152  152 152 152  152 152 152  152 152 152  152 152 152  152 152 152  152 152 152  152 152 152  152 152 152  152 152 152  152 152 152  105 49 129  105 49 129  105 49 129  105 49 129  105 49 129  105 49 129  105 49 129  105 49 129  105 49 129  105 49 129  105 49 129  105 49 129  105 49 129  105 49 129  106 49 129  106 49 129  106 49 129  106 49 129  106 49 129  106 49 129  106 49 129  106 49 129  106 49 130  106 49 130  106 49 130  106 49 130  106 49 130  106 49 130  106 49 130  106 49 130  106 49 130  106 49 130  106 49 130  106 49 130  106 49 130  106 49 130  106 49 130  106 49 130  106 49 130  106 49 130  106 50 130  106 50 130  106 50 130  106 50 130  107 50 130  107 50 130  107 50 130  107 50 130  107 50 130  107 50 131  107 50 131  107 50 131  107 50 131  107 50 131  107 50 131  107 50 131  107 50 131  107 50 131  107 50 131  107 50 131  107 50 131  107 50 131  107 50 131  107 50 131  107 50 131  107 50 131  107 50 131  107 50 131  107 50 131  107 50 131  107 50 131  107 50 131  107 50 131  107 50 131  107 50 131  107 50 131  107 50 131  107 50 131  107 50 131  107 50 131  107 50 131  107 50 131  107 50 131  107 50 131  107 50 131  107 50 131  112 30 21  113 30 21  113 30 22  114 30 22  114 30 22  114 31 22  115 31 22  115 31 22  115 31 22  116 31 22  117 31 23  118 32 23  118 32 23  119 32 23  120 32 23  120 33 23  121 33 24  121 33 24  122 33 24  123 33 24  123 34 24  124 34 24  124 34 25  125 34 25  125 34 25  125 34 25  126 34 25  126 35 25  127 35 25  127 35 25  127 35 25  127 35 26  128 35 26  128 35 26  128 35 26  129 35 26  129 36 26  129 36 26  129 36 26  129 36 26  130 36 26  130 36 26  130 36 26  130 36 26  130 36 26  130 36 26  130 36 26  130 36 26  130 36 26  130 36 26  130 36 26  130 36 26  130 36 26  130 36 26  130 36 26  130 36 26  130 36 26  130 36 26  130 36 26  130 36 26  130 36 26  129 36 26  129 36 26  129 36 26  129 35 26  128 35 26  128 35 26  128 35 26  127 35 25  127 35 25  127 35 25  126 35 25  126 34 25  125 34 25  124 34 25  124 34 25  123 34 24  122 33 24  122 33 24  121 33 24  120 32 23  118 32 23  117 32 23  115 31 22  114 30 22  113 30 21  110 29 21  148 148 148  148 148 148  148 148 148  148 148 148  148 148 148  153 153 153  153 153 153  153 153 153  153 153 153  85 69 17  87 70 17  89 72 18  90 73 18  91 74 19  93 75 19  94 76 19  96 78 20  99 81 21  102 83 22  105 86 23  108 88 23  110 90 24  112 91 25  114 93 25  116 95 26  117 96 26  119 97 27  120 98 27  122 99 28  123 100 28  124 101 28  125 102 29  126 103 29  126 103 29  127 104 29  127 104 30  128 105 30  128 105 30  128 105 30  127 104 29  126 103 29  124 101 28  153 153 153  153 153 153  153 153 153  153 153 153  153 153 153  153 153 153  153 153 153  153 153 153  153 153 153  153 153 153  153 153 153  153 153 153  153 153 153  153 153 153  153 153 153  153 153 153  153 153 153  153 153 153  153 153 153  152 152 152  152 152 152  152 152 152  152 152 152  152 152 152  152 152 152  152 152 152  152 152 152  152 152 152  152 152 152  152 152 152  152 152 152  152 152 152  152 152 152  152 152 152  152 152 152  152 152 152  152 152 152  152 152 152  152 152 152  152 152 152  152 152 152  152 152 152  152 152 152  152 152 152  152 152 152  152 152 152  152 152 152  152 152 152  152 152 152  152 152 152  152 152 152  152 152 152  152 152 152  152 152 152  152 152 152  152 152 152  152 152 152  152 152 152  152 152 152  152 152 152  152 152 152  152 152 152  152 152 152  152 152 152  152 152 152  152 152 152  152 152 152
152 152 152  152 152 152  152 152 152  152 152 152  152 152 152  152 152 152  152 152 152  152 152 152  152 152 152  152 152 152  152 152 152  152 152 152  152 152 152  152 152 152  152 152 152  152 152 152  152 152 152  152 152 152  152 152 152  152 152 152  152 152 152  152 152 152  152 152 152  152 152 152  152 152 152  152 152 152  152 152 152  152 152 152  152 152 152  152 152 152  152 152 152  152 152 152  152 152 152  152 152 152  152 152 152  152 152 152  152 152 152  105 49 128  105 49 128  105 49 128  105 49 129  105 49 129  105 49 129  105 49 129  105 49 129  105 49 129  105 49 129  105 49 129  105 49 129  105 49 129  105 49 129  105 49 129  105 49 129  105 49 129  105 49 129  106 49 129  106 49 129  106 49 129  106 49 129  106 49 129  106 49 129  106 49 129  106 49 129  106 49 130  106 49 130  106 49 130  106 49 130  106 49 130  106 49 130  106 49 130  106 49 130  106 49 130  106 49 130  106 49 130  106 49 130  106 49 130  106 49 130  106 49 130  106 49 130  106 49 130  106 49 130  106 50 130  106 50 130  106 50 130  106 50 130  106 50 130  107 50 130  107 50 130  107 50 130  107 50 130  107 50 130  107 50 131  107 50 131  107 50 131  107 50 131  107 50 131  107 50 131  107 50 131  107 50 131  107 50 131  107 50 131  107 50 131  107 50 131  107 50 131  107 50 131  107 50 131  107 50 131  107 50 131  107 50 131  107 50 131  107 50 131  107 50 131  107 50 131  107 50 131  107 50 131  107 50 131  107 50 131  107 50 131  107 50 131  107 50 131  107 50 131  107 50 131  107 50 131  107 50 131  111 30 21  112 30 21  112 30 21  113 30 21  113 30 22  114 30 22  114 30 22  114 31 22  115 31 22  115 31 22  115 31 22  116 31 22  117 31 22  117 32 23  118 32 23  119 32 23  119 32 23  120 32 23  120 33 24  121 33 24  121 33 24  122 33 24  122 33 24  123 34 24  123 34 24  124 34 24  124 34 25  125 34 25  125 34 25  125 34 25  126 34 25  126 35 25  126 35 25  127 35 25  127 35 25  127 35 25  127 35 25  128 35 26  128 35 26  128 35 26  128 35 26  128 35 26  128 35 26  128 35 26  129 35 26  129 35 26  129 36 26  129 36 26  129 36 26  129 36 26  129 36 26  129 36 26  129 36 26  129 36 26  129 36 26  129 35 26  129 35 26  128 35 26  128 35 26  128 35 26  128 35 26  128 35 26  128 35 26  127 35 25  127 35 25  127 35 25  126 35 25  126 35 25  126 34 25  125 34 25  125 34 25  124 34 25  124 34 25  123 34 24  123 33 24  122 33 24  121 33 24  121 33 24  120 32 23  119 32 23  118 32 23  116 31 22  115 31 22  113 30 22  112 30 21  111 29 21  148 148 148  148 148 148  148 148 148  148 148 148  148 148 148  148 148 148  148 148 148  153 153 153  153 153 153  153 153 153  153 153 153  85 69 17  87 71 17  89 72 18  90 73 18  92 75 19  93 75 19  94 76 19  97 79 20  100 81 21  103 84 22  105 86 23  108 88 24  110 90 24  112 92 25  114 93 25  116 95 26  118 96 27  119 97 27  121 99 27  122 100 28  123 101 28  124 102 28  125 102 29  126 103 29  127 104 29  127 104 29  128 105 30  128 105 30  128 105 30  128 105 30  128 105 30  127 104 29  125 102 29  153 153 153  153 153 153  153 153 153  153 153 153  153 153 153  153 153 153  153 153 153  153 153 153  153 153 153  153 153 153  153 153 153  153 153 153  153 153 153  153 153 153  153 153 153  153 153 153  153 153 153  153 153 153  153 153 153  153 153 153  153 153 153  153 153 153  153 153 153  153 153 153  153 153 153  153 153 153  153 153 153  153 153 153  153 153 153  152 152 152  152 152 152  152 152 152  152 152 152  152 152 152  152 152 152  152 152 152  152 152 152  152 152 152  152 152 152  152 152 152  152 152 152  152 152 152  152 152 152  152 152 152  152 152 152  152 152 152  152 152 152  152 152 152  152 152 152  152 152 152  152 152 152  152 152 152  152 152 152  152 152 152  152 152 152  152 152 152  152 152 152  152 152 152  152 152 152  152 152 152  152 152 152  152 152 152  152 152 152  152 152 152  152 152 152  152 152 152
152 152 152  152 152 152  152 152 152  152 152 152  152 152 152  152 152 152  152 152 152  152 152 152  152 152 152  152 152 152  152 152 152  152 152 152  152 152 152  152 152 152  152 152 152  152 152 152  152 152 152  152 152 152  152 152 152  152 152 152  152 152 152  152 152 152  152 152 152  152 152 152  152 152 152  152 152 152  152 152 152  152 152 152  153 153 153  153 153 153  153 153 153  153 153 153  153 153 153  153 153 153  153 153 153  153 153 153  153 153 153  105 49 128  105 49 128  105 49 128  105 49 128  105 49 128  105 49 129  105 49 129  105 49 129  105 49 129  105 49 129  105 49 129  105 49 129  105 49 129  105 49 129  105 49 129  105 49 129  105 49 129  105 49 129  105 49 129  105 49 129  105 49 129  106 49 129  106 49 129  106 49 129  106 49 129  106 49 129  106 49 129  106 49 129  106 49 129  106 49 130  106 49 130  106 49 130  106 49 130  106 49 130  106 49 130  106 49 130  106 49 130  106 49 130  106 49 130  106 49 130  106 49 130  106 49 130  106 49 130  106 49 130  106 49 130  106 49 130  106 49 130  106 49 130  106 50 130  106 50 130  106 50 130  106 50 130  106 50 130  107 50 130  107 50 130  107 50 130  107 50 130  107 50 130  107 50 131  107 50 131  107 50 131  107 50 131  107 50 131  107 50 131  107 50 131  107 50 131  107 50 131  107 50 131  107 50 131  107 50 131  107 50 131  107 50 131  107 50 131  107 50 131  107 50 131  107 50 131  107 50 131  107 50 131  107 50 131  107 50 131  107 50 131  107 50 131  107 50 131  107 50 131  107 50 131  107 50 131  107 50 131  107 50 131  111 29 21  112 30 21  112 30 21  112 30 21  113 30 21  113 30 22  114 30 22  114 30 22  114 31 22  115 31 22  115 31 22  115 31 22  115 31 22  116 31 22  117 31 23  117 32 23  118 32 23  119 32 23  119 32 23  120 32 23  120 33 24  121 33 24  121 33 24  122 33 24  122 33 24  123 33 24  123 34 24  123 34 24  124 34 24  124 34 25  124 34 25  125 34 25  125 34 25  125 34 25  125 34 25  126 34 25  126 35 25  126 35 25  126 35 25  127 35 25  127 35 25  127 35 25  127 35 25  127 35 25  127 35 25  127 35 25  127 35 25  127 35 25  127 35 25  127 35 25  127 35 25  127 35 25  127 35 25  127 35 25  127 35 25  127 35 25  127 35 25  127 35 25  127 35 25  126 35 25  126 35 25  126 35 25  126 34 25  125 34 25  125 34 25  125 34 25  125 34 25  124 34 25  124 34 24  123 34 24  123 33 24  122 33 24  122 33 24  121 33 24  120 33 24  120 32 23  119 32 23  118 32 23  117 31 23  115 31 22  114 30 22  113 30 21  112 30 21  110 29 21  148 148 148  148 148 148  148 148 148  148 148 148  148 148 148  148 148 148  148 148 148  148 148 148  148 148 148  154 154 154  154 154 154  154 154 154  154 154 154  85 69 17  88 71 17  89 73 18  91 74 18  92 75 19  93 76 19  94 77 19  97 79 20  100 82 21  103 84 22  106 86 23  108 88 24  111 90 24  113 92 25  115 94 26  116 95 26  118 96 27  119 98 27  121 99 27  122 100 28  123 101 28  124 102 29  125 102 29  126 103 29  127 104 29  127 104 30  128 105 30  128 105 30  128 105 30  128 105 30  128 105 30  127 104 29  126 103 29  153 153 153  153 153 153  153 153 153  153 153 153  153 153 153  153 153 153  153 153 153  153 153 153  153 153 153  153 153 153  153 153 153  153 153 153  153 153 153  153 153 153  153 153 153  153 153 153  153 153 153  153 153 153  153 153 153  153 153 153  153 153 153  153 153 153  153 153 153  153 153 153  153 153 153  153 153 153  153 153 153  153 153 153  153 153 153  153 153 153  153 153 153  153 153 153  153 153 153  153 153 153  153 153 153  153 153 153  153 153 153  153 153 153  152 152 152  152 152 152  152 152 152  152 152 152  152 152 152  152 152 152  152 152 152  152 152 152  152 152 152  152 152 152  152 152 152  152 152 152  152 152 152  152 152 152  152 152 152  152 152 152  152 152 152  152 152 152  152 152 152  152 152 152  152 152 152  152 152 152  152 152 152  152 152 152  152 152 152  152 152 152  152 152 152
152 152 152  152 152 152  152 152 152  152 152 152  152 152 152  152 152 152  152 152 152  152 152 152  152 152 152  152 152 152  152 152 152  152 152 152  152 152 152  152 152 152  152 152 152  152 152 152  152 152 152  152 152 152  153 153 153  153 153 153  153 153 153  153 153 153  153 153 153  153 153 153  153 153 153  153 153 153  153 153 153  153 153 153  153 153 153  153 153 153  153 153 153  153 153 153  153 153 153  153 153 153  153 153 153  153 153 153  153 153 153  105 49 128  105 49 128  105 49 128  105 49 128  105 49 128  105 49 128  105 49 128  105 49 128  105 49 129  105 49 129  105 49 129  105 49 129  105 49 129  105 49 129  105 49 129  105 49 129  105 49 129  105 49 129  105 49 129  105 49 129  105 49 129  105 49 129  105 49 129  105 49 129  106 49 129  106 49 129  106 49 129  106 49 129  106 49 129  106 49 129  106 49 129  106 49 129  106 49 129  106 49 130  106 49 130  106 49 130  106 49 130  106 49 130  106 49 130  106 49 130  106 49 130  106 49 130  106 49 130  106 49 130  106 49 130  106 49 130  106 49 130  106 49 130  106 49 130  106 49 130  106 49 130  106 49 130  106 50 130  106 50 130  106 50 130  106 50 130  106 50 130  107 50 130  107 50 130  107 50 130  107 50 130  107 50 130  107 50 130  107 50 131  107 50 131  107 50 131  107 50 131  107 50 131  107 50 131  107 50 131  107 50 131  107 50 131  107 50 131  107 50 131  107 50 131  107 50 131  107 50 131  107 50 131  107 50 131  107 50 131  107 50 131  107 50 131  107 50 131  107 50 131  107 50 131  107 50 131  107 50 131  107 50 131  110 29 21  111 29 21  111 29 21  112 30 21  112 30 21  112 30 21  113 30 21  113 30 22  113 30 22  114 30 22  114 30 22  114 31 22  115 31 22  115 31 22  115 31 22  116 31 22  116 31 22  117 31 23  117 32 23  118 32 23  119 32 23  119 32 23  120 32 23  120 33 23  120 33 24  121 33 24  121 33 24  122 33 24  122 33 24  122 33 24  123 33 24  123 34 24  123 34 24  124 34 24  124 34 25  124 34 25  124 34 25  125 34 25  125 34 25  125 34 25  125 34 25  125 34 25  125 34 25  125 34 25  126 34 25  126 34 25  126 34 25  126 34 25  126 34 25  126 34 25  126 34 25  126 34 25  126 34 25  126 34 25  126 34 25  125 34 25  125 34 25  125 34 25  125 34 25  125 34 25  125 34 25  124 34 25  124 34 25  124 34 24  124 34 24  123 34 24  123 33 24  122 33 24  122 33 24  121 33 24  121 33 24  120 33 24  120 32 23  119 32 23  118 32 23  118 32 23  117 31 23  116 31 22  114 31 22  113 30 22  112 30 21  111 29 21  110 29 21  107 28 20  148 148 148  148 148 148  148 148 148  148 148 148  148 148 148  148 148 148  148 148 148  148 148 148  148 148 148  154 154 154  154 154 154  154 154 154  148 148 148  148 148 148  86 69 17  88 71 17  90 73 18  91 74 18  92 75 19  94 76 19  95 77 19  98 79 20  101 82 21  104 84 22  106 87 23  109 89 24  111 91 24  113 92 25  115 94 26  117 95 26  118 97 27  120 98 27  121 99 28  122 100 28  123 101 28  124 102 29  125 103 29  126 103 29  127 104 29  128 104 30  128 105 30  128 105 30  129 105 30  129 105 30  128 105 30  128 105 30  126 103 29  123 100 28  153 153 153  153 153 153  153 153 153  153 153 153  153 153 153  153 153 153  153 153 153  153 153 153  153 153 153  153 153 153  153 153 153  153 153 153  153 153 153  153 153 153  153 153 153  153 153 153  153 153 153  153 153 153  153 153 153  153 153 153  153 153 153  153 153 153  153 153 153  153 153 153  153 153 153  153 153 153  153 153 153  153 153 153  153 153 153  153 153 153  153 153 153  153 153 153  153 153 153  153 153 153  153 153 153  153 153 153  153 153 153  153 153 153  153 153 153  153 153 153  153 153 153  153 153 153  153 153 153  153 153 153  153 153 153  152 152 152  152 152 152  152 152 152  152 152 152  152 152 152  152 152 152  152 152 152  152 152 152  152 152 152  152 152 152  152 152 152  152 152 152  152 152 152  152 152 152  152 152 152  152 152 152  152 152 152  152 152 152
152 152 152  152 152 152  152 152 152  152 152 152  152 152 152  152 152 152  152 152 152  152 152 152  152 152 152  152 152 152  153 153 153  153 153 153  153 153 153  153 153 153  153 153 153  153 153 153  153 153 153  153 153 153  153 153 153  153 153 153  153 153 153  153 153 153  153 153 153  153 153 153  153 153 153  153 153 153  153 153 153  153 153 153  153 153 153  153 153 153  153 153 153  153 153 153  153 153 153  153 153 153  153 153 153  153 153 153  153 153 153  105 49 128  105 49 128  105 49 128  105 49 128  105 49 128  105 49 128  105 49 128  105 49 128  105 49 128  105 49 128  105 49 129  105 49 129  105 49 129  105 49 129  105 49 129  105 49 129  105 49 129  105 49 129  105 49 129  105 49 129  105 49 129  105 49 129  105 49 129  105 49 129  105 49 129  105 49 129  105 49 129  106 49 129  106 49 129  106 49 129  106 49 129  106 49 129  106 49 129  106 49 129  106 49 129  106 49 129  106 49 130  106 49 130  106 49 130  106 49 130  106 49 130  106 49 130  106 49 130  106 49 130  106 49 130  106 49 130  106 49 130  106 49 130  106 49 130  106 49 130  106 49 130  106 49 130  106 49 130  106 49 130  106 49 130  106 49 130  106 50 130  106 50 130  106 50 130  106 50 130  106 50 130  106 50 130  107 50 130  107 50 130  107 50 130  107 50 130  107 50 130  107 50 130  107 50 131  107 50 131  107 50 131  107 50 131  107 50 131  107 50 131  107 50 131  107 50 131  107 50 131  107 50 131  107 50 131  107 50 131  107 50 131  107 50 131  107 50 131  107 50 131  107 50 131  107 50 131  107 50 131  107 50 131  107 50 131  110 29 21  110 29 21  111 29 21  111 29 21  112 30 21  112 30 21  112 30 21  113 30 21  113 30 21  113 30 22  114 30 22  114 30 22  114 30 22  114 31 22  115 31 22  115 31 22  115 31 22  116 31 22  116 31 22  117 31 23  117 32 23  118 32 23  118 32 23  119 32 23  119 32 23  120 32 23  120 33 23  120 33 24  121 33 24  121 33 24  121 33 24  122 33 24  122 33 24  122 33 24  122 33 24  123 33 24  123 34 24  123 34 24  123 34 24  123 34 24  124 34 24  124 34 24  124 34 24  124 34 25  124 34 25  124 34 25  124 34 25  124 34 25  124 34 25  124 34 25  124 34 25  124 34 25  124 34 25  124 34 25  124 34 24  124 34 24  123 34 24  123 34 24  123 34 24  123 34 24  123 33 24  122 33 24  122 33 24  122 33 24  121 33 24  121 33 24  121 33 24  120 33 23  120 32 23  119 32 23  118 32 23  118 32 23  117 32 23  116 31 22  115 31 22  114 31 22  113 30 22  112 30 21  111 29 21  110 29 21  109 29 20  107 28 20  148 148 148  148 148 148  148 148 148  148 148 148  148 148 148  148 148 148  148 148 148  148 148 148  148 148 148  148 148 148  148 148 148  154 154 154  148 148 148  148 148 148  148 148 148  148 148 148  86 70 17  88 72 18  90 73 18  92 74 19  93 75 19  94 76 19  95 77 20  98 80 21  101 83 22  104 85 22  107 87 23  109 89 24  111 91 25  113 92 25  115 94 26  117 95 26  118 97 27  120 98 27  121 99 28  122 100 28  124 101 28  125 102 29  126 103 29  126 104 29  127 104 29  128 105 30  128 105 30  129 105 30  129 105 30  129 105 30  129 105 30  128 105 30  127 104 29  124 102 29  153 153 153  153 153 153  153 153 153  153 153 153  153 153 153  153 153 153  153 153 153  153 153 153  153 153 153  153 153 153  153 153 153  153 153 153  153 153 153  153 153 153  153 153 153  153 153 153  153 153 153  153 153 153  153 153 153  153 153 153  153 153 153  153 153 153  153 153 153  153 153 153  153 153 153  153 153 153  153 153 153  153 153 153  153 153 153  153 153 153  153 153 153  153 153 153  153 153 153  153 153 153  153 153 153  153 153 153  153 153 153  153 153 153  153 153 153  153 153 153  153 153 153  153 153 153  153 153 153  153 153 153  153 153 153  153 153 153  153 153 153  153 153 153  153 153 153  153 153 153  153 153 153  153 153 153  153 153 153  152 152 152  152 152 152  152 152 152  152 152 152  152 152 152  152 152 152  152 152 152  152 152 152  152 152 152
152 152 152  153 153 153  153 153 153  153 153 153  153 153 153  153 153 153  153 153 153  153 153 153  153 153 153  153 153 153  153 153 153  153 153 153  153 153 153  153 153 153  153 153 153  153 153 153  153 153 153  153 153 153  153 153 153  153 153 153  153 153 153  153 153 153  153 153 153  153 153 153  153 153 153  153 153 153  153 153 153  153 153 153  153 153 153  153 153 153  153 153 153  153 153 153  153 153 153  153 153 153  153 153 153  153 153 153  104 49 128  105 49 128  105 49 128  105 49 128  105 49 128  105 49 128  105 49 128  105 49 128  105 49 128  105 49 128  105 49 128  105 49 128  105 49 128  105 49 128  105 49 129  105 49 129  105 49 129  105 49 129  105 49 129  105 49 129  105 49 129  105 49 129  105 49 129  105 49 129  105 49 129  105 49 129  105 49 129  105 49 129  105 49 129  105 49 129  105 49 129  106 49 129  106 49 129  106 49 129  106 49 129  106 49 129  106 49 129  106 49 129  106 49 129  106 49 129  106 49 130  106 49 130  106 49 130  106 49 130  106 49 130  106 49 130  106 49 130  106 49 130  106 49 130  106 49 130  106 49 130  106 49 130  106 49 130  106 49 130  106 49 130  106 49 130  106 49 130  106 49 130  106 49 130  106 49 130  106 49 130  106 49 130  106 50 130  106 50 130  106 50 130  106 50 130  106 50 130  106 50 130  107 50 130  107 50 130  107 50 130  107 50 130  107 50 130  107 50 130  107 50 131  107 50 131  107 50 131  107 50 131  107 50 131  107 50 131  107 50 131  107 50 131  107 50 131  107 50 131  107 50 131  107 50 131  107 50 131  107 50 131  107 50 131  107 50 131  109 29 20  110 29 21  110 29 21  110 29 21  111 29 21  111 29 21  112 30 21  112 30 21  112 30 21  112 30 21  113 30 21  113 30 22  113 30 22  114 30 22  114 30 22  114 30 22  114 30 22  114 31 22  115 31 22  115 31 22  115 31 22  116 31 22  116 31 22  117 31 23  117 32 23  118 32 23  118 32 23  119 32 23  119 32 23  119 32 23  120 32 23  120 32 23  120 33 23  121 33 24  121 33 24  121 33 24  121 33 24  121 33 24  122 33 24  122 33 24  122 33 24  122 33 24  122 33 24  122 33 24  122 33 24  122 33 24  122 33 24  122 33 24  122 33 24  122 33 24  122 33 24  122 33 24  122 33 24  122 33 24  122 33 24  122 33 24  122 33 24  122 33 24  35 158 87  35 158 87  35 158 87  35 158 87  35 158 87  35 158 87  35 158 87  35 158 87  35 158 87  35 158 87  35 158 87  35 158 87  35 158 87  35 158 87  35 158 87  35 158 87  35 158 87  35 158 87  35 157 87  35 157 87  35 157 87  35 157 87  35 157 86  35 157 86  35 157 86  35 157 86  35 157 86  35 157 86  35 157 86  35 157 86  35 157 86  35 157 86  35 157 86  35 157 86  35 157 86  35 157 86  35 157 86  35 157 86  35 157 86  35 157 86  35 157 86  35 157 86  35 157 86  35 157 86  35 157 86  35 157 86  34 157 86  34 157 86  34 157 86  34 157 86  34 157 86  34 157 86  34 157 86  34 157 86  34 156 86  34 156 86  34 156 86  34 156 86  34 156 86  34 156 86  34 156 86  124 101 28  125 102 29  126 103 29  127 104 29  127 104 29  128 105 30  128 105 30  129 105 30  129 106 30  129 106 30  129 106 30  128 105 30  127 104 30  125 103 29  154 154 154  154 154 154  154 154 154  154 154 154  154 154 154  154 154 154  154 154 154  154 154 154  154 154 154  153 153 153  153 153 153  153 153 153  153 153 153  153 153 153  153 153 153  153 153 153  153 153 153  153 153 153  153 153 153  153 153 153  153 153 153  153 153 153  153 153 153  153 153 153  153 153 153  153 153 153  153 153 153  153 153 153  153 153 153  153 153 153  153 153 153  153 153 153  153 153 153  153 153 153  153 153 153  153 153 153  153 153 153  153 153 153  153 153 153  153 153 153  153 153 153  153 153 153  153 153 153  153 153 153  153 153 153  153 153 153  153 153 153  153 153 153  153 153 153  153 153 153  153 153 153  153 153 153  153 153 153  153 153 153  153 153 153  153 153 153  153 153 153  153 153 153  153 153 153  153 153 153  152 152 152
153 153 153  153 153 153  153 153 153  153 153 153  153 153 153  153 153 153  153 153 153  153 153 153  153 153 153  153 153 153  153 153 153  153 153 153  153 153 153  153 153 153  153 153 153  153 153 153  153 153 153  153 153 153  153 153 153  153 153 153  153 153 153  153 153 153  153 153 153  153 153 153  153 153 153  153 153 153  153 153 153  153 153 153  153 153 153  153 153 153  153 153 153  153 153 153  153 153 153  153 153 153  153 153 153  153 153 153  104 48 128  104 48 128  104 49 128  105 49 128  105 49 128  105 49 128  105 49 128  105 49 128  105 49 128  105 49 128  105 49 128  105 49 128  105 49 128  105 49 128  105 49 128  105 49 128  105 49 128  105 49 129  105 49 129  105 49 129  105 49 129  105 49 129  105 49 129  105 49 129  105 49 129  105 49 129  105 49 129  105 49 129  105 49 129  105 49 129  105 49 129  105 49 129  105 49 129  105 49 129  106 49 129  106 49 129  106 49 129  106 49 129  106 49 129  106 49 129  106 49 129  106 49 129  106 49 129  106 49 129  106 49 130  106 49 130  106 49 130  106 49 130  106 49 130  106 49 130  106 49 130  106 49 130  106 49 130  106 49 130  106 49 130  106 49 130  106 49 130  106 49 130  106 49 130  106 49 130  106 49 130  106 49 130  106 49 130  106 49 130  106 49 130  106 49 130  106 49 130  106 50 130  106 50 130  106 50 130  106 50 130  106 50 130  106 50 130  107 50 130  107 50 130  107 50 130  107 50 130  107 50 130  107 50 130  107 50 130  107 50 131  107 50 131  107 50 131  107 50 131  107 50 131  107 50 131  107 50 131  107 50 131  107 50 131  107 50 131  108 28 20  109 29 20  109 29 20  110 29 21  110 29 21  110 29 21  111 29 21  111 29 21  111 30 21  112 30 21  112 30 21  112 30 21  112 30 21  113 30 21  113 30 21  113 30 22  113 30 22  114 30 22  114 30 22  114 30 22  114 30 22  114 31 22  115 31 22  115 31 22  116 31 22  116 31 22  116 31 22  117 31 23  117 32 23  118 32 23  118 32 23  118 32 23  118 32 23  119 32 23  119 32 23  119 32 23  119 32 23  120 32 23  120 32 23  120 32 23  120 33 23  120 33 24  120 33 24  120 33 24  121 33 24  121 33 24  121 33 24  121 33 24  121 33 24  121 33 24  121 33 24  121 33 24  120 33 24  120 33 24  120 33 24  120 33 23  120 32 23  120 32 23  35 158 87  35 158 87  35 158 87  35 158 87  35 158 87  35 158 87  35 158 87  35 158 87  35 158 87  35 158 87  35 158 87  35 158 87  35 158 87  35 158 87  35 158 87  35 158 87  35 158 87  35 158 87  35 158 87  35 158 87  35 158 87  35 158 87  35 158 87  35 158 87  35 158 87  35 158 87  35 158 87  35 158 87  35 158 87  35 158 87  35 158 87  35 158 87  35 158 87  35 158 87  35 158 87  35 157 87  35 157 87  35 157 87  35 157 86  35 157 86  35 157 86  35 157 86  35 157 86  35 157 86  35 157 86  35 157 86  35 157 86  35 157 86  35 157 86  35 157 86  35 157 86  35 157 86  35 157 86  35 157 86  35 157 86  35 157 86  35 157 86  35 157 86  34 157 86  34 157 86  34 157 86  34 157 86  124 102 28  125 102 29  126 103 29  127 104 29  128 104 30  128 105 30  129 105 30  129 106 30  129 106 30  129 106 30  129 106 30  129 105 30  128 105 30  126 103 29  154 154 154  154 154 154  154 154 154  154 154 154  154 154 154  154 154 154  154 154 154  154 154 154  154 154 154  154 154 154  154 154 154  154 154 154  154 154 154  154 154 154  154 154 154  154 154 154  154 154 154  154 154 154  153 153 153  153 153 153  153 153 153  153 153 153  153 153 153  153 153 153  153 153 153  153 153 153  153 153 153  153 153 153  153 153 153  153 153 153  153 153 153  153 153 153  153 153 153  153 153 153  153 153 153  153 153 153  153 153 153  153 153 153  153 153 153  153 153 153  153 153 153  153 153 153  153 153 153  153 153 153  153 153 153  153 153 153  153 153 153  153 153 153  153 153 153  153 153 153  153 153 153  153 153 153  153 153 153  153 153 153  153 153 153  153 153 153  153 153 153  153 153 153  153 153 153  153 153 153
153 153 153  153 153 153  153 153 153  153 153 153  153 153 153  153 153 153  153 153 153  153 153 153  153 153 153  153 153 153  153 153 153  153 153 153  153 153 153  153 153 153  153 153 153  153 153 153  153 153 153  153 153 153  153 153 153  153 153 153  153 153 153  153 153 153  153 153 153  153 153 153  153 153 153  153 153 153  153 153 153  153 153 153  153 153 153  153 153 153  153 153 153  153 153 153  153 153 153  154 154 154  154 154 154  154 154 154  104 48 128  104 48 128  104 48 128  104 48 128  104 48 128  104 49 128  105 49 128  105 49 128  105 49 128  105 49 128  105 49 128  105 49 128  105 49 128  105 49 128  105 49 128  105 49 128  105 49 128  105 49 128  105 49 128  105 49 128  105 49 129  105 49 129  105 49 129  105 49 129  105 49 129  105 49 129  105 49 129  105 49 129  105 49 129  105 49 129  105 49 129  105 49 129  105 49 129  105 49 129  105 49 129  105 49 129  105 49 129  106 49 129  106 49 129  106 49 129  106 49 129  106 49 129  106 49 129  106 49 129  106 49 129  106 49 129  106 49 129  106 49 129  106 49 130  106 49 130  106 49 130  106 49 130  106 49 130  106 49 130  106 49 130  106 49 130  106 49 130  106 49 130  106 49 130  106 49 130  106 49 130  106 49 130  106 49 130  106 49 130  106 49 130  106 49 130  106 49 130  106 49 130  106 49 130  106 49 130  106 49 130  106 49 130  106 50 130  106 50 130  106 50 130  106 50 130  106 50 130  106 50 130  106 50 130  106 50 130  107 50 130  107 50 130  107 50 130  107 50 130  107 50 130  107 50 130  107 50 130  107 50 130  107 50 131  107 50 131  107 50 131  108 28 20  108 28 20  109 29 20  109 29 20  110 29 21  110 29 21  110 29 21  111 29 21  111 29 21  111 29 21  111 30 21  112 30 21  112 30 21  112 30 21  112 30 21  113 30 21  113 30 21  113 30 21  113 30 22  113 30 22  113 30 22  114 30 22  114 30 22  114 30 22  114 30 22  114 31 22  115 31 22  115 31 22  116 31 22  116 31 22  116 31 22  117 31 22  117 31 23  117 32 23  117 32 23  118 32 23  118 32 23  118 32 23  118 32 23  118 32 23  118 32 23  119 32 23  119 32 23  119 32 23  119 32 23  119 32 23  119 32 23  119 32 23  119 32 23  119 32 23  119 32 23  119 32 23  119 32 23  118 32 23  118 32 23  118 32 23  118 32 23  35 159 87  35 159 87  35 159 87  35 159 87  35 159 87  35 159 87  35 159 87  35 159 87  35 159 87  35 159 87  35 158 87  35 158 87  35 158 87  35 158 87  35 158 87  35 158 87  35 158 87  35 158 87  35 158 87  35 158 87  35 158 87  35 158 87  35 158 87  35 158 87  35 158 87  35 158 87  35 158 87  35 158 87  35 158 87  35 158 87  35 158 87  35 158 87  35 158 87  35 158 87  35 158 87  35 158 87  35 158 87  35 158 87  35 158 87  35 158 87  35 158 87  35 158 87  35 158 87  35 158 87  35 158 87  35 158 87  35 158 87  35 158 87  35 157 87  35 157 87  35 157 87  35 157 86  35 157 86  35 157 86  35 157 86  35 157 86  35 157 86  35 157 86  35 157 86  35 157 86  35 157 86  35 157 86  35 157 86  124 102 29  125 103 29  126 103 29  109 89 24  109 89 24  109 89 24  109 89 24  109 89 24  109 89 24  109 89 24  109 89 24  109 89 24  128 105 30  127 104 29  123 101 28  154 154 154  154 154 154  154 154 154  154 154 154  154 154 154  154 154 154  154 154 154  154 154 154  154 154 154  154 154 154  154 154 154  154 154 154  154 154 154  154 154 154  154 154 154  154 154 154  154 154 154  154 154 154  154 154 154  154 154 154  154 154 154  154 154 154  154 154 154  154 154 154  154 154 154  153 153 153  153 153 153  153 153 153  153 153 153  153 153 153  153 153 153  153 153 153  153 153 153  153 153 153  153 153 153  153 153 153  153 153 153  153 153 153  153 153 153  153 153 153  153 153 153  153 153 153  153 153 153  153 153 153  153 153 153  153 153 153  153 153 153  153 153 153  153 153 153  153 153 153  153 153 153  153 153 153  153 153 153  153 153 153  153 153 153  153 153 153  153 153 153  153 153 153
153 153 153  153 153 153  153 153 153  153 153 153  153 153 153  153 153 153  153 153 153  153 153 153  153 153 153  153 153 153  153 153 153  153 153 153  153 153 153  153 153 153  153 153 153  153 153 153  153 153 153  153 153 153  153 153 153  153 153 153  153 153 153  153 153 153  153 153 153  153 153 153  153 153 153  154 154 154  154 154 154  154 154 154  154 154 154  154 154 154  154 154 154  154 154 154  154 154 154  154 154 154  154 154 154  154 154 154  104 48 128  104 48 128  104 48 128  104 48 128  104 48 128  104 48 128  104 48 128  104 49 128  104 49 128  105 49 128  105 49 128  105 49 128  105 49 128  105 49 128  105 49 128  105 49 128  105 49 128  105 49 128  105 49 128  105 49 128  105 49 128  105 49 128  105 49 128  105 49 129  105 49 129  105 49 129  105 49 129  105 49 129  105 49 129  105 49 129  105 49 129  105 49 129  105 49 129  105 49 129  105 49 129  105 49 129  105 49 129  105 49 129  105 49 129  105 49 129  105 49 129  106 49 129  106 49 129  106 49 129  106 49 129  106 49 129  106 49 129  106 49 129  106 49 129  106 49 129  106 49 129  106 49 129  106 49 130  106 49 130  106 49 130  106 49 130  106 49 130  106 49 130  106 49 130  106 49 130  106 49 130  106 49 130  106 49 130  106 49 130  106 49 130  106 49 130  106 49 130  106 49 130  106 49 130  106 49 130  106 49 130  106 49 130  106 49 130  106 49 130  106 49 130  106 49 130  106 49 130  106 49 130  106 50 130  106 50 130  106 50 130  106 50 130  106 50 130  106 50 130  106 50 130  106 50 130  106 50 130  107 50 130  107 50 130  107 50 130  107 50 130  107 28 20  107 28 20  108 28 20  108 28 20  109 29 20  109 29 20  109 29 20  110 29 21  110 29 21  110 29 21  111 29 21  111 29 21  111 29 21  111 30 21  112 30 21  112 30 21  112 30 21  112 30 21  112 30 21  112 30 21  113 30 21  113 30 21  113 30 21  113 30 21  113 30 22  113 30 22  113 30 22  113 30 22  114 30 22  114 30 22  114 31 22  115 31 22  115 31 22  115 31 22  115 31 22  116 31 22  116 31 22  116 31 22  116 31 22  116 31 22  117 31 22  117 31 23  117 31 23  117 31 23  117 31 23  117 31 23  117 31 23  117 31 23  117 31 23  117 31 23  117 31 23  117 31 23  117 31 22  116 31 22  116 31 22  116 31 22  116 31 22  21 110 59  35 159 87  35 159 87  35 159 87  35 159 87  35 159 87  35 159 87  35 159 87  35 159 87  35 159 87  35 159 87  35 159 87  35 159 87  35 159 87  35 159 87  35 159 87  35 159 87  35 159 87  35 159 87  35 159 87  35 159 87  35 159 87  35 159 87  35 159 87  35 159 87  35 159 87  35 159 87  35 159 87  35 159 87  35 158 87  35 158 87  35 158 87  35 158 87  35 158 87  35 158 87  35 158 87  35 158 87  35 158 87  35 158 87  35 158 87  35 158 87  35 158 87  35 158 87  35 158 87  35 158 87  35 158 87  35 158 87  35 158 87  35 158 87  35 158 87  35 158 87  35 158 87  35 158 87  35 158 87  35 158 87  35 158 87  35 158 87  35 158 87  35 158 87  35 158 87  35 157 87  35 157 87  35 157 86  35 157 86  109 89 24  109 89 24  109 89 24  109 89 24  109 89 24  109 89 24  109 89 24  109 89 24  109 89 24  109 89 24  109 89 24  109 89 24  109 89 24  109 89 24  125 102 29  154 154 154  154 154 154  154 154 154  154 154 154  154 154 154  154 154 154  154 154 154  154 154 154  154 154 154  154 154 154  154 154 154  154 154 154  154 154 154  154 154 154  154 154 154  154 154 154  154 154 154  154 154 154  154 154 154  154 154 154  154 154 154  154 154 154  154 154 154  154 154 154  154 154 154  154 154 154  154 154 154  154 154 154  154 154 154  154 154 154  154 154 154  154 154 154  154 154 154  153 153 153  153 153 153  153 153 153  153 153 153  153 153 153  153 153 153  153 153 153  153 153 153  153 153 153  153 153 153  153 153 153  153 153 153  153 153 153  153 153 153  153 153 153  153 153 153  153 153 153  153 153 153  153 153 153  153 153 153  153 153 153  153 153 153  153 153 153  153 153 153
153 153 153  153 153 153  153 153 153  153 153 153  153 153 153  153 153 153  153 153 153  153 153 153  153 153 153  153 153 153  153 153 153  153 153 153  153 153 153  153 153 153  153 153 153  153 153 153  153 153 153  154 154 154  154 154 154  154 154 154  154 154 154  154 154 154  154 154 154  154 154 154  154 154 154  154 154 154  154 154 154  154 154 154  154 154 154  154 154 154  154 154 154  154 154 154  154 154 154  154 154 154  154 154 154  154 154 154  104 48 128  104 48 128  104 48 128  104 48 128  104 48 128  104 48 128  104 48 128  104 48 128  104 48 128  104 48 128  104 49 128  105 49 128  105 49 128  105 49 128  105 49 128  105 49 128  105 49 128  105 49 128  105 49 128  105 49 128  105 49 128  105 49 128  105 49 128  105 49 128  105 49 128  105 49 128  105 49 129  105 49 129  105 49 129  105 49 129  105 49 129  105 49 129  105 49 129  105 49 129  105 49 129  105 49 129  105 49 129  105 49 129  105 49 129  105 49 129  105 49 129  105 49 129  105 49 129  105 49 129  105 49 129  106 49 129  106 49 129  106 49 129  106 49 129  106 49 129  106 49 129  106 49 129  106 49 129  106 49 129  106 49 129  106 49 129  106 49 130  106 49 130  106 49 130  106 49 130  106 49 130  106 49 130  106 49 130  106 49 130  106 49 130  106 49 130  106 49 130  106 49 130  106 49 130  106 49 130  106 49 130  106 49 130  106 49 130  106 49 130  106 49 130  106 49 130  106 49 130  106 49 130  106 49 130  106 49 130  106 49 130  106 49 130  106 49 130  106 49 130  106 49 130  106 50 130  106 50 130  106 50 130  106 50 130  106 50 130  106 50 130  106 28 20  106 28 20  107 28 20  107 28 20  108 28 20  108 28 20  108 29 20  109 29 20  109 29 20  109 29 21  110 29 21  110 29 21  110 29 21  110 29 21  111 29 21  111 29 21  111 29 21  111 29 21  111 30 21  112 30 21  112 30 21  112 30 21  112 30 21  112 30 21  112 30 21  112 30 21  112 30 21  112 30 21  113 30 21  113 30 21  113 30 21  113 30 21  113 30 21  113 30 22  113 30 22  114 30 22  114 30 22  114 30 22  114 31 22  114 31 22  115 31 22  115 31 22  115 31 22  115 31 22  115 31 22  115 31 22  115 31 22  115 31 22  115 31 22  115 31 22  115 31 22  115 31 22  115 31 22  114 31 22  114 31 22  114 30 22  114 30 22  21 110 59  35 159 88  35 159 88  35 159 88  35 159 88  35 159 88  35 159 88  35 159 88  35 159 88  35 159 88  35 159 88  35 159 88  35 159 88  35 159 88  35 159 88  35 159 88  35 159 88  35 159 88  35 159 88  35 159 88  35 159 87  35 159 87  35 159 87  35 159 87  35 159 87  35 159 87  35 159 87  35 159 87  35 159 87  35 159 87  35 159 87  35 159 87  35 159 87  35 159 87  35 159 87  35 159 87  35 159 87  35 159 87  35 159 87  35 159 87  35 159 87  35 159 87  35 158 87  35 158 87  35 158 87  35 158 87  35 158 87  35 158 87  35 158 87  35 158 87  35 158 87  35 158 87  35 158 87  35 158 87  35 158 87  35 158 87  35 158 87  35 158 87  35 158 87  35 158 87  35 158 87  35 158 87  35 158 87  35 158 87  35 158 87  109 89 24  109 89 24  109 89 24  109 89 24  109 89 24  109 89 24  109 89 24  109 89 24  109 89 24  109 89 24  109 89 24  109 89 24  109 89 24  109 89 24  109 89 24  154 154 154  154 154 154  154 154 154  154 154 154  154 154 154  154 154 154  154 154 154  154 154 154  154 154 154  154 154 154  154 154 154  154 154 154  154 154 154  154 154 154  154 154 154  154 154 154  154 154 154  154 154 154  154 154 154  154 154 154  154 154 154  154 154 154  154 154 154  154 154 154  154 154 154  154 154 154  154 154 154  154 154 154  154 154 154  154 154 154  154 154 154  154 154 154  154 154 154  154 154 154  154 154 154  154 154 154  154 154 154  154 154 154  154 154 154  154 154 154  153 153 153  153 153 153  153 153 153  153 153 153  153 153 153  153 153 153  153 153 153  153 153 153  153 153 153  153 153 153  153 153 153  153 153 153  153 153 153  153 153 153  153 153 153  153 153 153
153 153 153  153 153 153  153 153 153  153 153 153  153 153 153  153 153 153  153 153 153  153 153 153  153 153 153  154 154 154  154 154 154  154 154 154  154 154 154  154 154 154  154 154 154  154 154 154  154 154 154  154 154 154  154 154 154  154 154 154  154 154 154  154 154 154  154 154 154  154 154 154  154 154 154  154 154 154  154 154 154  154 154 154  154 154 154  154 154 154  154 154 154  154 154 154  154 154 154  154 154 154  154 154 154  154 154 154  104 48 127  104 48 127  104 48 128  104 48 128  104 48 128  104 48 128  104 48 128  104 48 128  104 48 128  104 48 128  104 48 128  104 48 128  104 48 128  104 49 128  105 49 128  105 49 128  105 49 128  105 49 128  105 49 128  105 49 128  105 49 128  105 49 128  105 49 128  105 49 128  105 49 128  105 49 128  105 49 128  105 49 128  105 49 128  105 49 129  105 49 129  105 49 129  105 49 129  105 49 129  105 49 129  105 49 129  105 49 129  105 49 129  105 49 129  105 49 129  105 49 129  105 49 129  105 49 129  105 49 129  105 49 129  105 49 129  105 49 129  105 49 129  105 49 129  106 49 129  106 49 129  106 49 129  106 49 129  106 49 129  106 49 129  106 49 129  106 49 129  106 49 129  106 49 129  106 49 129  106 49 129  106 49 130  106 49 130  106 49 130  106 49 130  106 49 130  106 49 130  106 49 130  106 49 130  106 49 130  106 49 130  106 49 130  106 49 130  106 49 130  106 49 130  106 49 130  106 49 130  106 49 130  106 49 130  106 49 130  106 49 130  106 49 130  106 49 130  106 49 130  106 49 130  106 49 130  106 49 130  106 49 130  106 49 130  106 49 130  106 49 130  105 27 19  105 28 19  106 28 20  106 28 20  107 28 20  107 28 20  108 28 20  108 28 20  108 28 20  109 29 20  109 29 20  109 29 20  109 29 20  110 29 21  110 29 21  110 29 21  110 29 21  110 29 21  111 29 21  111 29 21  111 29 21  111 29 21  111 29 21  111 29 21  111 30 21  111 30 21  112 30 21  112 30 21  112 30 21  112 30 21  112 30 21  112 30 21  112 30 21  112 30 21  112 30 21  112 30 21  112 30 21  112 30 21  112 30 21  112 30 21  113 30 21  113 30 21  113 30 21  113 30 21  113 30 21  113 30 21  113 30 21  113 30 21  113 30 21  113 30 21  113 30 21  113 30 21  112 30 21  112 30 21  112 30 21  112 30 21  112 30 21  21 110 59  35 160 88  35 160 88  35 160 88  35 160 88  35 160 88  35 160 88  35 160 88  35 160 88  35 160 88  35 160 88  35 160 88  35 160 88  35 160 88  35 160 88  35 160 88  35 160 88  35 160 88  35 160 88  35 160 88  35 160 88  35 159 88  35 159 88  35 159 88  35 159 88  35 159 88  35 159 88  35 159 88  35 159 88  35 159 88  35 159 88  35 159 88  35 159 88  35 159 88  35 159 88  35 159 87  35 159 87  35 159 87  35 159 87  35 159 87  35 159 87  35 159 87  35 159 87  35 159 87  35 159 87  35 159 87  35 159 87  35 159 87  35 159 87  35 159 87  35 159 87  35 159 87  35 159 87  35 159 87  35 158 87  35 158 87  35 158 87  35 158 87  35 158 87  35 158 87  35 158 87  35 158 87  35 158 87  35 158 87  35 158 87  35 158 87  109 89 24  109 89 24  109 89 24  109 89 24  109 89 24  109 89 24  109 89 24  109 89 24  109 89 24  109 89 24  109 89 24  109 89 24  108 89 24  108 88 24  108 88 24  155 155 155  155 155 155  155 155 155  154 154 154  154 154 154  154 154 154  154 154 154  154 154 154  154 154 154  154 154 154  154 154 154  154 154 154  154 154 154  154 154 154  154 154 154  154 154 154  154 154 154  154 154 154  154 154 154  154 154 154  154 154 154  154 154 154  154 154 154  154 154 154  154 154 154  154 154 154  154 154 154  154 154 154  154 154 154  154 154 154  154 154 154  154 154 154  154 154 154  154 154 154  154 154 154  154 154 154  154 154 154  154 154 154  154 154 154  154 154 154  154 154 154  154 154 154  154 154 154  154 154 154  154 154 154  154 154 154  154 154 154  153 153 153  153 153 153  153 153 153  153 153 153  153 153 153  153 153 153  153 153 153  153 153 153
153 153 153  154 154 154  154 154 154  154 154 154  154 154 154  154 154 154  154 154 154  154 154 154  154 154 154  154 154 154  154 154 154  154 154 154  154 154 154  154 154 154  154 154 154  154 154 154  154 154 154  154 154 154  154 154 154  154 154 154  154 154 154  154 154 154  154 154 154  154 154 154  154 154 154  154 154 154  154 154 154  154 154 154  154 154 154  154 154 154  154 154 154  154 154 154  154 154 154  154 154 154  154 154 154  154 154 154  104 48 127  104 48 127  104 48 127  104 48 127  104 48 127  104 48 128  104 48 128  104 48 128  104 48 128  104 48 128  104 48 128  104 48 128  104 48 128  104 48 128  104 48 128  104 48 128  104 49 128  105 49 128  105 49 128  105 49 128  105 49 128  105 49 128  105 49 128  105 49 128  105 49 128  105 49 128  105 49 128  105 49 128  105 49 128  105 49 128  105 49 128  105 49 128  105 49 129  105 49 129  105 49 129  105 49 129  105 49 129  105 49 129  105 49 129  105 49 129  105 49 129  105 49 129  105 49 129  105 49 129  105 49 129  105 49 129  105 49 129  105 49 129  105 49 129  105 49 129  105 49 129  105 49 129  105 49 129  106 49 129  106 49 129  106 49 129  106 49 129  106 49 129  106 49 129  106 49 129  106 49 129  106 49 129  106 49 129  106 49 129  106 49 129  106 49 129  106 49 130  106 49 130  106 49 130  106 49 130  106 49 130  106 49 130  106 49 130  106 49 130  106 49 130  106 49 130  106 49 130  106 49 130  106 49 130  106 49 130  106 49 130  106 49 130  106 49 130  106 49 130  106 49 130  106 49 130  106 49 130  106 49 130  106 49 130  106 49 130  106 49 130  104 27 19  104 27 19  105 27 19  105 27 19  106 28 20  106 28 20  107 28 20  107 28 20  107 28 20  108 28 20  108 28 20  108 28 20  108 29 20  109 29 20  109 29 20  109 29 20  109 29 20  110 29 21  110 29 21  110 29 21  110 29 21  110 29 21  110 29 21  110 29 21  110 29 21  111 29 21  111 29 21  111 29 21  111 29 21  111 29 21  111 29 21  111 29 21  111 29 21  111 29 21  111 29 21  111 29 21  111 29 21  111 29 21  111 29 21  111 29 21  111 29 21  110 29 21  111 29 21  111 29 21  111 29 21  111 29 21  111 29 21  111 29 21  111 29 21  111 29 21  110 29 21  110 29 21  110 29 21  110 29 21  110 29 21  110 29 21  109 29 20  21 110 59  21 110 59  35 160 88  35 160 88  35 160 88  35 160 88  35 160 88  35 160 88  35 160 88  35 160 88  35 160 88  35 160 88  35 160 88  35 160 88  35 160 88  35 160 88  35 160 88  35 160 88  35 160 88  35 160 88  35 160 88  35 160 88  35 160 88  35 160 88  35 160 88  35 160 88  35 160 88  35 160 88  35 160 88  35 160 88  35 160 88  35 160 88  35 160 88  35 160 88  35 160 88  35 159 88  35 159 88  35 159 88  35 159 88  35 159 88  35 159 88  35 159 88  35 159 88  35 159 88  35 159 88  35 159 88  35 159 88  35 159 87  35 159 87  35 159 87  35 159 87  35 159 87  35 159 87  35 159 87  35 159 87  35 159 87  35 159 87  35 159 87  35 159 87  35 159 87  35 159 87  35 159 87  35 159 87  35 158 87  35 158 87  35 158 87  35 158 87  109 89 24  109 89 24  109 89 24  109 89 24  109 89 24  109 89 24  109 89 24  109 89 24  108 89 24  108 88 24  108 88 24  108 88 24  108 88 24  108 88 24  108 88 24  108 88 24  155 155 155  155 155 155  155 155 155  155 155 155  155 155 155  155 155 155  155 155 155  155 155 155  155 155 155  155 155 155  154 154 154  154 154 154  154 154 154  154 154 154  154 154 154  154 154 154  154 154 154  154 154 154  154 154 154  154 154 154  154 154 154  154 154 154  154 154 154  154 154 154  154 154 154  154 154 154  154 154 154  154 154 154  154 154 154  154 154 154  154 154 154  154 154 154  154 154 154  154 154 154  154 154 154  154 154 154  154 154 154  154 154 154  154 154 154  154 154 154  154 154 154  154 154 154  154 154 154  154 154 154  154 154 154  154 154 154  154 154 154  154 154 154  154 154 154  154 154 154  154 154 154  154 154 154  153 153 153
154 154 154  154 154 154  154 154 154  154 154 154  154 154 154  154 154 154  154 154 154  154 154 154  154 154 154  154 154 154  154 154 154  154 154 154  154 154 154  154 154 154  154 154 154  154 154 154  154 154 154  154 154 154  154 154 154  154 154 154  154 154 154  154 154 154  154 154 154  154 154 154  154 154 154  154 154 154  154 154 154  154 154 154  154 154 154  154 154 154  154 154 154  154 154 154  154 154 154  154 154 154  154 154 154  155 155 155  104 48 127  104 48 127  104 48 127  104 48 127  104 48 127  104 48 127  104 48 127  104 48 127  104 48 128  104 48 128  104 48 128  104 48 128  104 48 128  104 48 128  104 48 128  104 48 128  104 48 128  104 48 128  104 49 128  104 49 128  105 49 128  105 49 128  105 49 128  105 49 128  105 49 128  105 49 128  105 49 128  105 49 128  105 49 128  105 49 128  105 49 128  105 49 128  105 49 128  105 49 128  105 49 128  105 49 128  105 49 129  105 49 129  105 49 129  105 49 129  105 49 129  105 49 129  105 49 129  105 49 129  105 49 129  105 49 129  105 49 129  105 49 129  105 49 129  105 49 129  105 49 129  105 49 129  105 49 129  105 49 129  105 49 129  105 49 129  105 49 129  106 49 129  106 49 129  106 49 129  106 49 129  106 49 129  106 49 129  106 49 129  106 49 129  106 49 129  106 49 129  106 49 129  106 49 129  106 49 129  106 49 129  106 49 130  106 49 130  106 49 130  106 49 130  106 49 130  106 49 130  106 49 130  106 49 130  106 49 130  106 49 130  106 49 130  106 49 130  106 49 130  106 49 130  106 49 130  106 49 130  106 49 130  106 49 130  106 49 130  106 49 130  103 27 19  103 27 19  104 27 19  104 27 19  105 27 19  105 27 19  106 28 19  106 28 20  106 28 20  107 28 20  107 28 20  107 28 20  107 28 20  108 28 20  108 28 20  108 28 20  108 29 20  109 29 20  109 29 20  109 29 20  109 29 20  109 29 20  109 29 20  109 29 21  110 29 21  110 29 21  110 29 21  110 29 21  110 29 21  110 29 21  110 29 21  110 29 21  110 29 21  110 29 21  110 29 21  110 29 21  110 29 21  110 29 21  110 29 21  110 29 21  110 29 21  110 29 21  109 29 21  109 29 20  109 29 20  109 29 20  109 29 20  109 29 20  109 29 20  108 29 20  108 28 20  108 28 20  108 28 20  108 28 20  107 28 20  107 28 20  107 28 20  21 110 59  21 110 59  36 161 88  36 161 88  36 161 88  36 161 88  36 161 88  36 161 88  36 161 88  36 161 88  36 160 88  36 160 88  36 160 88  36 160 88  36 160 88  36 160 88  36 160 88  36 160 88  36 160 88  35 160 88  35 160 88  35 160 88  35 160 88  35 160 88  35 160 88  35 160 88  35 160 88  35 160 88  35 160 88  35 160 88  35 160 88  35 160 88  35 160 88  35 160 88  35 160 88  35 160 88  35 160 88  35 160 88  35 160 88  35 160 88  35 160 88  35 160 88  35 160 88  35 160 88  35 160 88  35 160 88  35 160 88  35 159 88  35 159 88  35 159 88  35 159 88  35 159 88  35 159 88  35 159 88  35 159 88  35 159 88  35 159 88  35 159 87  35 159 87  35 159 87  35 159 87  35 159 87  35 159 87  35 159 87  35 159 87  35 159 87  35 159 87  35 159 87  109 89 24  109 89 24  109 89 24  109 89 24  108 89 24  108 88 24  108 88 24  108 88 24  108 88 24  108 88 24  108 88 24  108 88 24  108 88 24  108 88 24  108 88 24  155 155 155  155 155 155  155 155 155  155 155 155  155 155 155  155 155 155  155 155 155  155 155 155  155 155 155  155 155 155  155 155 155  155 155 155  155 155 155  155 155 155  155 155 155  155 155 155  155 155 155  155 155 155  154 154 154  154 154 154  154 154 154  154 154 154  154 154 154  154 154 154  154 154 154  154 154 154  154 154 154  154 154 154  154 154 154  154 154 154  154 154 154  154 154 154  154 154 154  154 154 154  154 154 154  154 154 154  154 154 154  154 154 154  154 154 154  154 154 154  154 154 154  154 154 154  154 154 154  154 154 154  154 154 154  154 154 154  154 154 154  154 154 154  154 154 154  154 154 154  154 154 154  154 154 154  154 154 154
154 154 154  154 154 154  154 154 154  154 154 154  154 154 154  154 154 154  154 154 154  154 154 154  154 154 154  154 154 154  154 154 154  154 154 154  154 154 154  154 154 154  154 154 154  154 154 154  154 154 154  154 154 154  154 154 154  154 154 154  154 154 154  154 154 154  154 154 154  154 154 154  154 154 154  154 154 154  154 154 154  154 154 154  155 155 155  155 155 155  155 155 155  155 155 155  155 155 155  155 155 155  155 155 155  155 155 155  104 48 127  104 48 127  104 48 127  104 48 127  104 48 127  104 48 127  104 48 127  104 48 127  104 48 127  104 48 127  104 48 127  104 48 128  104 48 128  104 48 128  104 48 128  104 48 128  104 48 128  104 48 128  104 48 128  104 48 128  104 48 128  104 49 128  104 49 128  105 49 128  105 49 128  105 49 128  105 49 128  105 49 128  105 49 128  105 49 128  105 49 128  105 49 128  105 49 128  105 49 128  105 49 128  105 49 128  105 49 128  105 49 128  105 49 128  105 49 129  105 49 129  105 49 129  105 49 129  105 49 129  105 49 129  105 49 129  105 49 129  105 49 129  105 49 129  105 49 129  105 49 129  105 49 129  105 49 129  105 49 129  105 49 129  105 49 129  105 49 129  105 49 129  105 49 129  105 49 129  105 49 129  105 49 129  106 49 129  106 49 129  106 49 129  106 49 129  106 49 129  106 49 129  106 49 129  106 49 129  106 49 129  106 49 129  106 49 129  106 49 129  106 49 129  106 49 129  106 49 129  106 49 130  106 49 130  106 49 130  106 49 130  106 49 130  106 49 130  106 49 130  106 49 130  106 49 130  106 49 130  106 49 130  106 49 130  106 49 130  106 49 130  103 27 19  103 27 19  103 27 19  103 27 19  104 27 19  104 27 19  105 27 19  105 27 19  105 27 19  106 28 19  106 28 20  106 28 20  107 28 20  107 28 20  107 28 20  107 28 20  107 28 20  108 28 20  108 28 20  108 28 20  108 28 20  108 28 20  108 29 20  109 29 20  109 29 20  109 29 20  109 29 20  109 29 20  109 29 20  109 29 20  109 29 20  109 29 20  109 29 20  109 29 20  109 29 20  109 29 20  109 29 20  109 29 20  109 29 20  109 29 20  109 29 20  109 29 20  109 29 20  108 29 20  108 28 20  108 28 20  108 28 20  108 28 20  108 28 20  107 28 20  107 28 20  107 28 20  107 28 20  107 28 20  106 28 20  106 28 20  21 109 58  21 110 59  21 110 59  36 161 89  36 161 89  36 161 89  36 161 89  36 161 89  36 161 89  36 161 89  36 161 89  36 161 89  36 161 89  36 161 89  36 161 88  36 161 88  36 161 88  36 161 88  36 161 88  36 161 88  36 161 88  36 161 88  36 161 88  36 161 88  36 161 88  36 161 88  36 161 88  36 161 88  36 160 88  36 160 88  36 160 88  36 160 88  36 160 88  36 160 88  35 160 88  35 160 88  35 160 88  35 160 88  35 160 88  35 160 88  35 160 88  35 160 88  35 160 88  35 160 88  35 160 88  35 160 88  35 160 88  35 160 88  35 160 88  35 160 88  35 160 88  35 160 88  35 160 88  35 160 88  35 160 88  35 160 88  35 160 88  35 160 88  35 159 88  35 159 88  35 159 88  35 159 88  35 159 88  35 159 88  35 159 88  35 159 88  35 159 88  35 159 87  35 159 87  35 159 87  35 159 87  108 88 24  108 88 24  108 88 24  108 88 24  108 88 24  108 88 24  108 88 24  108 88 24  108 88 24  108 88 24  108 88 24  108 88 24  108 88 24  108 88 24  155 155 155  155 155 155  155 155 155  155 155 155  155 155 155  155 155 155  155 155 155  155 155 155  155 155 155  155 155 155  155 155 155  155 155 155  155 155 155  155 155 155  155 155 155  155 155 155  155 155 155  155 155 155  155 155 155  155 155 155  155 155 155  155 155 155  155 155 155  155 155 155  155 155 155  154 154 154  154 154 154  154 154 154  154 154 154  154 154 154  154 154 154  154 154 154  154 154 154  154 154 154  154 154 154  154 154 154  154 154 154  154 154 154  154 154 154  154 154 154  154 154 154  154 154 154  154 154 154  154 154 154  154 154 154  154 154 154  154 154 154  154 154 154  154 154 154  154 154 154  154 154 154  154 154 154
154 154 154  154 154 154  154 154 154  154 154 154  154 154 154  154 154 154  154 154 154  154 154 154  154 154 154  154 154 154  154 154 154  154 154 154  154 154 154  154 154 154  154 154 154  154 154 154  154 154 154  154 154 154  154 154 154  154 154 154  155 155 155  155 155 155  155 155 155  155 155 155  155 155 155  155 155 155  155 155 155  155 155 155  155 155 155  155 155 155  155 155 155  155 155 155  155 155 155  155 155 155  155 155 155  155 155 155  155 155 155  104 48 127  104 48 127  104 48 127  104 48 127  104 48 127  104 48 127  104 48 127  104 48 127  104 48 127  104 48 127  104 48 127  104 48 127  104 48 128  104 48 128  104 48 128  104 48 128  104 48 128  104 48 128  104 48 128  104 48 128  104 48 128  104 48 128  104 48 128  104 48 128  104 49 128  105 49 128  105 49 128  105 49 128  105 49 128  105 49 128  105 49 128  105 49 128  105 49 128  105 49 128  105 49 128  105 49 128  105 49 128  105 49 128  105 49 128  105 49 128  105 49 128  105 49 128  105 49 129  105 49 129  105 49 129  105 49 129  105 49 129  105 49 129  105 49 129  105 49 129  105 49 129  105 49 129  105 49 129  105 49 129  105 49 129  105 49 129  105 49 129  105 49 129  105 49 129  105 49 129  105 49 129  105 49 129  105 49 129  105 49 129  105 49 129  105 49 129  106 49 129  106 49 129  106 49 129  106 49 129  106 49 129  106 49 129  106 49 129  106 49 129  106 49 129  106 49 129  106 49 129  106 49 129  106 49 129  106 49 129  106 49 129  106 49 129  106 49 129  106 49 129  106 49 130  106 49 130  106 49 130  106 49 130  106 49 130  106 49 130  103 27 19  103 27 19  103 27 19  103 27 19  103 27 19  103 27 19  103 27 19  104 27 19  104 27 19  105 27 19  105 27 19  105 27 19  105 28 19  106 28 19  106 28 20  106 28 20  106 28 20  107 28 20  107 28 20  107 28 20  107 28 20  107 28 20  107 28 20  108 28 20  108 28 20  108 28 20  108 28 20  108 28 20  108 28 20  108 28 20  108 28 20  108 28 20  108 28 20  108 28 20  108 28 20  108 28 20  108 28 20  108 28 20  108 28 20  108 28 20  108 28 20  108 28 20  108 28 20  107 28 20  107 28 20  107 28 20  107 28 20  107 28 20  107 28 20  106 28 20  106 28 20  106 28 20  106 28 19  105 28 19  105 27 19  105 27 19  21 109 58  21 110 59  21 110 59  36 161 89  36 161 89  36 161 89  36 161 89  36 161 89  36 161 89  36 161 89  36 161 89  36 161 89  36 161 89  36 161 89  36 161 89  36 161 89  36 161 89  36 161 89  36 161 89  36 161 89  36 161 89  36 161 89  36 161 89  36 161 89  36 161 89  36 161 89  36 161 89  36 161 89  36 161 89  36 161 88  36 161 88  36 161 88  36 161 88  36 161 88  36 161 88  36 161 88  36 161 88  36 161 88  36 161 88  36 161 88  36 160 88  36 160 88  36 160 88  36 160 88  36 160 88  36 160 88  35 160 88  35 160 88  35 160 88  35 160 88  35 160 88  35 160 88  35 160 88  35 160 88  35 160 88  35 160 88  35 160 88  35 160 88  35 160 88  35 160 88  35 160 88  35 160 88  35 160 88  35 160 88  35 160 88  35 160 88  35 160 88  35 159 88  35 159 88  35 159 88  35 159 88  35 159 88  108 88 24  108 88 24  108 88 24  108 88 24  108 88 24  108 88 24  108 88 24  108 88 24  108 88 24  108 88 24  108 88 24  108 88 24  108 88 24  155 155 155  155 155 155  155 155 155  155 155 155  155 155 155  155 155 155  155 155 155  155 155 155  155 155 155  155 155 155  155 155 155  155 155 155  155 155 155  155 155 155  155 155 155  155 155 155  155 155 155  155 155 155  155 155 155  155 155 155  155 155 155  155 155 155  155 155 155  155 155 155  155 155 155  155 155 155  155 155 155  155 155 155  155 155 155  155 155 155  155 155 155  155 155 155  154 154 154  154 154 154  154 154 154  154 154 154  154 154 154  154 154 154  154 154 154  154 154 154  154 154 154  154 154 154  154 154 154  154 154 154  154 154 154  154 154 154  154 154 154  154 154 154  154 154 154  154 154 154  154 154 154  154 154 154
154 154 154  154 154 154  154 154 154  154 154 154  154 154 154  154 154 154  154 154 154  154 154 154  154 154 154  154 154 154  154 154 154  154 154 154  154 154 154  155 155 155  155 155 155  155 155 155  155 155 155  155 155 155  155 155 155  155 155 155  155 155 155  155 155 155  155 155 155  155 155 155  155 155 155  155 155 155  155 155 155  155 155 155  155 155 155  155 155 155  155 155 155  155 155 155  155 155 155  155 155 155  155 155 155  155 155 155  155 155 155  104 48 127  104 48 127  104 48 127  104 48 127  104 48 127  104 48 127  104 48 127  104 48 127  104 48 127  104 48 127  104 48 127  104 48 127  104 48 127  104 48 127  104 48 127  104 48 128  104 48 128  104 48 128  104 48 128  104 48 128  104 48 128  104 48 128  104 48 128  104 48 128  104 48 128  104 48 128  104 48 128  104 49 128  105 49 128  105 49 128  105 49 128  105 49 128  105 49 128  105 49 128  105 49 128  105 49 128  105 49 128  105 49 128  105 49 128  105 49 128  105 49 128  105 49 128  105 49 128  105 49 128  105 49 128  105 49 128  105 49 129  105 49 129  105 49 129  105 49 129  105 49 129  105 49 129  105 49 129  105 49 129  105 49 129  105 49 129  105 49 129  105 49 129  105 49 129  105 49 129  105 49 129  105 49 129  105 49 129  105 49 129  105 49 129  105 49 129  105 49 129  105 49 129  105 49 129  105 49 129  105 49 129  105 49 129  106 49 129  106 49 129  106 49 129  106 49 129  106 49 129  106 49 129  106 49 129  106 49 129  106 49 129  106 49 129  106 49 129  106 49 129  106 49 129  106 49 129  106 49 129  106 49 129  106 49 129  106 49 129  103 27 19  103 27 19  103 27 19  103 27 19  103 27 19  103 27 19  103 27 19  103 27 19  103 27 19  103 27 19  104 27 19  104 27 19  104 27 19  105 27 19  105 27 19  105 27 19  105 27 19  106 28 19  106 28 20  106 28 20  106 28 20  106 28 20  107 28 20  107 28 20  107 28 20  107 28 20  107 28 20  107 28 20  107 28 20  107 28 20  107 28 20  107 28 20  107 28 20  107 28 20  107 28 20  107 28 20  107 28 20  107 28 20  107 28 20  107 28 20  107 28 20  107 28 20  107 28 20  107 28 20  106 28 20  106 28 20  106 28 20  106 28 20  106 28 19  105 27 19  105 27 19  105 27 19  105 27 19  104 27 19  104 27 19  104 27 19  21 109 58  21 110 59  21 110 59  21 110 59  36 162 89  36 162 89  36 162 89  36 162 89  36 162 89  36 162 89  36 162 89  36 162 89  36 162 89  36 162 89  36 162 89  36 162 89  36 162 89  36 161 89  36 161 89  36 161 89  36 161 89  36 161 89  36 161 89  36 161 89  36 161 89  36 161 89  36 161 89  36 161 89  36 161 89  36 161 89  36 161 89  36 161 89  36 161 89  36 161 89  36 161 89  36 161 89  36 161 89  36 161 89  36 161 89  36 161 89  36 161 89  36 161 88  36 161 88  36 161 88  36 161 88  36 161 88  36 161 88  36 161 88  36 161 88  36 161 88  36 160 88  36 160 88  36 160 88  36 160 88  36 160 88  35 160 88  35 160 88  35 160 88  35 160 88  35 160 88  35 160 88  35 160 88  35 160 88  35 160 88  35 160 88  35 160 88  35 160 88  35 160 88  35 160 88  35 160 88  35 160 88  35 160 88  35 160 88  108 88 24  108 88 24  108 88 24  108 88 24  108 88 24  108 88 24  108 88 24  108 88 24  108 88 24  108 88 24  108 88 24  108 88 24  108 88 24  155 155 155  155 155 155  155 155 155  155 155 155  155 155 155  155 155 155  155 155 155  155 155 155  155 155 155  155 155 155  155 155 155  155 155 155  155 155 155  155 155 155  155 155 155  155 155 155  155 155 155  155 155 155  155 155 155  155 155 155  155 155 155  155 155 155  155 155 155  155 155 155  155 155 155  155 155 155  155 155 155  155 155 155  155 155 155  155 155 155  155 155 155  155 155 155  155 155 155  155 155 155  155 155 155  155 155 155  155 155 155  155 155 155  155 155 155  154 154 154  154 154 154  154 154 154  154 154 154  154 154 154  154 154 154  154 154 154  154 154 154  154 154 154  154 154 154  154 154 154  154 154 154
154 154 154  154 154 154  154 154 154  154 154 154  154 154 154  154 154 154  155 155 155  155 155 155  155 155 155  155 155 155  155 155 155  155 155 155  155 155 155  155 155 155  155 155 155  155 155 155  155 155 155  155 155 155  155 155 155  155 155 155  155 155 155  155 155 155  155 155 155  155 155 155  155 155 155  155 155 155  155 155 155  155 155 155  155 155 155  155 155 155  155 155 155  155 155 155  155 155 155  155 155 155  155 155 155  155 155 155  155 155 155  104 48 127  104 48 127  104 48 127  104 48 127  104 48 127  104 48 127  104 48 127  104 48 127  104 48 127  104 48 127  104 48 127  104 48 127  104 48 127  104 48 127  104 48 127  104 48 127  104 48 127  104 48 127  104 48 128  104 48 128  104 48 128  104 48 128  104 48 128  104 48 128  104 48 128  104 48 128  104 48 128  104 48 128  104 48 128  104 48 128  104 49 128  104 49 128  105 49 128  105 49 128  105 49 128  105 49 128  105 49 128  105 49 128  105 49 128  105 49 128  105 49 128  105 49 128  105 49 128  105 49 128  105 49 128  105 49 128  105 49 128  105 49 128  105 49 128  105 49 128  105 49 129  105 49 129  105 49 129  105 49 129  105 49 129  105 49 129  105 49 129  105 49 129  105 49 129  105 49 129  105 49 129  105 49 129  105 49 129  105 49 129  105 49 129  105 49 129  105 49 129  105 49 129  105 49 129  105 49 129  105 49 129  105 49 129  105 49 129  105 49 129  105 49 129  105 49 129  105 49 129  105 49 129  106 49 129  106 49 129  106 49 129  106 49 129  106 49 129  106 49 129  106 49 129  106 49 129  106 49 129  106 49 129  106 49 129  106 49 129  103 27 19  103 27 19  103 27 19  103 27 19  103 27 19  103 27 19  103 27 19  103 27 19  103 27 19  103 27 19  103 27 19  103 27 19  103 27 19  104 27 19  104 27 19  104 27 19  104 27 19  105 27 19  105 27 19  105 27 19  105 27 19  105 27 19  105 28 19  106 28 19  106 28 19  106 28 20  106 28 20  106 28 20  106 28 20  106 28 20  106 28 20  106 28 20  106 28 20  106 28 20  106 28 20  106 28 20  106 28 20  106 28 20  106 28 20  106 28 20  106 28 20  106 28 19  106 28 19  105 28 19  105 27 19  105 27 19  105 27 19  105 27 19  105 27 19  104 27 19  104 27 19  104 27 19  104 27 19  103 27 19  103 27 19  103 27 19  21 109 58  21 110 59  21 110 59  21 110 59  36 162 89  36 162 89  36 162 89  36 162 89  36 162 89  36 162 89  36 162 89  36 162 89  36 162 89  36 162 89  36 162 89  36 162 89  36 162 89  36 162 89  36 162 89  36 162 89  36 162 89  36 162 89  36 162 89  36 162 89  36 162 89  36 162 89  36 162 89  36 162 89  36 162 89  36 162 89  36 162 89  36 161 89  36 161 89  36 161 89  36 161 89  36 161 89  36 161 89  36 161 89  36 161 89  36 161 89  36 161 89  36 161 89  36 161 89  36 161 89  36 161 89  36 161 89  36 161 89  36 161 89  36 161 89  36 161 89  36 161 89  36 161 88  36 161 88  36 161 88  36 161 88  36 161 88  36 161 88  36 161 88  36 161 88  36 160 88  36 160 88  36 160 88  36 160 88  36 160 88  35 160 88  35 160 88  35 160 88  35 160 88  35 160 88  35 160 88  35 160 88  35 160 88  35 160 88  35 160 88  108 88 24  108 88 24  108 88 24  108 88 24  108 88 24  108 88 24  108 88 24  108 88 24  108 88 24  108 88 24  108 88 24  108 88 24  156 156 156  156 156 156  156 156 156  156 156 156  156 156 156  156 156 156  156 156 156  156 156 156  155 155 155  155 155 155  155 155 155  155 155 155  155 155 155  155 155 155  155 155 155  155 155 155  155 155 155  155 155 155  155 155 155  155 155 155  155 155 155  155 155 155  155 155 155  155 155 155  155 155 155  155 155 155  155 155 155  155 155 155  155 155 155  155 155 155  155 155 155  155 155 155  155 155 155  155 155 155  155 155 155  155 155 155  155 155 155  155 155 155  155 155 155  155 155 155  155 155 155  155 155 155  155 155 155  155 155 155  155 155 155  154 154 154  154 154 154  154 154 154  154 154 154  154 154 154  154 154 154
155 155 155  155 155 155  155 155 155  155 155 155  155 155 155  155 155 155  155 155 155  155 155 155  155 155 155  155 155 155  155 155 155  155 155 155  155 155 155  155 155 155  155 155 155  155 155 155  155 155 155  155 155 155  155 155 155  155 155 155  155 155 155  155 155 155  155 155 155  155 155 155  155 155 155  155 155 155  155 155 155  155 155 155  155 155 155  155 155 155  155 155 155  155 155 155  155 155 155  155 155 155  155 155 155  155 155 155  156 156 156  104 48 127  104 48 127  104 48 127  104 48 127  104 48 127  104 48 127  104 48 127  104 48 127  104 48 127  104 48 127  104 48 127  104 48 127  104 48 127  104 48 127  104 48 127  104 48 127  104 48 127  104 48 127  104 48 127  104 48 127  104 48 127  104 48 128  104 48 128  104 48 128  104 48 128  104 48 128  104 48 128  104 48 128  104 48 128  104 48 128  104 48 128  104 48 128  104 48 128  104 48 128  104 49 128  105 49 128  105 49 128  105 49 128  105 49 128  105 49 128  105 49 128  105 49 128  105 49 128  105 49 128  105 49 128  105 49 128  105 49 128  105 49 128  105 49 128  105 49 128  105 49 128  105 49 128  105 49 128  105 49 128  105 49 128  105 49 129  105 49 129  105 49 129  105 49 129  105 49 129  105 49 129  105 49 129  105 49 129  105 49 129  105 49 129  105 49 129  105 49 129  105 49 129  105 49 129  105 49 129  105 49 129  105 49 129  105 49 129  105 49 129  105 49 129  105 49 129  105 49 129  105 49 129  105 49 129  105 49 129  105 49 129  105 49 129  105 49 129  105 49 129  105 49 129  105 49 129  106 49 129  106 49 129  106 49 129  106 49 129  103 27 19  103 27 19  103 27 19  103 27 19  103 27 19  103 27 19  103 27 19  103 27 19  103 27 19  103 27 19  103 27 19  103 27 19  103 27 19  103 27 19  103 27 19  103 27 19  103 27 19  104 27 19  104 27 19  104 27 19  104 27 19  104 27 19  104 27 19  105 27 19  105 27 19  105 27 19  105 27 19  105 27 19  105 27 19  105 27 19  105 27 19  105 27 19  105 27 19  105 27 19  105 27 19  105 27 19  105 27 19  105 27 19  105 27 19  105 27 19  105 27 19  105 27 19  105 27 19  104 27 19  104 27 19  104 27 19  104 27 19  104 27 19  104 27 19  103 27 19  103 27 19  103 27 19  103 27 19  103 27 19  103 27 19  103 27 19  21 109 58  21 110 59  21 110 59  21 110 59  36 162 89  36 162 89  36 162 89  36 162 89  36 162 89  36 162 89  36 162 89  36 162 89  36 162 89  36 162 89  36 162 89  36 162 89  36 162 89  36 162 89  36 162 89  36 162 89  36 162 89  36 162 89  36 162 89  36 162 89  36 162 89  36 162 89  36 162 89  36 162 89  36 162 89  36 162 89  36 162 89  36 162 89  36 162 89  36 162 89  36 162 89  36 162 89  36 162 89  36 162 89  36 162 89  36 162 89  36 162 89  36 162 89  36 161 89  36 161 89  36 161 89  36 161 89  36 161 89  36 161 89  36 161 89  36 161 89  36 161 89  36 161 89  36 161 89  36 161 89  36 161 89  36 161 89  36 161 89  36 161 89  36 161 89  36 161 89  36 161 88  36 161 88  36 161 88  36 161 88  36 161 88  36 161 88  36 161 88  36 160 88  36 160 88  36 160 88  36 160 88  36 160 88  35 160 88  35 160 88  35 160 88  108 88 24  108 88 24  108 88 24  108 88 24  108 88 24  108 88 24  108 88 24  108 88 24  108 88 24  108 88 23  108 88 23  156 156 156  156 156 156  156 156 156  156 156 156  156 156 156  156 156 156  156 156 156  156 156 156  156 156 156  156 156 156  156 156 156  156 156 156  156 156 156  156 156 156  156 156 156  156 156 156  155 155 155  155 155 155  155 155 155  155 155 155  155 155 155  155 155 155  155 155 155  155 155 155  155 155 155  155 155 155  155 155 155  155 155 155  155 155 155  155 155 155  155 155 155  155 155 155  155 155 155  155 155 155  155 155 155  155 155 155  155 155 155  155 155 155  155 155 155  155 155 155  155 155 155  155 155 155  155 155 155  155 155 155  155 155 155  155 155 155  155 155 155  155 155 155  155 155 155  155 155 155  155 155 155
155 155 155  155 155 155  155 155 155  155 155 155  155 155 155  155 155 155  155 155 155  155 155 155  155 155 155  155 155 155  155 155 155  155 155 155  155 155 155  155 155 155  155 155 155  155 155 155  155 155 155  155 155 155  155 155 155  155 155 155  155 155 155  155 155 155  155 155 155  155 155 155  155 155 155  155 155 155  155 155 155  155 155 155  155 155 155  156 156 156  156 156 156  156 156 156  156 156 156  156 156 156  156 156 156  156 156 156  156 156 156  156 156 156  103 48 127  103 48 127  104 48 127  104 48 127  104 48 127  104 48 127  104 48 127  104 48 127  104 48 127  104 48 127  104 48 127  104 48 127  104 48 127  104 48 127  104 48 127  104 48 127  104 48 127  104 48 127  104 48 127  104 48 127  104 48 127  104 48 127  104 48 127  104 48 127  104 48 128  104 48 128  104 48 128  104 48 128  104 48 128  104 48 128  104 48 128  104 48 128  104 48 128  104 48 128  104 48 128  104 48 128  104 49 128  104 49 128  105 49 128  105 49 128  105 49 128  105 49 128  105 49 128  105 49 128  105 49 128  105 49 128  105 49 128  105 49 128  105 49 128  105 49 128  105 49 128  105 49 128  105 49 128  105 49 128  105 49 128  105 49 128  105 49 128  105 49 128  105 49 128  105 49 129  105 49 129  105 49 129  105 49 129  105 49 129  105 49 129  105 49 129  105 49 129  105 49 129  105 49 129  105 49 129  105 49 129  105 49 129  105 49 129  105 49 129  105 49 129  105 49 129  105 49 129  105 49 129  105 49 129  105 49 129  105 49 129  105 49 129  105 49 129  105 49 129  105 49 129  105 49 129  105 49 129  105 49 129  105 49 129  108 108 108  103 27 19  103 27 19  103 27 19  103 27 19  103 27 19  103 27 19  103 27 19  103 27 19  103 27 19  103 27 19  103 27 19  103 27 19  103 27 19  103 27 19  103 27 19  103 27 19  103 27 19  103 27 19  103 27 19  103 27 19  103 27 19  103 27 19  103 27 19  104 27 19  104 27 19  104 27 19  104 27 19  104 27 19  104 27 19  104 27 19  104 27 19  104 27 19  104 27 19  104 27 19  104 27 19  104 27 19  104 27 19  104 27 19  104 27 19  104 27 19  104 27 19  103 27 19  103 27 19  103 27 19  103 27 19  103 27 19  103 27 19  103 27 19  103 27 19  103 27 19  103 27 19  103 27 19  103 27 19  103 27 19  103 27 19  21 109 58  21 110 59  21 110 59  21 110 59  21 111 59  36 163 90  36 163 90  36 163 90  36 163 90  36 163 90  36 163 90  36 163 90  36 163 90  36 163 90  36 163 90  36 163 90  36 163 90  36 163 89  36 162 89  36 162 89  36 162 89  36 162 89  36 162 89  36 162 89  36 162 89  36 162 89  36 162 89  36 162 89  36 162 89  36 162 89  36 162 89  36 162 89  36 162 89  36 162 89  36 162 89  36 162 89  36 162 89  36 162 89  36 162 89  36 162 89  36 162 89  36 162 89  36 162 89  36 162 89  36 162 89  36 162 89  36 162 89  36 162 89  36 162 89  36 162 89  36 162 89  36 161 89  36 161 89  36 161 89  36 161 89  36 161 89  36 161 89  36 161 89  36 161 89  36 161 89  36 161 89  36 161 89  36 161 89  36 161 89  36 161 89  36 161 89  36 161 89  36 161 88  36 161 88  36 161 88  36 161 88  36 161 88  36 161 88  36 161 88  36 161 88  36 160 88  108 88 24  108 88 24  108 88 24  108 88 24  108 88 24  108 88 23  108 88 23  108 88 23  108 88 23  108 88 23  156 156 156  156 156 156  156 156 156  156 156 156  156 156 156  156 156 156  156 156 156  156 156 156  156 156 156  156 156 156  156 156 156  156 156 156  156 156 156  156 156 156  156 156 156  156 156 156  156 156 156  156 156 156  156 156 156  156 156 156  156 156 156  156 156 156  156 156 156  155 155 155  155 155 155  155 155 155  155 155 155  155 155 155  155 155 155  155 155 155  155 155 155  155 155 155  155 155 155  155 155 155  155 155 155  155 155 155  155 155 155  155 155 155  155 155 155  155 155 155  155 155 155  155 155 155  155 155 155  155 155 155  155 155 155  155 155 155  155 155 155  155 155 155  155 155 155  155 155 155  155 155 155
155 155 155  155 155 155  155 155 155  155 155 155  155 155 155  155 155 155  155 155 155  155 155 155  155 155 155  155 155 155  155 155 155  155 155 155  155 155 155  155 155 155  155 155 155  155 155 155  155 155 155  155 155 155  155 155 155  155 155 155  155 155 155  155 155 155  156 156 156  156 156 156  156 156 156  156 156 156  156 156 156  156 156 156  156 156 156  156 156 156  156 156 156  156 156 156  156 156 156  156 156 156  156 156 156  156 156 156  156 156 156  156 156 156  103 48 127  103 48 127  103 48 127  103 48 127  103 48 127  104 48 127  104 48 127  104 48 127  104 48 127  104 48 127  104 48 127  104 48 127  104 48 127  104 48 127  104 48 127  104 48 127  104 48 127  104 48 127  104 48 127  104 48 127  104 48 127  104 48 127  104 48 127  104 48 127  104 48 127  104 48 127  104 48 127  104 48 128  104 48 128  104 48 128  104 48 128  104 48 128  104 48 128  104 48 128  104 48 128  104 48 128  104 48 128  104 48 128  104 48 128  104 48 128  104 49 128  104 49 128  105 49 128  105 49 128  105 49 128  105 49 128  105 49 128  105 49 128  105 49 128  105 49 128  105 49 128  105 49 128  105 49 128  105 49 128  105 49 128  105 49 128  105 49 128  105 49 128  105 49 128  105 49 128  105 49 128  105 49 128  105 49 128  105 49 128  105 49 129  105 49 129  105 49 129  105 49 129  105 49 129  105 49 129  105 49 129  105 49 129  105 49 129  105 49 129  105 49 129  105 49 129  105 49 129  105 49 129  105 49 129  105 49 129  105 49 129  105 49 129  105 49 129  105 49 129  105 49 129  105 49 129  105 49 129  105 49 129  105 49 129  108 108 108  108 108 108  108 108 108  103 27 19  103 27 19  103 27 19  103 27 19  103 27 19  103 27 19  103 27 19  103 27 19  103 27 19  103 27 19  103 27 19  103 27 19  103 27 19  103 27 19  103 27 19  103 27 19  103 27 19  103 27 19  103 27 19  103 27 19  103 27 19  103 27 19  103 27 19  103 27 19  103 27 19  103 27 19  103 27 19  103 27 19  103 27 19  103 27 19  103 27 19  103 27 19  103 27 19  103 27 19  103 27 19  103 27 19  103 27 19  103 27 19  103 27 19  103 27 19  103 27 19  103 27 19  103 27 19  103 27 19  103 27 19  103 27 19  103 27 19  103 27 19  103 27 19  103 27 19  103 27 19  103 27 19  103 27 19  21 109 58  21 110 59  21 110 59  21 110 59  21 111 59  36 163 90  36 163 90  36 163 90  36 163 90  36 163 90  36 163 90  36 163 90  36 163 90  36 163 90  36 163 90  36 163 90  36 163 90  36 163 90  36 163 90  36 163 90  36 163 90  36 163 90  36 163 90  36 163 90  36 163 90  36 163 90  36 163 90  36 163 90  36 163 90  36 163 90  36 163 89  36 162 89  36 162 89  36 162 89  36 162 89  36 162 89  36 162 89  36 162 89  36 162 89  36 162 89  36 162 89  36 162 89  36 162 89  36 162 89  36 162 89  36 162 89  36 162 89  36 162 89  36 162 89  36 162 89  36 162 89  36 162 89  36 162 89  36 162 89  36 162 89  36 162 89  36 162 89  36 162 89  36 162 89  36 161 89  36 161 89  36 161 89  36 161 89  36 161 89  36 161 89  36 161 89  36 161 89  36 161 89  36 161 89  36 161 89  36 161 89  36 161 89  36 161 89  36 161 89  36 161 89  36 161 88  36 161 88  108 88 24  108 88 23  108 88 23  108 88 23  108 88 23  108 88 23  108 88 23  108 88 23  108 88 23  156 156 156  156 156 156  156 156 156  156 156 156  156 156 156  156 156 156  156 156 156  156 156 156  156 156 156  156 156 156  156 156 156  156 156 156  156 156 156  156 156 156  156 156 156  156 156 156  156 156 156  156 156 156  156 156 156  156 156 156  156 156 156  156 156 156  156 156 156  156 156 156  156 156 156  156 156 156  156 156 156  156 156 156  156 156 156  156 156 156  155 155 155  155 155 155  155 155 155  155 155 155  155 155 155  155 155 155  155 155 155  155 155 155  155 155 155  155 155 155  155 155 155  155 155 155  155 155 155  155 155 155  155 155 155  155 155 155  155 155 155  155 155 155  155 155 155  155 155 155  155 155 155
155 155 155  155 155 155  155 155 155  155 155 155  155 155 155  155 155 155  155 155 155  155 155 155  155 155 155  155 155 155  155 155 155  155 155 155  155 155 155  155 155 155  155 155 155  156 156 156  156 156 156  156 156 156  156 156 156  156 156 156  156 156 156  156 156 156  156 156 156  156 156 156  156 156 156  156 156 156  156 156 156  156 156 156  156 156 156  156 156 156  156 156 156  156 156 156  156 156 156  156 156 156  156 156 156  156 156 156  156 156 156  156 156 156  156 156 156  103 48 127  103 48 127  103 48 127  103 48 127  103 48 127  103 48 127  104 48 127  104 48 127  104 48 127  104 48 127  104 48 127  104 48 127  104 48 127  104 48 127  104 48 127  104 48 127  104 48 127  104 48 127  104 48 127  104 48 127  104 48 127  104 48 127  104 48 127  104 48 127  104 48 127  104 48 127  104 48 127  104 48 127  104 48 127  104 48 127  104 48 128  104 48 128  104 48 128  104 48 128  104 48 128  104 48 128  104 48 128  104 48 128  104 48 128  104 48 128  104 48 128  104 48 128  104 48 128  104 49 128  104 49 128  105 49 128  105 49 128  105 49 128  105 49 128  105 49 128  105 49 128  105 49 128  105 49 128  105 49 128  105 49 128  105 49 128  105 49 128  105 49 128  105 49 128  105 49 128  105 49 128  105 49 128  105 49 128  105 49 128  105 49 128  105 49 128  105 49 128  105 49 128  105 49 128  105 49 129  105 49 129  105 49 129  105 49 129  105 49 129  105 49 129  105 49 129  105 49 129  105 49 129  105 49 129  105 49 129  105 49 129  105 49 129  105 49 129  105 49 129  105 49 129  105 49 129  105 49 129  108 108 108  108 108 108  108 108 108  108 108 108  108 108 108  108 108 108  108 108 108  103 27 19  103 27 19  103 27 19  103 27 19  103 27 19  103 27 19  103 27 19  103 27 19  103 27 19  103 27 19  103 27 19  103 27 19  103 27 19  103 27 19  103 27 19  103 27 19  103 27 19  103 27 19  103 27 19  103 27 19  103 27 19  103 27 19  103 27 19  103 27 19  103 27 19  103 27 19  103 27 19  103 27 19  103 27 19  103 27 19  103 27 19  103 27 19  103 27 19  103 27 19  103 27 19  103 27 19  103 27 19  103 27 19  103 27 19  103 27 19  103 27 19  103 27 19  103 27 19  103 27 19  103 27 19  103 27 19  103 27 19  103 27 19  103 27 19  103 27 19  21 109 58  21 110 59  21 110 59  21 110 59  21 110 59  36 163 90  36 163 90  36 163 90  36 163 90  36 163 90  36 163 90  36 163 90  36 163 90  36 163 90  36 163 90  36 163 90  36 163 90  36 163 90  36 163 90  36 163 90  36 163 90  36 163 90  36 163 90  36 163 90  36 163 90  36 163 90  36 163 90  36 163 90  36 163 90  36 163 90  36 163 90  36 163 90  36 163 90  36 163 90  36 163 90  36 163 90  36 163 90  36 163 90  36 163 90  36 163 90  36 163 89  36 162 89  36 162 89  36 162 89  36 162 89  36 162 89  36 162 89  36 162 89  36 162 89  36 162 89  36 162 89  36 162 89  36 162 89  36 162 89  36 162 89  36 162 89  36 162 89  36 162 89  36 162 89  36 162 89  36 162 89  36 162 89  36 162 89  36 162 89  36 162 89  36 162 89  36 162 89  36 161 89  36 161 89  36 161 89  36 161 89  36 161 89  36 161 89  36 161 89  36 161 89  36 161 89  36 161 89  36 161 89  108 88 23  108 88 23  108 88 23  108 88 23  108 88 23  107 88 23  107 88 23  157 157 157  157 157 157  156 156 156  156 156 156  156 156 156  156 156 156  156 156 156  156 156 156  156 156 156  156 156 156  156 156 156  156 156 156  156 156 156  156 156 156  156 156 156  156 156 156  156 156 156  156 156 156  156 156 156  156 156 156  156 156 156  156 156 156  156 156 156  156 156 156  156 156 156  156 156 156  156 156 156  156 156 156  156 156 156  156 156 156  156 156 156  156 156 156  156 156 156  156 156 156  156 156 156  156 156 156  156 156 156  155 155 155  155 155 155  155 155 155  155 155 155  155 155 155  155 155 155  155 155 155  155 155 155  155 155 155  155 155 155  155 155 155  155 155 155  155 155 155  155 155 155  155 155 155
155 155 155  155 155 155  155 155 155  155 155 155  155 155 155  155 155 155  155 155 155  155 155 155  155 155 155  156 156 156  156 156 156  156 156 156  156 156 156  156 156 156  156 156 156  156 156 156  156 156 156  156 156 156  156 156 156  156 156 156  156 156 156  156 156 156  156 156 156  156 156 156  156 156 156  156 156 156  156 156 156  156 156 156  156 156 156  156 156 156  156 156 156  156 156 156  156 156 156  156 156 156  156 156 156  156 156 156  156 156 156  156 156 156  156 156 156  103 48 126  103 48 126  103 48 127  103 48 127  103 48 127  103 48 127  103 48 127  103 48 127  103 48 127  104 48 127  104 48 127  104 48 127  104 48 127  104 48 127  104 48 127  104 48 127  104 48 127  104 48 127  104 48 127  104 48 127  104 48 127  104 48 127  104 48 127  104 48 127  104 48 127  104 48 127  104 48 127  104 48 127  104 48 127  104 48 127  104 48 127  104 48 127  104 48 127  104 48 128  104 48 128  104 48 128  104 48 128  104 48 128  104 48 128  104 48 128  104 48 128  104 48 128  104 48 128  104 48 128  104 48 128  104 48 128  104 48 128  104 48 128  104 49 128  104 49 128  105 49 128  105 49 128  105 49 128  105 49 128  105 49 128  105 49 128  105 49 128  105 49 128  105 49 128  105 49 128  105 49 128  105 49 128  105 49 128  105 49 128  105 49 128  105 49 128  105 49 128  105 49 128  105 49 128  105 49 128  105 49 128  105 49 128  105 49 128  105 49 128  105 49 128  105 49 129  105 49 129  105 49 129  105 49 129  105 49 129  105 49 129  105 49 129  105 49 129  105 49 129  105 49 129  105 49 129  105 49 129  108 108 108  108 108 108  108 108 108  108 108 108  108 108 108  108 108 108  108 108 108  108 108 108  108 108 108  103 27 19  103 27 19  103 27 19  103 27 19  103 27 19  103 27 19  103 27 19  103 27 19  103 27 19  103 27 19  103 27 19  103 27 19  103 27 19  103 27 19  103 27 19  103 27 19  103 27 19  103 27 19  103 27 19  103 27 19  103 27 19  103 27 19  103 27 19  103 27 19  103 27 19  103 27 19  103 27 19  103 27 19  103 27 19  103 27 19  103 27 19  103 27 19  103 27 19  103 27 19  103 27 19  103 27 19  103 27 19  103 27 19  103 27 19  103 27 19  103 27 19  103 27 19  103 27 19  103 27 19  103 27 19  103 27 19  103 27 19  103 27 19  21 109 58  21 110 59  21 110 59  21 110 59  21 110 59  22 111 59  36 164 90  36 164 90  36 164 90  36 164 90  36 164 90  36 164 90  36 164 90  36 164 90  36 164 90  36 164 90  36 163 90  36 163 90  36 163 90  36 163 90  36 163 90  36 163 90  36 163 90  36 163 90  36 163 90  36 163 90  36 163 90  36 163 90  36 163 90  36 163 90  36 163 90  36 163 90  36 163 90  36 163 90  36 163 90  36 163 90  36 163 90  36 163 90  36 163 90  36 163 90  36 163 90  36 163 90  36 163 90  36 163 90  36 163 90  36 163 90  36 163 90  36 163 90  36 163 90  36 163 89  36 162 89  36 162 89  36 162 89  36 162 89  36 162 89  36 162 89  36 162 89  36 162 89  36 162 89  36 162 89  36 162 89  36 162 89  36 162 89  36 162 89  36 162 89  36 162 89  36 162 89  36 162 89  36 162 89  36 162 89  36 162 89  36 162 89  36 162 89  36 162 89  36 161 89  36 161 89  36 161 89  36 161 89  36 161 89  108 88 23  107 88 23  107 88 23  107 88 23  107 88 23  107 88 23  157 157 157  157 157 157  157 157 157  157 157 157  157 157 157  157 157 157  157 157 157  157 157 157  157 157 157  157 157 157  156 156 156  156 156 156  156 156 156  156 156 156  156 156 156  156 156 156  156 156 156  156 156 156  156 156 156  156 156 156  156 156 156  156 156 156  156 156 156  156 156 156  156 156 156  156 156 156  156 156 156  156 156 156  156 156 156  156 156 156  156 156 156  156 156 156  156 156 156  156 156 156  156 156 156  156 156 156  156 156 156  156 156 156  156 156 156  156 156 156  156 156 156  156 156 156  156 156 156  156 156 156  155 155 155  155 155 155  155 155 155  155 155 155  155 155 155  155 155 155  155 155 155  155 155 155
155 155 155  155 155 155  155 155 155  156 156 156  156 156 156  156 156 156  156 156 156  156 156 156  156 156 156  156 156 156  156 156 156  156 156 156  156 156 156  156 156 156  156 156 156  156 156 156  156 156 156  156 156 156  156 156 156  156 156 156  156 156 156  156 156 156  156 156 156  156 156 156  156 156 156  156 156 156  156 156 156  156 156 156  156 156 156  156 156 156  156 156 156  156 156 156  156 156 156  156 156 156  156 156 156  156 156 156  157 157 157  157 157 157  157 157 157  157 157 157  103 48 126  103 48 126  103 48 126  103 48 126  103 48 127  103 48 127  103 48 127  103 48 127  103 48 127  103 48 127  103 48 127  104 48 127  104 48 127  104 48 127  104 48 127  104 48 127  104 48 127  104 48 127  104 48 127  104 48 127  104 48 127  104 48 127  104 48 127  104 48 127  104 48 127  104 48 127  104 48 127  104 48 127  104 48 127  104 48 127  104 48 127  104 48 127  104 48 127  104 48 127  104 48 127  104 48 127  104 48 128  104 48 128  104 48 128  104 48 128  104 48 128  104 48 128  104 48 128  104 48 128  104 48 128  104 48 128  104 48 128  104 48 128  104 48 128  104 48 128  104 48 128  104 49 128  104 49 128  105 49 128  105 49 128  105 49 128  105 49 128  105 49 128  105 49 128  105 49 128  105 49 128  105 49 128  105 49 128  105 49 128  105 49 128  105 49 128  105 49 128  105 49 128  105 49 128  105 49 128  105 49 128  105 49 128  105 49 128  105 49 128  105 49 128  105 49 128  105 49 128  105 49 128  105 49 128  105 49 128  105 49 128  105 49 128  105 49 129  105 49 129  105 49 129  108 108 108  108 108 108  108 108 108  108 108 108  108 108 108  108 108 108  108 108 108  108 108 108  108 108 108  108 108 108  108 108 108  108 108 108  108 108 108  103 27 19  103 27 19  103 27 19  103 27 19  103 27 19  103 27 19  103 27 19  103 27 19  103 27 19  103 27 19  103 27 19  103 27 19  103 27 19  103 27 19  103 27 19  103 27 19  103 27 19  103 27 19  103 27 19  103 27 19  103 27 19  103 27 19  103 27 19  103 27 19  103 27 19  103 27 19  103 27 19  103 27 19  103 27 19  103 27 19  103 27 19  103 27 19  103 27 19  103 27 19  103 27 19  103 27 19  103 27 19  103 27 19  103 27 19  103 27 19  103 27 19  103 27 19  103 27 19  103 27 19  108 108 108  21 109 58  21 110 59  21 110 59  21 110 59  21 110 59  22 111 59  36 150 83  36 150 83  36 150 83  36 150 83  36 150 83  36 150 83  36 150 83  36 150 83  36 150 83  36 150 83  36 150 83  36 150 83  36 150 83  36 150 83  35 150 83  35 150 83  35 150 83  35 150 83  35 149 83  35 149 83  35 149 83  35 149 83  35 149 83  35 149 83  35 149 83  35 149 83  35 149 83  35 149 83  35 149 82  35 149 82  35 149 82  35 149 82  35 149 82  35 149 82  35 149 82  35 149 82  35 149 82  35 149 82  35 149 82  35 149 82  35 149 82  35 149 82  35 149 82  35 149 82  35 149 82  35 149 82  35 149 82  35 149 82  35 149 82  35 149 82  35 149 82  35 148 82  35 148 82  34 148 82  34 148 82  34 148 82  34 148 82  34 148 82  34 148 82  34 148 82  34 148 82  34 148 82  34 148 82  34 148 82  34 148 82  34 148 82  34 148 82  34 148 82  34 148 81  34 148 81  34 148 81  34 148 81  34 148 81  107 88 23  107 88 23  107 88 23  107 88 23  107 88 23  157 157 157  157 157 157  157 157 157  157 157 157  157 157 157  157 157 157  157 157 157  157 157 157  157 157 157  157 157 157  157 157 157  157 157 157  157 157 157  157 157 157  157 157 157  157 157 157  157 157 157  157 157 157  156 156 156  156 156 156  156 156 156  156 156 156  156 156 156  156 156 156  156 156 156  156 156 156  156 156 156  156 156 156  156 156 156  156 156 156  156 156 156  156 156 156  156 156 156  156 156 156  156 156 156  156 156 156  156 156 156  156 156 156  156 156 156  156 156 156  156 156 156  156 156 156  156 156 156  156 156 156  156 156 156  156 156 156  156 156 156  156 156 156  156 156 156  156 156 156  156 156 156  155 155 155  155 155 155
156 156 156  156 156 156  156 156 156  156 156 156  156 156 156  156 156 156  156 156 156  156 156 156  156 156 156  156 156 156  156 156 156  156 156 156  156 156 156  156 156 156  156 156 156  156 156 156  156 156 156  156 156 156  156 156 156  156 156 156  156 156 156  156 156 156  156 156 156  156 156 156  156 156 156  156 156 156  156 156 156  156 156 156  156 156 156  157 157 157  157 157 157  157 157 157  157 157 157  157 157 157  157 157 157  157 157 157  157 157 157  157 157 157  157 157 157  157 157 157  103 48 126  103 48 126  103 48 126  103 48 126  103 48 126  103 48 126  103 48 126  103 48 127  103 48 127  103 48 127  103 48 127  103 48 127  103 48 127  103 48 127  104 48 127  104 48 127  104 48 127  104 48 127  104 48 127  104 48 127  104 48 127  104 48 127  104 48 127  104 48 127  104 48 127  104 48 127  104 48 127  104 48 127  104 48 127  104 48 127  104 48 127  104 48 127  104 48 127  104 48 127  104 48 127  104 48 127  104 48 127  104 48 127  104 48 127  104 48 127  104 48 128  104 48 128  104 48 128  104 48 128  104 48 128  104 48 128  104 48 128  104 48 128  104 48 128  104 48 128  104 48 128  104 48 128  104 48 128  104 48 128  104 48 128  104 48 128  104 49 128  104 49 128  105 49 128  105 49 128  105 49 128  105 49 128  105 49 128  105 49 128  105 49 128  105 49 128  105 49 128  105 49 128  105 49 128  105 49 128  105 49 128  105 49 128  105 49 128  105 49 128  105 49 128  105 49 128  105 49 128  105 49 128  105 49 128  105 49 128  105 49 128  105 49 128  105 49 128  105 49 128  105 49 128  108 108 108  108 108 108  108 108 108  108 108 108  108 108 108  108 108 108  108 108 108  108 108 108  108 108 108  108 108 108  108 108 108  108 108 108  108 108 108  108 108 108  108 108 108  108 108 108  103 27 19  103 27 19  103 27 19  103 27 19  103 27 19  103 27 19  103 27 19  103 27 19  103 27 19  103 27 19  103 27 19  103 27 19  103 27 19  103 27 19  103 27 19  103 27 19  103 27 19  103 27 19  103 27 19  103 27 19  103 27 19  103 27 19  103 27 19  103 27 19  103 27 19  103 27 19  103 27 19  103 27 19  103 27 19  103 27 19  103 27 19  103 27 19  103 27 19  103 27 19  103 27 19  103 27 19  103 27 19  103 27 19  108 108 108  108 108 108  108 108 108  108 108 108  21 109 58  21 110 58  21 110 59  21 110 59  21 110 59  21 111 59  36 150 83  36 150 83  36 150 83  36 150 83  36 150 83  35 150 83  35 150 83  35 150 83  35 150 83  35 150 83  35 150 83  35 149 83  35 149 83  35 149 83  35 149 83  35 149 83  35 149 83  35 149 83  35 149 83  35 149 83  35 149 83  35 149 83  35 149 82  35 149 82  35 149 82  35 149 82  35 149 82  35 149 82  35 149 82  35 149 82  35 149 82  35 149 82  35 149 82  35 149 82  35 149 82  35 149 82  35 149 82  35 149 82  35 149 82  35 149 82  35 149 82  35 149 82  35 149 82  35 149 82  35 149 82  35 149 82  35 149 82  35 148 82  34 148 82  34 148 82  34 148 82  34 148 82  34 148 82  34 148 82  34 148 82  34 148 82  34 148 82  34 148 82  34 148 82  34 148 82  34 148 82  34 148 82  34 148 82  34 148 82  34 148 81  34 148 81  34 148 81  34 148 81  34 148 81  34 148 81  34 148 81  34 148 81  34 148 81  107 88 23  107 88 23  107 88 23  107 87 23  157 157 157  157 157 157  157 157 157  157 157 157  157 157 157  157 157 157  157 157 157  157 157 157  157 157 157  157 157 157  157 157 157  157 157 157  157 157 157  157 157 157  157 157 157  157 157 157  157 157 157  157 157 157  157 157 157  157 157 157  157 157 157  157 157 157  157 157 157  157 157 157  157 157 157  156 156 156  156 156 156  156 156 156  156 156 156  156 156 156  156 156 156  156 156 156  156 156 156  156 156 156  156 156 156  156 156 156  156 156 156  156 156 156  156 156 156  156 156 156  156 156 156  156 156 156  156 156 156  156 156 156  156 156 156  156 156 156  156 156 156  156 156 156  156 156 156  156 156 156  156 156 156  156 156 156  156 156 156  156 156 156
156 156 156  156 156 156  156 156 156  156 156 156  156 156 156  156 156 156  156 156 156  156 156 156  156 156 156  156 156 156  156 156 156  156 156 156  156 156 156  156 156 156  156 156 156  156 156 156  156 156 156  156 156 156  156 156 156  156 156 156  156 156 156  156 156 156  156 156 156  157 157 157  157 157 157  157 157 157  157 157 157  157 157 157  157 157 157  157 157 157  157 157 157  157 157 157  157 157 157  157 157 157  157 157 157  157 157 157  157 157 157  157 157 157  148 148 148  148 148 148  148 148 148  103 48 126  103 48 126  103 48 126  103 48 126  103 48 126  103 48 126  103 48 126  103 48 126  103 48 126  103 48 127  103 48 127  103 48 127  103 48 127  103 48 127  103 48 127  103 48 127  103 48 127  104 48 127  104 48 127  104 48 127  104 48 127  104 48 127  104 48 127  104 48 127  104 48 127  104 48 127  104 48 127  104 48 127  104 48 127  104 48 127  104 48 127  104 48 127  104 48 127  104 48 127  104 48 127  104 48 127  104 48 127  104 48 127  104 48 127  104 48 127  104 48 127  104 48 127  104 48 127  104 48 128  104 48 128  104 48 128  104 48 128  104 48 128  104 48 128  104 48 128  104 48 128  104 48 128  104 48 128  104 48 128  104 48 128  104 48 128  104 48 128  104 48 128  104 48 128  104 48 128  104 49 128  104 49 128  104 49 128  105 49 128  105 49 128  105 49 128  105 49 128  105 49 128  105 49 128  105 49 128  105 49 128  105 49 128  105 49 128  105 49 128  105 49 128  105 49 128  105 49 128  105 49 128  105 49 128  105 49 128  105 49 128  105 49 128  105 49 128  108 108 108  108 108 108  108 108 108  108 108 108  108 108 108  108 108 108  108 108 108  108 108 108  108 108 108  108 108 108  108 108 108  108 108 108  108 108 108  108 108 108  108 108 108  108 108 108  108 108 108  108 108 108  108 108 108  108 108 108  108 108 108  103 27 19  103 27 19  103 27 19  103 27 19  103 27 19  103 27 19  103 27 19  103 27 19  103 27 19  103 27 19  103 27 19  103 27 19  103 27 19  103 27 19  103 27 19  103 27 19  103 27 19  103 27 19  103 27 19  103 27 19  103 27 19  103 27 19  103 27 19  103 27 19  103 27 19  103 27 19  103 27 19  103 27 19  103 27 19  103 27 19  108 108 108  108 108 108  108 108 108  108 108 108  108 108 108  108 108 108  108 108 108  108 108 108  21 109 58  21 110 58  21 110 59  21 110 59  21 110 59  21 111 59  35 150 83  35 150 83  35 150 83  35 149 83  35 149 83  35 149 83  35 149 83  35 149 83  35 149 83  35 149 83  35 149 83  35 149 83  35 149 83  35 149 83  35 149 83  35 149 82  35 149 82  35 149 82  35 149 82  35 149 82  35 149 82  35 149 82  35 149 82  35 149 82  35 149 82  35 149 82  35 149 82  35 149 82  35 149 82  35 149 82  35 149 82  35 149 82  35 149 82  35 149 82  35 149 82  35 149 82  35 149 82  35 149 82  35 149 82  35 149 82  35 149 82  35 149 82  34 148 82  34 148 82  34 148 82  34 148 82  34 148 82  34 148 82  34 148 82  34 148 82  34 148 82  34 148 82  34 148 82  34 148 82  34 148 82  34 148 82  34 148 82  34 148 82  34 148 82  34 148 82  34 148 81  34 148 81  34 148 81  34 148 81  34 148 81  34 148 81  34 148 81  34 148 81  34 148 81  34 148 81  34 147 81  34 147 81  34 147 81  107 87 23  107 87 23  107 87 23  148 148 148  148 148 148  157 157 157  157 157 157  157 157 157  157 157 157  157 157 157  157 157 157  157 157 157  157 157 157  157 157 157  157 157 157  157 157 157  157 157 157  157 157 157  157 157 157  157 157 157  157 157 157  157 157 157  157 157 157  157 157 157  157 157 157  157 157 157  157 157 157  157 157 157  157 157 157  157 157 157  157 157 157  157 157 157  157 157 157  157 157 157  157 157 157  157 157 157  156 156 156  156 156 156  156 156 156  156 156 156  156 156 156  156 156 156  156 156 156  156 156 156  156 156 156  156 156 156  156 156 156  156 156 156  156 156 156  156 156 156  156 156 156  156 156 156  156 156 156  156 156 156  156 156 156  156 156 156  156 156 156  156 156 156
156 156 156  156 156 156  156 156 156  156 156 156  156 156 156  156 156 156  156 156 156  156 156 156  156 156 156  156 156 156  156 156 156  156 156 156  156 156 156  156 156 156  156 156 156  156 156 156  156 156 156  157 157 157  157 157 157  157 157 157  157 157 157  157 157 157  157 157 157  157 157 157  157 157 157  157 157 157  157 157 157  157 157 157  157 157 157  157 157 157  157 157 157  157 157 157  157 157 157  157 157 157  148 148 148  148 148 148  148 148 148  148 148 148  148 148 148  148 148 148  148 148 148  148 148 148  103 48 126  103 48 126  103 48 126  103 48 126  103 48 126  103 48 126  103 48 126  103 48 126  103 48 126  103 48 126  103 48 126  103 48 127  103 48 127  103 48 127  103 48 127  103 48 127  103 48 127  103 48 127  103 48 127  104 48 127  104 48 127  104 48 127  104 48 127  104 48 127  104 48 127  104 48 127  104 48 127  104 48 127  104 48 127  104 48 127  104 48 127  104 48 127  104 48 127  104 48 127  104 48 127  104 48 127  104 48 127  104 48 127  104 48 127  104 48 127  104 48 127  104 48 127  104 48 127  104 48 127  104 48 127  104 48 127  104 48 127  104 48 128  104 48 128  104 48 128  104 48 128  104 48 128  104 48 128  104 48 128  104 48 128  104 48 128  104 48 128  104 48 128  104 48 128  104 48 128  104 48 128  104 48 128  104 48 128  104 48 128  104 48 128  104 49 128  104 49 128  104 49 128  105 49 128  105 49 128  105 49 128  105 49 128  105 49 128  105 49 128  105 49 128  105 49 128  105 49 128  105 49 128  105 49 128  105 49 128  105 49 128  105 49 128  108 108 108  108 108 108  108 108 108  108 108 108  108 108 108  108 108 108  108 108 108  108 108 108  108 108 108  108 108 108  108 108 108  108 108 108  108 108 108  108 108 108  108 108 108  108 108 108  108 108 108  108 108 108  108 108 108  108 108 108  108 108 108  108 108 108  108 108 108  108 108 108  108 108 108  108 108 108  108 108 108  108 108 108  103 27 19  103 27 19  103 27 19  103 27 19  103 27 19  103 27 19  103 27 19  103 27 19  103 27 19  103 27 19  103 27 19  103 27 19  103 27 19  103 27 19  103 27 19  103 27 19  108 108 108  108 108 108  108 108 108  108 108 108  108 108 108  108 108 108  108 108 108  108 108 108  108 108 108  108 108 108  108 108 108  108 108 108  108 108 108  108 108 108  108 108 108  21 109 58  21 110 58  21 110 59  21 110 59  21 110 59  35 149 83  35 149 83  35 149 83  35 149 83  35 149 83  35 149 83  35 149 83  35 149 83  35 149 82  35 149 82  35 149 82  35 149 82  35 149 82  35 149 82  35 149 82  35 149 82  35 149 82  35 149 82  35 149 82  35 149 82  35 149 82  35 149 82  35 149 82  35 149 82  35 149 82  35 149 82  35 149 82  35 149 82  35 149 82  35 149 82  35 149 82  35 149 82  35 149 82  35 149 82  35 149 82  35 149 82  35 149 82  34 149 82  34 149 82  34 148 82  34 148 82  34 148 82  34 148 82  34 148 82  34 148 82  34 148 82  34 148 82  34 148 82  34 148 82  34 148 82  34 148 82  34 148 82  34 148 82  34 148 82  34 148 82  34 148 82  34 148 82  34 148 81  34 148 81  34 148 81  34 148 81  34 148 81  34 148 81  34 148 81  34 148 81  34 148 81  34 148 81  34 148 81  34 147 81  34 147 81  34 147 81  34 147 81  34 147 81  34 147 81  107 87 23  107 87 23  148 148 148  148 148 148  148 148 148  148 148 148  158 158 158  158 158 158  158 158 158  158 158 158  157 157 157  157 157 157  157 157 157  157 157 157  157 157 157  157 157 157  157 157 157  157 157 157  157 157 157  157 157 157  157 157 157  157 157 157  157 157 157  157 157 157  157 157 157  157 157 157  157 157 157  157 157 157  157 157 157  157 157 157  157 157 157  157 157 157  157 157 157  157 157 157  157 157 157  157 157 157  157 157 157  157 157 157  157 157 157  157 157 157  157 157 157  157 157 157  156 156 156  156 156 156  156 156 156  156 156 156  156 156 156  156 156 156  156 156 156  156 156 156  156 156 156  156 156 156  156 156 156  156 156 156  156 156 156  156 156 156  156 156 156  156 156 156
156 156 156  156 156 156  156 156 156  156 156 156  156 156 156  156 156 156  156 156 156  156 156 156  156 156 156  156 156 156  156 156 156  157 157 157  157 157 157  157 157 157  157 157 157  157 157 157  157 157 157  157 157 157  157 157 157  157 157 157  157 157 157  157 157 157  157 157 157  157 157 157  157 157 157  157 157 157  157 157 157  157 157 157  157 157 157  157 157 157  148 148 148  148 148 148  148 148 148  148 148 148  148 148 148  148 148 148  148 148 148  148 148 148  148 148 148  148 148 148  148 148 148  148 148 148  148 148 148  103 48 126  103 48 126  103 48 126  103 48 126  103 48 126  103 48 126  103 48 126  103 48 126  103 48 126  103 48 126  103 48 126  103 48 126  103 48 126  103 48 127  103 48 127  103 48 127  103 48 127  103 48 127  103 48 127  103 48 127  103 48 127  103 48 127  104 48 127  104 48 127  104 48 127  104 48 127  104 48 127  104 48 127  104 48 127  104 48 127  104 48 127  104 48 127  104 48 127  104 48 127  104 48 127  104 48 127  104 48 127  104 48 127  104 48 127  104 48 127  104 48 127  104 48 127  104 48 127  104 48 127  104 48 127  104 48 127  104 48 127  104 48 127  104 48 127  104 48 127  104 48 127  104 48 128  104 48 128  104 48 128  104 48 128  104 48 128  104 48 128  104 48 128  104 48 128  104 48 128  104 48 128  104 48 128  104 48 128  104 48 128  104 48 128  104 48 128  104 48 128  104 48 128  104 48 128  104 48 128  104 48 128  104 49 128  104 49 128  104 49 128  105 49 128  105 49 128  105 49 128  105 49 128  105 49 128  105 49 128  124 124 124  108 108 108  108 108 108  108 108 108  108 108 108  108 108 108  108 108 108  108 108 108  108 108 108  108 108 108  108 108 108  108 108 108  108 108 108  108 108 108  108 108 108  108 108 108  108 108 108  108 108 108  108 108 108  108 108 108  108 108 108  108 108 108  108 108 108  108 108 108  108 108 108  108 108 108  108 108 108  108 108 108  108 108 108  108 108 108  108 108 108  108 108 108  108 108 108  108 108 108  108 108 108  108 108 108  108 108 108  108 108 108  108 108 108  108 108 108  108 108 108  108 108 108  108 108 108  108 108 108  108 108 108  108 108 108  108 108 108  108 108 108  108 108 108  108 108 108  108 108 108  108 108 108  108 108 108  108 108 108  108 108 108  108 108 108  108 108 108  108 108 108  108 108 108  108 108 108  21 109 58  21 109 58  21 110 59  21 110 59  21 110 59  35 149 82  35 149 82  35 149 82  35 149 82  35 149 82  35 149 82  35 149 82  35 149 82  35 149 82  35 149 82  35 149 82  35 149 82  35 149 82  35 149 82  35 149 82  35 149 82  35 149 82  35 149 82  35 149 82  35 149 82  35 149 82  35 149 82  35 149 82  35 149 82  35 149 82  35 149 82  35 149 82  35 149 82  35 149 82  35 149 82  34 149 82  34 149 82  34 149 82  34 149 82  34 148 82  34 148 82  34 148 82  34 148 82  34 148 82  34 148 82  34 148 82  34 148 82  34 148 82  34 148 82  34 148 82  34 148 82  34 148 82  34 148 82  34 148 82  34 148 82  34 148 82  34 148 82  34 148 82  34 148 81  34 148 81  34 148 81  34 148 81  34 148 81  34 148 81  34 148 81  34 148 81  34 148 81  34 148 81  34 148 81  34 147 81  34 147 81  34 147 81  34 147 81  34 147 81  34 147 81  34 147 81  34 147 81  34 147 81  34 147 81  107 87 23  148 148 148  148 148 148  148 148 148  148 148 148  148 148 148  148 148 148  158 158 158  158 158 158  158 158 158  158 158 158  158 158 158  158 158 158  158 158 158  158 158 158  158 158 158  157 157 157  157 157 157  157 157 157  157 157 157  157 157 157  157 157 157  157 157 157  157 157 157  157 157 157  157 157 157  157 157 157  157 157 157  157 157 157  157 157 157  157 157 157  157 157 157  157 157 157  157 157 157  157 157 157  157 157 157  157 157 157  157 157 157  157 157 157  157 157 157  157 157 157  157 157 157  157 157 157  157 157 157  157 157 157  157 157 157  157 157 157  156 156 156  156 156 156  156 156 156  156 156 156  156 156 156  156 156 156  156 156 156  156 156 156  156 156 156  156 156 156  156 156 156
156 156 156  156 156 156  156 156 156  156 156 156  156 156 156  156 156 156  157 157 157  157 157 157  157 157 157  157 157 157  157 157 157  157 157 157  157 157 157  157 157 157  157 157 157  157 157 157  157 157 157  157 157 157  157 157 157  157 157 157  157 157 157  157 157 157  157 157 157  157 157 157  157 157 157  157 157 157  157 157 157  157 157 157  148 148 148  148 148 148  148 148 148  148 148 148  148 148 148  148 148 148  148 148 148  148 148 148  148 148 148  148 148 148  148 148 148  148 148 148  148 148 148  148 148 148  148 148 148  103 48 126  103 48 126  103 48 126  103 48 126  103 48 126  103 48 126  103 48 126  103 48 126  103 48 126  103 48 126  103 48 126  103 48 126  103 48 126  103 48 126  103 48 126  103 48 126  103 48 127  103 48 127  103 48 127  103 48 127  103 48 127  103 48 127  103 48 127  103 48 127  103 48 127  104 48 127  104 48 127  104 48 127  104 48 127  104 48 127  104 48 127  104 48 127  104 48 127  104 48 127  104 48 127  104 48 127  104 48 127  104 48 127  104 48 127  104 48 127  104 48 127  104 48 127  104 48 127  104 48 127  104 48 127  104 48 127  104 48 127  104 48 127  104 48 127  104 48 127  104 48 127  104 48 127  104 48 127  104 48 127  104 48 127  104 48 127  104 48 128  104 48 128  104 48 128  104 48 128  104 48 128  104 48 128  104 48 128  104 48 128  104 48 128  104 48 128  104 48 128  104 48 128  104 48 128  104 48 128  104 48 128  104 48 128  104 48 128  104 48 128  104 48 128  104 48 128  104 48 128  104 48 128  104 48 128  104 49 128  125 125 125  125 125 125  125 125 125  125 125 125  125 125 125  108 108 108  108 108 108  108 108 108  108 108 108  108 108 108  108 108 108  108 108 108  108 108 108  108 108 108  108 108 108  108 108 108  108 108 108  108 108 108  108 108 108  108 108 108  108 108 108  108 108 108  108 108 108  108 108 108  108 108 108  108 108 108  108 108 108  108 108 108  108 108 108  108 108 108  108 108 108  108 108 108  108 108 108  108 108 108  108 108 108  108 108 108  108 108 108  108 108 108  108 108 108  108 108 108  108 108 108  108 108 108  108 108 108  108 108 108  108 108 108  108 108 108  108 108 108  108 108 108  108 108 108  108 108 108  108 108 108  108 108 108  108 108 108  108 108 108  108 108 108  108 108 108  108 108 108  108 108 108  108 108 108  108 108 108  21 109 58  21 109 58  21 110 59  21 110 59  21 110 59  35 149 82  35 149 82  35 149 82  35 149 82  35 149 82  35 149 82  35 149 82  35 149 82  35 149 82  35 149 82  35 149 82  35 149 82  35 149 82  35 149 82  35 149 82  35 149 82  35 149 82  35 149 82  35 149 82  35 149 82  35 149 82  35 149 82  35 149 82  34 149 82  34 149 82  34 149 82  34 149 82  34 149 82  34 149 82  34 148 82  34 148 82  34 148 82  34 148 82  34 148 82  34 148 82  34 148 82  34 148 82  34 148 82  34 148 82  34 148 82  34 148 82  34 148 82  34 148 82  34 148 82  34 148 82  34 148 82  34 148 82  34 148 82  34 148 82  34 148 81  34 148 81  34 148 81  34 148 81  34 148 81  34 148 81  34 148 81  34 148 81  34 148 81  34 148 81  34 148 81  34 148 81  34 147 81  34 147 81  34 147 81  34 147 81  34 147 81  34 147 81  34 147 81  34 147 81  34 147 81  34 147 81  33 147 81  33 147 81  33 147 81  148 148 148  148 148 148  148 148 148  148 148 148  148 148 148  148 148 148  148 148 148  148 148 148  158 158 158  158 158 158  158 158 158  158 158 158  158 158 158  158 158 158  158 158 158  158 158 158  158 158 158  158 158 158  158 158 158  158 158 158  158 158 158  158 158 158  158 158 158  157 157 157  157 157 157  157 157 157  157 157 157  157 157 157  157 157 157  157 157 157  157 157 157  157 157 157  157 157 157  157 157 157  157 157 157  157 157 157  157 157 157  157 157 157  157 157 157  157 157 157  157 157 157  157 157 157  157 157 157  157 157 157  157 157 157  157 157 157  157 157 157  157 157 157  157 157 157  157 157 157  157 157 157  157 157 157  157 157 157  156 156 156  156 156 156  156 156 156  156 156 156  156 156 156
157 157 157  157 157 157  157 157 157  157 157 157  157 157 157  157 157 157  157 157 157  157 157 157  157 157 157  157 157 157  157 157 157  157 157 157  157 157 157  157 157 157  157 157 157  157 157 157  157 157 157  157 157 157  157 157 157  157 157 157  157 157 157  157 157 157  157 157 157  157 157 157  157 157 157  157 157 157  148 148 148  148 148 148  148 148 148  148 148 148  148 148 148  148 148 148  148 148 148  148 148 148  148 148 148  148 148 148  148 148 148  148 148 148  148 148 148  148 148 148  148 148 148  148 148 148  148 148 148  148 148 148  103 48 126  103 48 126  103 48 126  103 48 126  103 48 126  103 48 126  103 48 126  103 48 126  103 48 126  103 48 126  103 48 126  103 48 126  103 48 126  103 48 126  103 48 126  103 48 126  103 48 126  103 48 126  103 48 126  103 48 127  103 48 127  103 48 127  103 48 127  103 48 127  103 48 127  103 48 127  103 48 127  103 48 127  104 48 127  104 48 127  104 48 127  104 48 127  104 48 127  104 48 127  104 48 127  104 48 127  104 48 127  104 48 127  104 48 127  104 48 127  104 48 127  104 48 127  104 48 127  104 48 127  104 48 127  104 48 127  104 48 127  104 48 127  104 48 127  104 48 127  104 48 127  104 48 127  104 48 127  104 48 127  104 48 127  104 48 127  104 48 127  104 48 127  104 48 127  104 48 127  104 48 127  104 48 128  104 48 128  104 48 128  104 48 128  104 48 128  104 48 128  104 48 128  104 48 128  104 48 128  104 48 128  104 48 128  104 48 128  104 48 128  104 48 128  104 48 128  104 48 128  104 48 128  125 125 125  125 125 125  125 125 125  125 125 125  125 125 125  125 125 125  125 125 125  125 125 125  125 125 125  125 125 125  125 125 125  108 108 108  108 108 108  108 108 108  108 108 108  108 108 108  108 108 108  108 108 108  108 108 108  108 108 108  108 108 108  108 108 108  108 108 108  108 108 108  108 108 108  108 108 108  108 108 108  108 108 108  108 108 108  108 108 108  108 108 108  108 108 108  108 108 108  108 108 108  108 108 108  108 108 108  108 108 108  108 108 108  108 108 108  108 108 108  108 108 108  108 108 108  108 108 108  108 108 108  108 108 108  108 108 108  108 108 108  108 108 108  108 108 108  108 108 108  108 108 108  108 108 108  108 108 108  108 108 108  108 108 108  108 108 108  108 108 108  108 108 108  108 108 108  108 108 108  108 108 108  21 109 58  21 109 58  21 110 59  21 110 59  21 110 59  35 149 82  35 149 82  35 149 82  35 149 82  35 149 82  35 149 82  35 149 82  35 149 82  35 149 82  35 149 82  35 149 82  35 149 82  35 149 82  35 149 82  34 149 82  34 149 82  34 149 82  34 149 82  34 149 82  34 149 82  34 149 82  34 149 82  34 149 82  34 148 82  34 148 82  34 148 82  34 148 82  34 148 82  34 148 82  34 148 82  34 148 82  34 148 82  34 148 82  34 148 82  34 148 82  34 148 82  34 148 82  34 148 82  34 148 82  34 148 82  34 148 82  34 148 82  34 148 82  34 148 82  34 148 81  34 148 81  34 148 81  34 148 81  34 148 81  34 148 81  34 148 81  34 148 81  34 148 81  34 148 81  34 148 81  34 148 81  34 148 81  34 147 81  34 147 81  34 147 81  34 147 81  34 147 81  34 147 81  34 147 81  34 147 81  34 147 81  33 147 81  33 147 81  33 147 81  33 147 81  33 147 81  33 147 81  33 147 81  148 148 148  148 148 148  148 148 148  148 148 148  148 148 148  148 148 148  148 148 148  148 148 148  148 148 148  148 148 148  148 148 148  158 158 158  158 158 158  158 158 158  158 158 158  158 158 158  158 158 158  158 158 158  158 158 158  158 158 158  158 158 158  158 158 158  158 158 158  158 158 158  158 158 158  158 158 158  158 158 158  158 158 158  158 158 158  158 158 158  157 157 157  157 157 157  157 157 157  157 157 157  157 157 157  157 157 157  157 157 157  157 157 157  157 157 157  157 157 157  157 157 157  157 157 157  157 157 157  157 157 157  157 157 157  157 157 157  157 157 157  157 157 157  157 157 157  157 157 157  157 157 157  157 157 157  157 157 157  157 157 157  157 157 157  157 157 157  157 157 157  157 157 157  157 157 157
157 157 157  157 157 157  157 157 157  157 157 157  157 157 157  157 157 157  157 157 157  157 157 157  157 157 157  157 157 157  157 157 157  157 157 157  157 157 157  157 157 157  157 157 157  157 157 157  157 157 157  157 157 157  157 157 157  157 157 157  157 157 157  157 157 157  157 157 157  157 157 157  158 158 158  148 148 148  148 148 148  148 148 148  148 148 148  148 148 148  148 148 148  148 148 148  148 148 148  148 148 148  148 148 148  148 148 148  148 148 148  148 148 148  148 148 148  148 148 148  148 148 148  148 148 148  148 148 148  148 148 148  148 148 148  103 48 126  103 48 126  103 48 126  103 48 126  103 48 126  103 48 126  103 48 126  103 48 126  103 48 126  103 48 126  103 48 126  103 48 126  103 48 126  103 48 126  103 48 126  103 48 126  103 48 126  103 48 126  103 48 126  103 48 126  103 48 126  103 48 127  103 48 127  103 48 127  103 48 127  103 48 127  103 48 127  103 48 127  103 48 127  103 48 127  103 48 127  104 48 127  104 48 127  104 48 127  104 48 127  104 48 127  104 48 127  104 48 127  104 48 127  104 48 127  104 48 127  104 48 127  104 48 127  104 48 127  104 48 127  104 48 127  104 48 127  104 48 127  104 48 127  104 48 127  104 48 127  104 48 127  104 48 127  104 48 127  104 48 127  104 48 127  104 48 127  104 48 127  104 48 127  104 48 127  104 48 127  104 48 127  104 48 127  104 48 127  104 48 127  104 48 127  104 48 128  104 48 128  104 48 128  104 48 128  104 48 128  104 48 128  104 48 128  104 48 128  104 48 128  104 48 128  125 125 125  125 125 125  125 125 125  125 125 125  125 125 125  125 125 125  125 125 125  125 125 125  125 125 125  125 125 125  125 125 125  125 125 125  125 125 125  125 125 125  125 125 125  125 125 125  125 125 125  125 125 125  108 108 108  108 108 108  108 108 108  108 108 108  108 108 108  108 108 108  108 108 108  108 108 108  108 108 108  108 108 108  108 108 108  108 108 108  108 108 108  108 108 108  108 108 108  108 108 108  108 108 108  108 108 108  108 108 108  108 108 108  108 108 108  108 108 108  108 108 108  108 108 108  108 108 108  108 108 108  108 108 108  108 108 108  108 108 108  108 108 108  108 108 108  108 108 108  108 108 108  108 108 108  108 108 108  108 108 108  108 108 108  108 108 108  108 108 108  108 108 108  108 108 108  108 108 108  125 125 125  125 125 125  21 109 58  21 109 58  21 110 59  21 110 59  21 110 59  35 149 82  35 149 82  34 149 82  34 149 82  34 149 82  34 149 82  34 149 82  34 149 82  34 149 82  34 149 82  34 149 82  34 149 82  34 149 82  34 149 82  34 149 82  34 149 82  34 149 82  34 148 82  34 148 82  34 148 82  34 148 82  34 148 82  34 148 82  34 148 82  34 148 82  34 148 82  34 148 82  34 148 82  34 148 82  34 148 82  34 148 82  34 148 82  34 148 82  34 148 82  34 148 82  34 148 82  34 148 82  34 148 82  34 148 82  34 148 81  34 148 81  34 148 81  34 148 81  34 148 81  34 148 81  34 148 81  34 148 81  34 148 81  34 148 81  34 148 81  34 148 81  34 148 81  34 148 81  34 148 81  34 147 81  34 147 81  34 147 81  34 147 81  34 147 81  34 147 81  33 147 81  33 147 81  33 147 81  33 147 81  33 147 81  33 147 81  33 147 81  33 147 81  33 147 81  33 147 81  33 147 81  33 147 81  33 147 81  148 148 148  148 148 148  148 148 148  148 148 148  148 148 148  148 148 148  148 148 148  148 148 148  148 148 148  148 148 148  148 148 148  148 148 148  158 158 158  158 158 158  158 158 158  158 158 158  158 158 158  158 158 158  158 158 158  158 158 158  158 158 158  158 158 158  158 158 158  158 158 158  158 158 158  158 158 158  158 158 158  158 158 158  158 158 158  158 158 158  158 158 158  158 158 158  158 158 158  158 158 158  158 158 158  157 157 157  157 157 157  157 157 157  157 157 157  157 157 157  157 157 157  157 157 157  157 157 157  157 157 157  157 157 157  157 157 157  157 157 157  157 157 157  157 157 157  157 157 157  157 157 157  157 157 157  157 157 157  157 157 157  157 157 157  157 157 157  157 157 157  157 157 157  157 157 157
157 157 157  157 157 157  157 157 157  157 157 157  157 157 157  157 157 157  157 157 157  157 157 157  157 157 157  157 157 157  157 157 157  157 157 157  157 157 157  157 157 157  157 157 157  157 157 157  157 157 157  157 157 157  157 157 157  158 158 158  158 158 158  158 158 158  158 158 158  158 158 158  148 148 148  148 148 148  148 148 148  148 148 148  148 148 148  148 148 148  148 148 148  148 148 148  148 148 148  148 148 148  148 148 148  148 148 148  148 148 148  148 148 148  148 148 148  148 148 148  148 148 148  148 148 148  148 148 148  148 148 148  148 148 148  148 148 148  103 48 126  103 48 126  103 48 126  103 48 126  103 48 126  103 48 126  103 48 126  103 48 126  103 48 126  103 48 126  103 48 126  103 48 126  103 48 126  103 48 126  103 48 126  103 48 126  103 48 126  103 48 126  103 48 126  103 48 126  103 48 126  103 48 126  103 48 126  103 48 126  103 48 127  103 48 127  103 48 127  103 48 127  103 48 127  103 48 127  103 48 127  103 48 127  103 48 127  103 48 127  104 48 127  104 48 127  104 48 127  104 48 127  104 48 127  104 48 127  104 48 127  104 48 127  104 48 127  104 48 127  104 48 127  104 48 127  104 48 127  104 48 127  104 48 127  104 48 127  104 48 127  104 48 127  104 48 127  104 48 127  104 48 127  104 48 127  104 48 127  104 48 127  104 48 127  104 48 127  104 48 127  104 48 127  104 48 127  104 48 127  104 48 127  104 48 127  104 48 127  104 48 127  104 48 127  104 48 127  104 48 127  104 48 127  104 48 127  104 48 128  125 125 125  125 125 125  125 125 125  125 125 125  125 125 125  126 126 126  126 126 126  126 126 126  126 126 126  126 126 126  126 126 126  126 126 126  126 126 126  126 126 126  126 126 126  126 126 126  126 126 126  126 126 126  126 126 126  126 126 126  126 126 126  126 126 126  126 126 126  126 126 126  126 126 126  126 126 126  126 126 126  126 126 126  126 126 126  108 108 108  108 108 108  108 108 108  108 108 108  108 108 108  108 108 108  108 108 108  108 108 108  108 108 108  108 108 108  108 108 108  108 108 108  108 108 108  108 108 108  108 108 108  108 108 108  108 108 108  108 108 108  108 108 108  108 108 108  108 108 108  108 108 108  126 126 126  126 126 126  126 126 126  126 126 126  126 126 126  126 126 126  126 126 126  126 126 126  126 126 126  126 126 126  160 160 160  160 160 160  21 109 58  21 109 58  21 110 59  21 110 59  21 110 59  34 149 82  34 149 82  34 149 82  34 149 82  34 149 82  34 149 82  34 149 82  34 149 82  34 149 82  34 148 82  34 148 82  34 148 82  34 148 82  34 148 82  34 148 82  34 148 82  34 148 82  34 148 82  34 148 82  34 148 82  34 148 82  34 148 82  34 148 82  34 148 82  34 148 82  34 148 82  34 148 82  34 148 82  34 148 82  34 148 82  34 148 82  34 148 82  34 148 82  34 148 81  34 148 81  34 148 81  34 148 81  34 148 81  34 148 81  34 148 81  34 148 81  34 148 81  34 148 81  34 148 81  34 148 81  34 148 81  34 148 81  34 148 81  34 148 81  34 148 81  34 147 81  34 147 81  34 147 81  34 147 81  34 147 81  33 147 81  33 147 81  33 147 81  33 147 81  33 147 81  33 147 81  33 147 81  33 147 81  33 147 81  33 147 81  33 147 81  33 147 81  33 147 81  33 147 81  33 147 81  33 147 81  33 147 81  33 147 81  148 148 148  148 148 148  148 148 148  148 148 148  148 148 148  148 148 148  148 148 148  148 148 148  148 148 148  148 148 148  148 148 148  148 148 148  148 148 148  158 158 158  158 158 158  158 158 158  158 158 158  158 158 158  158 158 158  158 158 158  158 158 158  158 158 158  158 158 158  158 158 158  158 158 158  158 158 158  158 158 158  158 158 158  158 158 158  158 158 158  158 158 158  158 158 158  158 158 158  158 158 158  158 158 158  158 158 158  158 158 158  158 158 158  158 158 158  158 158 158  158 158 158  157 157 157  157 157 157  157 157 157  157 157 157  157 157 157  157 157 157  157 157 157  157 157 157  157 157 157  157 157 157  157 157 157  157 157 157  157 157 157  157 157 157  157 157 157  157 157 157  157 157 157  157 157 157
157 157 157  157 157 157  157 157 157  157 157 157  157 157 157  157 157 157  157 157 157  157 157 157  157 157 157  157 157 157  157 157 157  157 157 157  157 157 157  158 158 158  158 158 158  158 158 158  158 158 158  158 158 158  158 158 158  158 158 158  158 158 158  158 158 158  158 158 158  158 158 158  148 148 148  148 148 148  148 148 148  148 148 148  148 148 148  148 148 148  148 148 148  148 148 148  148 148 148  148 148 148  148 148 148  148 148 148  148 148 148  148 148 148  148 148 148  148 148 148  148 148 148  148 148 148  148 148 148  148 148 148  148 148 148  148 148 148  148 148 148  148 148 148  103 48 126  103 48 126  103 48 126  103 48 126  103 48 126  103 48 126  103 48 126  103 48 126  103 48 126  103 48 126  103 48 126  103 48 126  103 48 126  103 48 126  103 48 126  103 48 126  103 48 126  103 48 126  103 48 126  103 48 126  103 48 126  103 48 126  103 48 126  103 48 126  103 48 126  103 48 126  103 48 127  103 48 127  103 48 127  103 48 127  103 48 127  103 48 127  103 48 127  103 48 127  103 48 127  103 48 127  103 48 127  104 48 127  104 48 127  104 48 127  104 48 127  104 48 127  104 48 127  104 48 127  104 48 127  104 48 127  104 48 127  104 48 127  104 48 127  104 48 127  104 48 127  104 48 127  104 48 127  104 48 127  104 48 127  104 48 127  104 48 127  104 48 127  104 48 127  104 48 127  104 48 127  104 48 127  104 48 127  104 48 127  104 48 127  104 48 127  104 48 127  104 48 127  104 48 127  104 48 127  104 48 127  108 108 108  108 108 108  108 108 108  126 126 126  126 126 126  126 126 126  126 126 126  126 126 126  126 126 126  126 126 126  126 126 126  126 126 126  126 126 126  126 126 126  126 126 126  126 126 126  126 126 126  126 126 126  126 126 126  126 126 126  126 126 126  126 126 126  126 126 126  126 126 126  126 126 126  126 126 126  126 126 126  126 126 126  126 126 126  126 126 126  126 126 126  126 126 126  126 126 126  126 126 126  126 126 126  126 126 126  126 126 126  126 126 126  126 126 126  126 126 126  126 126 126  126 126 126  126 126 126  126 126 126  126 126 126  126 126 126  126 126 126  126 126 126  126 126 126  126 126 126  126 126 126  126 126 126  126 126 126  126 126 126  126 126 126  126 126 126  126 126 126  161 161 161  161 161 161  161 161 161  161 161 161  161 161 161  161 161 161  161 161 161  21 109 58  21 109 58  21 110 59  21 110 59  21 110 59  34 148 82  34 148 82  34 148 82  34 148 82  34 148 82  34 148 82  34 148 82  34 148 82  34 148 82  34 148 82  34 148 82  34 148 82  34 148 82  34 148 82  34 148 82  34 148 82  34 148 82  34 148 82  34 148 82  34 148 82  34 148 82  34 148 82  34 148 82  34 148 82  34 148 82  34 148 82  34 148 82  34 148 81  34 148 81  34 148 81  34 148 81  34 148 81  34 148 81  34 148 81  34 148 81  34 148 81  34 148 81  34 148 81  34 148 81  34 148 81  34 148 81  34 148 81  34 148 81  34 148 81  34 148 81  34 147 81  34 147 81  34 147 81  34 147 81  33 147 81  33 147 81  33 147 81  33 147 81  33 147 81  33 147 81  33 147 81  33 147 81  33 147 81  33 147 81  33 147 81  33 147 81  33 147 81  33 147 81  33 147 81  33 147 81  33 147 81  33 147 81  33 147 81  33 147 81  33 147 81  33 147 81  33 147 81  33 147 81  148 148 148  148 148 148  148 148 148  148 148 148  148 148 148  148 148 148  148 148 148  148 148 148  148 148 148  148 148 148  148 148 148  148 148 148  148 148 148  148 148 148  159 159 159  159 159 159  159 159 159  158 158 158  158 158 158  158 158 158  158 158 158  158 158 158  158 158 158  158 158 158  158 158 158  158 158 158  158 158 158  158 158 158  158 158 158  158 158 158  158 158 158  158 158 158  158 158 158  158 158 158  158 158 158  158 158 158  158 158 158  158 158 158  158 158 158  158 158 158  158 158 158  158 158 158  158 158 158  158 158 158  158 158 158  158 158 158  157 157 157  157 157 157  157 157 157  157 157 157  157 157 157  157 157 157  157 157 157  157 157 157  157 157 157  157 157 157  157 157 157  157 157 157  157 157 157
157 157 157  157 157 157  157 157 157  157 157 157  157 157 157  157 157 157  157 157 157  157 157 157  158 158 158  158 158 158  158 158 158  158 158 158  158 158 158  158 158 158  158 158 158  158 158 158  158 158 158  158 158 158  158 158 158  158 158 158  158 158 158  158 158 158  158 158 158  158 158 158  148 148 148  148 148 148  148 148 148  148 148 148  148 148 148  148 148 148  148 148 148  148 148 148  148 148 148  148 148 148  148 148 148  148 148 148  148 148 148  148 148 148  148 148 148  148 148 148  148 148 148  148 148 148  148 148 148  148 148 148  148 148 148  148 148 148  148 148 148  148 148 148  148 148 148  103 48 126  103 48 126  103 48 126  103 48 126  103 48 126  103 48 126  103 48 126  103 48 126  103 48 126  103 48 126  103 48 126  103 48 126  103 48 126  103 48 126  103 48 126  103 48 126  103 48 126  103 48 126  103 48 126  103 48 126  103 48 126  103 48 126  103 48 126  103 48 126  103 48 126  103 48 126  103 48 126  103 48 126  103 48 126  103 48 127  103 48 127  103 48 127  103 48 127  103 48 127  103 48 127  103 48 127  103 48 127  103 48 127  103 48 127  103 48 127  104 48 127  104 48 127  104 48 127  104 48 127  104 48 127  104 48 127  104 48 127  104 48 127  104 48 127  104 48 127  104 48 127  104 48 127  104 48 127  104 48 127  104 48 127  104 48 127  104 48 127  104 48 127  104 48 127  104 48 127  104 48 127  104 48 127  104 48 127  104 48 127  104 48 127  104 48 127  104 48 127  104 48 127  104 48 127  108 108 108  108 108 108  108 108 108  108 108 108  108 108 108  126 126 126  126 126 126  126 126 126  126 126 126  126 126 126  126 126 126  126 126 126  126 126 126  126 126 126  126 126 126  126 126 126  126 126 126  126 126 126  126 126 126  126 126 126  126 126 126  126 126 126  126 126 126  126 126 126  126 126 126  126 126 126  126 126 126  126 126 126  126 126 126  126 126 126  126 126 126  126 126 126  126 126 126  126 126 126  126 126 126  126 126 126  126 126 126  126 126 126  126 126 126  126 126 126  126 126 126  126 126 126  126 126 126  126 126 126  126 126 126  126 126 126  126 126 126  126 126 126  126 126 126  126 126 126  126 126 126  126 126 126  126 126 126  161 161 161  161 161 161  161 161 161  161 161 161  161 161 161  161 161 161  161 161 161  161 161 161  161 161 161  161 161 161  161 161 161  161 161 161  21 109 58  21 109 58  21 110 59  21 110 59  21 110 59  34 148 82  34 148 82  34 148 82  34 148 82  34 148 82  34 148 82  34 148 82  34 148 82  34 148 82  34 148 82  34 148 82  34 148 82  34 148 82  34 148 82  34 148 82  34 148 82  34 148 82  34 148 82  34 148 82  34 148 82  34 148 82  34 148 81  34 148 81  34 148 81  34 148 81  34 148 81  34 148 81  34 148 81  34 148 81  34 148 81  34 148 81  34 148 81  34 148 81  34 148 81  34 148 81  34 148 81  34 148 81  34 148 81  34 148 81  34 148 81  34 148 81  34 147 81  34 147 81  33 147 81  33 147 81  33 147 81  33 147 81  33 147 81  33 147 81  33 147 81  33 147 81  33 147 81  33 147 81  33 147 81  33 147 81  33 147 81  33 147 81  33 147 81  33 147 81  33 147 81  33 147 81  33 147 81  33 147 81  33 147 81  33 147 81  33 147 81  33 147 81  33 147 81  33 147 81  33 147 81  33 147 81  33 147 81  33 146 80  148 148 148  148 148 148  148 148 148  148 148 148  148 148 148  148 148 148  148 148 148  148 148 148  148 148 148  148 148 148  148 148 148  148 148 148  148 148 148  148 148 148  159 159 159  159 159 159  159 159 159  159 159 159  159 159 159  159 159 159  159 159 159  159 159 159  159 159 159  158 158 158  158 158 158  158 158 158  158 158 158  158 158 158  158 158 158  158 158 158  158 158 158  158 158 158  158 158 158  158 158 158  158 158 158  158 158 158  158 158 158  158 158 158  158 158 158  158 158 158  158 158 158  158 158 158  158 158 158  158 158 158  158 158 158  158 158 158  158 158 158  158 158 158  158 158 158  158 158 158  158 158 158  158 158 158  157 157 157  157 157 157  157 157 157  157 157 157  157 157 157  157 157 157  157 157 157
157 157 157  157 157 157  157 157 157  158 158 158  158 158 158  158 158 158  158 158 158  158 158 158  158 158 158  158 158 158  158 158 158  158 158 158  158 158 158  158 158 158  158 158 158  158 158 158  158 158 158  158 158 158  158 158 158  158 158 158  158 158 158  158 158 158  158 158 158  158 158 158  158 158 158  148 148 148  148 148 148  148 148 148  148 148 148  148 148 148  148 148 148  148 148 148  148 148 148  148 148 148  148 148 148  148 148 148  148 148 148  148 148 148  148 148 148  148 148 148  148 148 148  148 148 148  148 148 148  148 148 148  148 148 148  148 148 148  148 148 148  148 148 148  148 148 148  148 148 148  103 48 126  103 48 126  103 48 126  103 48 126  103 48 126  103 48 126  103 48 126  103 48 126  103 48 126  103 48 126  103 48 126  103 48 126  103 48 126  103 48 126  103 48 126  103 48 126  103 48 126  103 48 126  103 48 126  103 48 126  103 48 126  103 48 126  103 48 126  103 48 126  103 48 126  103 48 126  103 48 126  103 48 126  103 48 126  103 48 126  103 48 126  103 48 126  103 48 126  103 48 127  103 48 127  103 48 127  103 48 127  103 48 127  103 48 127  103 48 127  103 48 127  103 48 127  103 48 127  103 48 127  103 48 127  104 48 127  104 48 127  104 48 127  104 48 127  104 48 127  104 48 127  104 48 127  104 48 127  104 48 127  104 48 127  104 48 127  104 48 127  104 48 127  104 48 127  104 48 127  104 48 127  104 48 127  104 48 127  104 48 127  104 48 127  104 48 127  104 48 127  148 148 148  148 148 148  148 148 148  148 148 148  148 148 148  148 148 148  148 148 148  161 161 161  126 126 126  126 126 126  126 126 126  126 126 126  126 126 126  126 126 126  126 126 126  127 127 127  127 127 127  127 127 127  127 127 127  127 127 127  127 127 127  127 127 127  127 127 127  127 127 127  127 127 127  127 127 127  127 127 127  127 127 127  127 127 127  127 127 127  127 127 127  127 127 127  127 127 127  127 127 127  127 127 127  127 127 127  127 127 127  127 127 127  127 127 127  127 127 127  127 127 127  127 127 127  127 127 127  127 127 127  127 127 127  127 127 127  161 161 161  161 161 161  161 161 161  161 161 161  161 161 161  161 161 161  161 161 161  161 161 161  161 161 161  161 161 161  161 161 161  161 161 161  161 161 161  161 161 161  161 161 161  161 161 161  161 161 161  161 161 161  161 161 161  161 161 161  21 109 58  21 109 58  21 110 59  21 110 59  21 110 59  34 148 82  34 148 82  34 148 82  34 148 82  34 148 82  34 148 82  34 148 82  34 148 82  34 148 82  34 148 82  34 148 82  34 148 82  34 148 82  34 148 81  34 148 81  34 148 81  34 148 81  34 148 81  34 148 81  34 148 81  34 148 81  34 148 81  34 148 81  34 148 81  34 148 81  34 148 81  34 148 81  34 148 81  34 148 81  34 148 81  34 148 81  34 148 81  34 148 81  34 148 81  34 148 81  34 148 81  33 147 81  33 147 81  33 147 81  33 147 81  33 147 81  33 147 81  33 147 81  33 147 81  33 147 81  33 147 81  33 147 81  33 147 81  33 147 81  33 147 81  33 147 81  33 147 81  33 147 81  33 147 81  33 147 81  33 147 81  33 147 81  33 147 81  33 147 81  33 147 81  33 147 81  33 147 81  33 147 81  33 147 81  33 147 81  33 147 81  33 147 81  33 147 81  33 147 80  33 146 80  33 146 80  33 146 80  33 146 80  148 148 148  148 148 148  148 148 148  148 148 148  148 148 148  148 148 148  148 148 148  148 148 148  148 148 148  148 148 148  148 148 148  148 148 148  148 148 148  159 159 159  159 159 159  159 159 159  159 159 159  159 159 159  159 159 159  159 159 159  159 159 159  159 159 159  159 159 159  159 159 159  159 159 159  159 159 159  159 159 159  159 159 159  159 159 159  158 158 158  158 158 158  158 158 158  158 158 158  158 158 158  158 158 158  158 158 158  158 158 158  158 158 158  158 158 158  158 158 158  158 158 158  158 158 158  158 158 158  158 158 158  158 158 158  158 158 158  158 158 158  158 158 158  158 158 158  158 158 158  158 158 158  158 158 158  158 158 158  158 158 158  158 158 158  158 158 158  158 158 158  157 157 157  157 157 157
158 158 158  158 158 158  158 158 158  158 158 158  158 158 158  158 158 158  158 158 158  158 158 158  158 158 158  158 158 158  158 158 158  158 158 158  158 158 158  158 158 158  158 158 158  158 158 158  158 158 158  158 158 158  158 158 158  158 158 158  158 158 158  158 158 158  158 158 158  158 158 158  158 158 158  158 158 158  148 148 148  148 148 148  148 148 148  148 148 148  148 148 148  148 148 148  148 148 148  148 148 148  148 148 148  148 148 148  148 148 148  148 148 148  148 148 148  148 148 148  148 148 148  148 148 148  148 148 148  148 148 148  148 148 148  148 148 148  148 148 148  148 148 148  148 148 148  148 148 148  108 108 108  108 108 108  103 48 126  103 48 126  103 48 126  103 48 126  103 48 126  103 48 126  103 48 126  103 48 126  103 48 126  103 48 126  103 48 126  103 48 126  103 48 126  103 48 126  103 48 126  103 48 126  103 48 126  103 48 126  103 48 126  103 48 126  103 48 126  103 48 126  103 48 126  103 48 126  103 48 126  103 48 126  103 48 126  103 48 126  103 48 126  103 48 126  103 48 126  103 48 126  103 48 126  103 48 126  103 48 126  103 48 126  103 48 127  103 48 127  103 48 127  103 48 127  103 48 127  103 48 127  103 48 127  103 48 127  103 48 127  103 48 127  103 48 127  103 48 127  104 48 127  104 48 127  104 48 127  104 48 127  104 48 127  104 48 127  104 48 127  104 48 127  104 48 127  104 48 127  104 48 127  104 48 127  104 48 127  104 48 127  104 48 127  104 48 127  148 148 148  148 148 148  148 148 148  148 148 148  148 148 148  148 148 148  148 148 148  148 148 148  148 148 148  161 161 161  161 161 161  161 161 161  161 161 161  161 161 161  161 161 161  161 161 161  161 161 161  161 161 161  161 161 161  161 161 161  161 161 161  161 161 161  161 161 161  161 161 161  161 161 161  161 161 161  161 161 161  161 161 161  161 161 161  161 161 161  161 161 161  161 161 161  161 161 161  161 161 161  161 161 161  161 161 161  161 161 161  161 161 161  161 161 161  161 161 161  161 161 161  161 161 161  161 161 161  161 161 161  161 161 161  161 161 161  161 161 161  161 161 161  161 161 161  161 161 161  161 161 161  161 161 161  161 161 161  161 161 161  161 161 161  161 161 161  161 161 161  161 161 161  161 161 161  161 161 161  161 161 161  161 161 161  161 161 161  161 161 161  161 161 161  161 161 161  161 161 161  21 109 58  21 109 58  21 110 58  21 110 59  21 110 59  34 148 82  34 148 82  34 148 81  34 148 81  34 148 81  34 148 81  34 148 81  34 148 81  34 148 81  34 148 81  34 148 81  34 148 81  34 148 81  34 148 81  34 148 81  34 148 81  34 148 81  34 148 81  34 148 81  34 148 81  34 148 81  34 148 81  34 148 81  34 148 81  34 148 81  34 148 81  34 148 81  34 148 81  33 148 81  33 148 81  33 148 81  33 147 81  33 147 81  33 147 81  33 147 81  33 147 81  33 147 81  33 147 81  33 147 81  33 147 81  33 147 81  33 147 81  33 147 81  33 147 81  33 147 81  33 147 81  33 147 81  33 147 81  33 147 81  33 147 81  33 147 81  33 147 81  33 147 81  33 147 81  33 147 81  33 147 81  33 147 81  33 147 81  33 147 81  33 147 81  33 147 81  33 147 81  33 147 81  33 147 81  33 147 81  33 146 80  33 146 80  33 146 80  33 146 80  33 146 80  33 146 80  33 146 80  33 146 80  148 148 148  148 148 148  148 148 148  148 148 148  148 148 148  148 148 148  148 148 148  148 148 148  148 148 148  148 148 148  148 148 148  159 159 159  159 159 159  159 159 159  159 159 159  159 159 159  159 159 159  159 159 159  159 159 159  159 159 159  159 159 159  159 159 159  159 159 159  159 159 159  159 159 159  159 159 159  159 159 159  159 159 159  159 159 159  159 159 159  159 159 159  159 159 159  159 159 159  159 159 159  158 158 158  158 158 158  158 158 158  158 158 158  158 158 158  158 158 158  158 158 158  158 158 158  158 158 158  158 158 158  158 158 158  158 158 158  158 158 158  158 158 158  158 158 158  158 158 158  158 158 158  158 158 158  158 158 158  158 158 158  158 158 158  158 158 158  158 158 158  158 158 158  158 158 158
158 158 158  158 158 158  158 158 158  158 158 158  158 158 158  158 158 158  158 158 158  158 158 158  158 158 158  158 158 158  158 158 158  158 158 158  158 158 158  158 158 158  158 158 158  158 158 158  158 158 158  158 158 158  158 158 158  158 158 158  158 158 158  159 159 159  159 159 159  159 159 159  159 159 159  159 159 159  159 159 159  159 159 159  148 148 148  148 148 148  148 148 148  148 148 148  148 148 148  148 148 148  108 108 108  108 108 108  108 108 108  108 108 108  108 108 108  108 108 108  108 108 108  108 108 108  108 108 108  108 108 108  108 108 108  108 108 108  108 108 108  108 108 108  108 108 108  108 108 108  108 108 108  108 108 108  108 108 108  103 47 126  103 47 126  103 48 126  103 48 126  103 48 126  103 48 126  103 48 126  103 48 126  103 48 126  103 48 126  103 48 126  103 48 126  103 48 126  103 48 126  103 48 126  103 48 126  103 48 126  103 48 126  103 48 126  103 48 126  103 48 126  103 48 126  103 48 126  103 48 126  103 48 126  103 48 126  103 48 126  103 48 126  103 48 126  103 48 126  103 48 126  103 48 126  103 48 126  103 48 126  103 48 126  103 48 126  103 48 126  103 48 126  103 48 126  103 48 126  103 48 127  103 48 127  103 48 127  103 48 127  103 48 127  103 48 127  103 48 127  103 48 127  103 48 127  103 48 127  103 48 127  103 48 127  103 48 127  104 48 127  104 48 127  104 48 127  104 48 127  104 48 127  104 48 127  104 48 127  104 48 127  148 148 148  148 148 148  148 148 148  148 148 148  148 148 148  148 148 148  148 148 148  148 148 148  148 148 148  148 148 148  148 148 148  161 161 161  161 161 161  161 161 161  161 161 161  161 161 161  161 161 161  162 162 162  162 162 162  162 162 162  162 162 162  162 162 162  162 162 162  162 162 162  162 162 162  162 162 162  162 162 162  162 162 162  162 162 162  162 162 162  162 162 162  162 162 162  162 162 162  162 162 162  162 162 162  162 162 162  162 162 162  162 162 162  162 162 162  162 162 162  162 162 162  162 162 162  162 162 162  162 162 162  162 162 162  162 162 162  162 162 162  162 162 162  162 162 162  162 162 162  162 162 162  162 162 162  162 162 162  162 162 162  162 162 162  162 162 162  162 162 162  162 162 162  162 162 162  162 162 162  162 162 162  162 162 162  162 162 162  162 162 162  162 162 162  162 162 162  162 162 162  162 162 162  162 162 162  21 109 58  21 109 58  21 110 58  21 110 59  21 110 59  34 148 81  34 148 81  34 148 81  34 148 81  34 148 81  34 148 81  34 148 81  34 148 81  34 148 81  34 148 81  34 148 81  34 148 81  34 148 81  34 148 81  34 148 81  34 148 81  34 148 81  34 148 81  34 148 81  33 148 81  33 148 81  33 148 81  33 148 81  33 148 81  33 148 81  33 147 81  33 147 81  33 147 81  33 147 81  33 147 81  33 147 81  33 147 81  33 147 81  33 147 81  33 147 81  33 147 81  33 147 81  33 147 81  33 147 81  33 147 81  33 147 81  33 147 81  33 147 81  33 147 81  33 147 81  33 147 81  33 147 81  33 147 81  33 147 81  33 147 81  33 147 81  33 147 81  33 147 81  33 147 81  33 147 81  33 147 81  33 147 81  33 147 81  33 147 81  33 147 81  33 147 81  33 147 80  33 146 80  33 146 80  33 146 80  33 146 80  33 146 80  33 146 80  33 146 80  33 146 80  33 146 80  33 146 80  33 146 80  148 148 148  148 148 148  148 148 148  148 148 148  148 148 148  148 148 148  148 148 148  160 160 160  160 160 160  160 160 160  160 160 160  159 159 159  159 159 159  159 159 159  159 159 159  159 159 159  159 159 159  159 159 159  159 159 159  159 159 159  159 159 159  159 159 159  159 159 159  159 159 159  159 159 159  159 159 159  159 159 159  159 159 159  159 159 159  159 159 159  159 159 159  159 159 159  159 159 159  159 159 159  159 159 159  159 159 159  159 159 159  159 159 159  159 159 159  158 158 158  158 158 158  158 158 158  158 158 158  158 158 158  158 158 158  158 158 158  158 158 158  158 158 158  158 158 158  158 158 158  158 158 158  158 158 158  158 158 158  158 158 158  158 158 158  158 158 158  158 158 158  158 158 158  158 158 158
158 158 158  158 158 158  158 158 158  158 158 158  158 158 158  158 158 158  158 158 158  158 158 158  158 158 158  158 158 158  158 158 158  158 158 158  158 158 158  158 158 158  158 158 158  158 158 158  159 159 159  159 159 159  159 159 159  159 159 159  159 159 159  159 159 159  159 159 159  159 159 159  159 159 159  159 159 159  159 159 159  159 159 159  159 159 159  124 124 124  108 108 108  108 108 108  108 108 108  108 108 108  108 108 108  108 108 108  108 108 108  108 108 108  108 108 108  108 108 108  108 108 108  108 108 108  108 108 108  108 108 108  108 108 108  108 108 108  108 108 108  108 108 108  108 108 108  108 108 108  108 108 108  108 108 108  108 108 108  108 108 108  108 108 108  102 47 126  103 47 126  103 47 126  103 47 126  103 48 126  103 48 126  103 48 126  103 48 126  103 48 126  103 48 126  103 48 126  103 48 126  103 48 126  103 48 126  103 48 126  103 48 126  103 48 126  103 48 126  103 48 126  103 48 126  103 48 126  103 48 126  103 48 126  103 48 126  103 48 126  103 48 126  103 48 126  103 48 126  103 48 126  103 48 126  103 48 126  103 48 126  103 48 126  103 48 126  103 48 126  103 48 126  103 48 126  103 48 126  103 48 126  103 48 126  103 48 126  103 48 126  103 48 126  103 48 127  103 48 127  103 48 127  103 48 127  103 48 127  103 48 127  103 48 127  103 48 127  103 48 127  103 48 127  103 48 127  103 48 127  103 48 127  103 48 127  103 48 127  148 148 148  148 148 148  148 148 148  148 148 148  148 148 148  148 148 148  148 148 148  148 148 148  148 148 148  148 148 148  148 148 148  148 148 148  162 162 162  162 162 162  162 162 162  162 162 162  162 162 162  162 162 162  162 162 162  162 162 162  162 162 162  162 162 162  162 162 162  162 162 162  162 162 162  162 162 162  162 162 162  162 162 162  162 162 162  162 162 162  162 162 162  162 162 162  162 162 162  162 162 162  162 162 162  162 162 162  162 162 162  162 162 162  162 162 162  162 162 162  162 162 162  162 162 162  162 162 162  162 162 162  162 162 162  162 162 162  162 162 162  162 162 162  162 162 162  162 162 162  162 162 162  162 162 162  162 162 162  162 162 162  162 162 162  162 162 162  162 162 162  162 162 162  162 162 162  162 162 162  162 162 162  162 162 162  162 162 162  162 162 162  162 162 162  162 162 162  162 162 162  162 162 162  162 162 162  162 162 162  21 109 58  21 109 58  21 109 58  21 110 59  21 110 59  34 148 81  34 148 81  34 148 81  34 148 81  34 148 81  34 148 81  34 148 81  33 148 81  33 148 81  33 148 81  33 148 81  33 148 81  33 148 81  33 148 81  33 148 81  33 148 81  33 148 81  33 148 81  33 148 81  33 147 81  33 147 81  33 147 81  33 147 81  33 147 81  33 147 81  33 147 81  33 147 81  33 147 81  33 147 81  33 147 81  33 147 81  33 147 81  33 147 81  33 147 81  33 147 81  33 147 81  33 147 81  33 147 81  33 147 81  33 147 81  33 147 81  33 147 81  33 147 81  33 147 81  33 147 81  33 147 81  33 147 81  33 147 81  33 147 81  33 147 81  33 147 81  33 147 81  33 147 81  33 147 81  33 147 81  33 147 81  33 147 80  33 147 80  33 146 80  33 146 80  33 146 80  33 146 80  33 146 80  33 146 80  33 146 80  33 146 80  33 146 80  33 146 80  33 146 80  33 146 80  33 146 80  33 146 80  33 146 80  160 160 160  160 160 160  160 160 160  160 160 160  160 160 160  160 160 160  160 160 160  160 160 160  160 160 160  160 160 160  160 160 160  160 160 160  160 160 160  160 160 160  160 160 160  160 160 160  159 159 159  159 159 159  159 159 159  159 159 159  159 159 159  159 159 159  159 159 159  159 159 159  159 159 159  159 159 159  159 159 159  159 159 159  159 159 159  159 159 159  159 159 159  159 159 159  159 159 159  159 159 159  159 159 159  159 159 159  159 159 159  159 159 159  159 159 159  159 159 159  159 159 159  159 159 159  159 159 159  159 159 159  158 158 158  158 158 158  158 158 158  158 158 158  158 158 158  158 158 158  158 158 158  158 158 158  158 158 158  158 158 158  158 158 158  158 158 158  158 158 158  158 158 158  158 158 158
158 158 158  158 158 158  158 158 158  158 158 158  158 158 158  158 158 158  158 158 158  158 158 158  158 158 158  158 158 158  158 158 158  159 159 159  159 159 159  159 159 159  159 159 159  159 159 159  159 159 159  159 159 159  159 159 159  159 159 159  159 159 159  159 159 159  159 159 159  159 159 159  159 159 159  159 159 159  159 159 159  124 124 124  124 124 124  124 124 124  124 124 124  124 124 124  124 124 124  108 108 108  108 108 108  108 108 108  108 108 108  108 108 108  108 108 108  108 108 108  108 108 108  108 108 108  108 108 108  108 108 108  108 108 108  108 108 108  108 108 108  108 108 108  108 108 108  108 108 108  108 108 108  108 108 108  108 108 108  108 108 108  108 108 108  108 108 108  108 108 108  102 47 125  102 47 126  102 47 126  103 47 126  103 47 126  103 48 126  103 48 126  103 48 126  103 48 126  103 48 126  103 48 126  103 48 126  103 48 126  103 48 126  103 48 126  103 48 126  103 48 126  103 48 126  103 48 126  103 48 126  103 48 126  103 48 126  103 48 126  103 48 126  103 48 126  103 48 126  103 48 126  103 48 126  103 48 126  103 48 126  103 48 126  103 48 126  103 48 126  103 48 126  103 48 126  103 48 126  103 48 126  103 48 126  103 48 126  103 48 126  103 48 126  103 48 126  103 48 126  103 48 126  103 48 126  103 48 126  103 48 126  103 48 127  103 48 127  103 48 127  103 48 127  103 48 127  103 48 127  103 48 127  148 148 148  148 148 148  148 148 148  148 148 148  148 148 148  148 148 148  148 148 148  148 148 148  148 148 148  148 148 148  148 148 148  148 148 148  148 148 148  162 162 162  162 162 162  162 162 162  162 162 162  162 162 162  162 162 162  162 162 162  162 162 162  162 162 162  162 162 162  162 162 162  162 162 162  162 162 162  162 162 162  162 162 162  162 162 162  162 162 162  162 162 162  162 162 162  162 162 162  162 162 162  162 162 162  162 162 162  162 162 162  162 162 162  162 162 162  162 162 162  162 162 162  162 162 162  162 162 162  162 162 162  162 162 162  162 162 162  162 162 162  162 162 162  162 162 162  162 162 162  162 162 162  162 162 162  162 162 162  162 162 162  162 162 162  162 162 162  162 162 162  162 162 162  162 162 162  162 162 162  162 162 162  162 162 162  162 162 162  162 162 162  162 162 162  162 162 162  162 162 162  162 162 162  162 162 162  162 162 162  162 162 162  162 162 162  21 109 58  21 109 58  21 109 58  21 110 59  21 110 59  33 148 81  33 148 81  33 148 81  33 148 81  33 148 81  33 148 81  33 148 81  33 148 81  33 148 81  33 148 81  33 148 81  33 147 81  33 147 81  33 147 81  33 147 81  33 147 81  33 147 81  33 147 81  33 147 81  33 147 81  33 147 81  33 147 81  33 147 81  33 147 81  33 147 81  33 147 81  33 147 81  33 147 81  33 147 81  33 147 81  33 147 81  33 147 81  33 147 81  33 147 81  33 147 81  33 147 81  33 147 81  33 147 81  33 147 81  33 147 81  33 147 81  33 147 81  33 147 81  33 147 81  33 147 81  33 147 81  33 147 81  33 147 81  33 147 81  33 147 81  33 147 81  33 147 81  33 147 80  33 147 80  33 146 80  33 146 80  33 146 80  33 146 80  33 146 80  33 146 80  33 146 80  33 146 80  33 146 80  33 146 80  33 146 80  33 146 80  33 146 80  33 146 80  33 146 80  33 146 80  33 146 80  33 146 80  160 160 160  160 160 160  160 160 160  160 160 160  160 160 160  160 160 160  160 160 160  160 160 160  160 160 160  160 160 160  160 160 160  160 160 160  160 160 160  160 160 160  160 160 160  160 160 160  160 160 160  160 160 160  160 160 160  160 160 160  160 160 160  160 160 160  160 160 160  159 159 159  159 159 159  159 159 159  159 159 159  159 159 159  159 159 159  159 159 159  159 159 159  159 159 159  159 159 159  159 159 159  159 159 159  159 159 159  159 159 159  159 159 159  159 159 159  159 159 159  159 159 159  159 159 159  159 159 159  159 159 159  159 159 159  159 159 159  159 159 159  159 159 159  159 159 159  159 159 159  158 158 158  158 158 158  158 158 158  158 158 158  158 158 158  158 158 158  158 158 158  158 158 158  158 158 158  158 158 158
158 158 158  158 158 158  158 158 158  158 158 158  158 158 158  158 158 158  159 159 159  159 159 159  159 159 159  159 159 159  159 159 159  159 159 159  159 159 159  159 159 159  159 159 159  159 159 159  159 159 159  159 159 159  159 159 159  159 159 159  159 159 159  159 159 159  159 159 159  159 159 159  159 159 159  159 159 159  159 159 159  124 124 124  124 124 124  124 124 124  124 124 124  124 124 124  124 124 124  124 124 124  124 124 124  124 124 124  108 108 108  108 108 108  108 108 108  108 108 108  108 108 108  108 108 108  108 108 108  108 108 108  108 108 108  108 108 108  108 108 108  108 108 108  108 108 108  108 108 108  108 108 108  108 108 108  108 108 108  108 108 108  108 108 108  108 108 108  108 108 108  108 108 108  108 108 108  102 47 125  102 47 125  102 47 126  102 47 126  102 47 126  103 47 126  103 47 126  103 48 126  103 48 126  103 48 126  103 48 126  103 48 126  103 48 126  103 48 126  103 48 126  103 48 126  103 48 126  103 48 126  103 48 126  103 48 126  103 48 126  103 48 126  103 48 126  103 48 126  103 48 126  103 48 126  103 48 126  103 48 126  103 48 126  103 48 126  103 48 126  103 48 126  103 48 126  103 48 126  103 48 126  103 48 126  103 48 126  103 48 126  103 48 126  103 48 126  103 48 126  103 48 126  103 48 126  103 48 126  103 48 126  103 48 126  103 48 126  103 48 126  103 48 126  103 48 126  108 108 108  108 108 108  148 148 148  148 148 148  148 148 148  148 148 148  148 148 148  148 148 148  148 148 148  148 148 148  148 148 148  148 148 148  148 148 148  162 162 162  162 162 162  162 162 162  162 162 162  162 162 162  162 162 162  162 162 162  162 162 162  162 162 162  162 162 162  162 162 162  162 162 162  162 162 162  162 162 162  162 162 162  162 162 162  162 162 162  162 162 162  162 162 162  162 162 162  162 162 162  162 162 162  162 162 162  162 162 162  162 162 162  162 162 162  162 162 162  162 162 162  162 162 162  162 162 162  162 162 162  162 162 162  162 162 162  162 162 162  162 162 162  162 162 162  162 162 162  162 162 162  162 162 162  162 162 162  162 162 162  162 162 162  162 162 162  162 162 162  162 162 162  162 162 162  162 162 162  162 162 162  162 162 162  162 162 162  162 162 162  162 162 162  162 162 162  162 162 162  162 162 162  162 162 162  162 162 162  162 162 162  162 162 162  162 162 162  162 162 162  21 109 58  21 109 58  21 109 58  21 110 59  21 110 59  33 148 81  33 147 81  33 147 81  33 147 81  33 147 81  33 147 81  33 147 81  33 147 81  33 147 81  33 147 81  33 147 81  33 147 81  33 147 81  33 147 81  33 147 81  33 147 81  33 147 81  33 147 81  33 147 81  33 147 81  33 147 81  33 147 81  33 147 81  33 147 81  33 147 81  33 147 81  33 147 81  33 147 81  33 147 81  33 147 81  33 147 81  33 147 81  33 147 81  33 147 81  33 147 81  33 147 81  33 147 81  33 147 81  33 147 81  33 147 81  33 147 81  33 147 81  33 147 81  33 147 81  33 147 81  33 147 81  33 147 81  33 147 80  33 147 80  33 147 80  33 146 80  33 146 80  33 146 80  33 146 80  33 146 80  33 146 80  33 146 80  33 146 80  33 146 80  33 146 80  33 146 80  33 146 80  33 146 80  33 146 80  33 146 80  33 146 80  33 146 80  33 146 80  33 146 80  33 146 80  33 146 80  32 146 80  160 160 160  160 160 160  160 160 160  160 160 160  160 160 160  160 160 160  160 160 160  160 160 160  160 160 160  160 160 160  160 160 160  160 160 160  160 160 160  160 160 160  160 160 160  160 160 160  160 160 160  160 160 160  160 160 160  160 160 160  160 160 160  160 160 160  160 160 160  160 160 160  160 160 160  160 160 160  160 160 160  160 160 160  159 159 159  159 159 159  159 159 159  159 159 159  159 159 159  159 159 159  159 159 159  159 159 159  159 159 159  159 159 159  159 159 159  159 159 159  159 159 159  159 159 159  159 159 159  159 159 159  159 159 159  159 159 159  159 159 159  159 159 159  159 159 159  159 159 159  159 159 159  159 159 159  159 159 159  159 159 159  159 159 159  158 158 158  158 158 158  158 158 158  158 158 158  158 158 158
158 158 158  158 158 158  159 159 159  159 159 159  159 159 159  159 159 159  159 159 159  159 159 159  159 159 159  159 159 159  159 159 159  159 159 159  159 159 159  159 159 159  159 159 159  159 159 159  159 159 159  159 159 159  159 159 159  159 159 159  159 159 159  159 159 159  159 159 159  159 159 159  159 159 159  159 159 159  159 159 159  159 159 159  160 160 160  160 160 160  124 124 124  125 125 125  125 125 125  125 125 125  125 125 125  125 125 125  125 125 125  125 125 125  125 125 125  125 125 125  108 108 108  108 108 108  108 108 108  108 108 108  108 108 108  108 108 108  108 108 108  108 108 108  108 108 108  108 108 108  108 108 108  108 108 108  108 108 108  108 108 108  108 108 108  108 108 108  108 108 108  108 108 108  108 108 108  108 108 108  108 108 108  102 47 125  102 47 125  102 47 125  102 47 125  102 47 126  102 47 126  103 47 126  103 47 126  103 47 126  103 48 126  103 48 126  103 48 126  103 48 126  103 48 126  103 48 126  103 48 126  103 48 126  103 48 126  103 48 126  103 48 126  103 48 126  103 48 126  103 48 126  103 48 126  103 48 126  103 48 126  103 48 126  103 48 126  103 48 126  103 48 126  103 48 126  103 48 126  103 48 126  103 48 126  103 48 126  103 48 126  103 48 126  103 48 126  103 48 126  103 48 126  103 48 126  103 48 126  103 48 126  103 48 126  103 48 126  103 48 126  108 108 108  108 108 108  108 108 108  108 108 108  108 108 108  108 108 108  108 108 108  148 148 148  148 148 148  148 148 148  148 148 148  148 148 148  148 148 148  162 162 162  162 162 162  162 162 162  162 162 162  162 162 162  162 162 162  162 162 162  162 162 162  162 162 162  162 162 162  162 162 162  162 162 162  162 162 162  162 162 162  162 162 162  162 162 162  162 162 162  162 162 162  162 162 162  162 162 162  162 162 162  162 162 162  162 162 162  162 162 162  162 162 162  162 162 162  162 162 162  162 162 162  162 162 162  162 162 162  162 162 162  162 162 162  162 162 162  162 162 162  162 162 162  162 162 162  162 162 162  162 162 162  162 162 162  162 162 162  162 162 162  162 162 162  162 162 162  162 162 162  162 162 162  162 162 162  162 162 162  162 162 162  162 162 162  162 162 162  162 162 162  162 162 162  162 162 162  162 162 162  162 162 162  162 162 162  162 162 162  162 162 162  162 162 162  162 162 162  162 162 162  162 162 162  162 162 162  21 109 58  21 109 58  21 109 58  21 110 59  21 110 59  33 147 81  33 147 81  33 147 81  33 147 81  33 147 81  33 147 81  33 147 81  33 147 81  33 147 81  33 147 81  33 147 81  33 147 81  33 147 81  33 147 81  33 147 81  33 147 81  33 147 81  33 147 81  33 147 81  33 147 81  33 147 81  33 147 81  33 147 81  33 147 81  33 147 81  33 147 81  33 147 81  33 147 81  33 147 81  33 147 81  33 147 81  33 147 81  33 147 81  33 147 81  33 147 81  33 147 81  33 147 81  33 147 81  33 147 81  33 147 81  33 147 81  33 147 81  33 147 80  33 147 80  33 147 80  33 147 80  33 146 80  33 146 80  33 146 80  33 146 80  33 146 80  33 146 80  33 146 80  33 146 80  33 146 80  33 146 80  33 146 80  33 146 80  33 146 80  33 146 80  33 146 80  33 146 80  33 146 80  33 146 80  33 146 80  32 146 80  32 146 80  32 146 80  32 146 80  32 146 80  32 146 80  32 146 80  161 161 161  161 161 161  161 161 161  161 161 161  161 161 161  160 160 160  160 160 160  160 160 160  160 160 160  160 160 160  160 160 160  160 160 160  160 160 160  160 160 160  160 160 160  160 160 160  160 160 160  160 160 160  160 160 160  160 160 160  160 160 160  160 160 160  160 160 160  160 160 160  160 160 160  160 160 160  160 160 160  160 160 160  160 160 160  160 160 160  160 160 160  160 160 160  160 160 160  159 159 159  159 159 159  159 159 159  159 159 159  159 159 159  159 159 159  159 159 159  159 159 159  159 159 159  159 159 159  159 159 159  159 159 159  159 159 159  159 159 159  159 159 159  159 159 159  159 159 159  159 159 159  159 159 159  159 159 159  159 159 159  159 159 159  159 159 159  159 159 159  159 159 159  159 159 159  158 158 158
159 159 159  159 159 159  159 159 159  159 159 159  159 159 159  159 159 159  159 159 159  159 159 159  159 159 159  159 159 159  159 159 159  159 159 159  159 159 159  159 159 159  159 159 159  159 159 159  159 159 159  159 159 159  159 159 159  159 159 159  159 159 159  159 159 159  159 159 159  160 160 160  160 160 160  160 160 160  160 160 160  160 160 160  160 160 160  160 160 160  160 160 160  160 160 160  160 160 160  160 160 160  160 160 160  125 125 125  125 125 125  125 125 125  125 125 125  125 125 125  125 125 125  125 125 125  125 125 125  125 125 125  125 125 125  108 108 108  108 108 108  108 108 108  108 108 108  108 108 108  108 108 108  108 108 108  108 108 108  108 108 108  108 108 108  108 108 108  108 108 108  108 108 108  108 108 108  108 108 108  108 108 108  108 108 108  108 108 108  108 108 108  102 47 125  102 47 125  102 47 125  102 47 125  102 47 125  102 47 126  102 47 126  102 47 126  103 47 126  103 47 126  103 48 126  103 48 126  103 48 126  103 48 126  103 48 126  103 48 126  103 48 126  103 48 126  103 48 126  103 48 126  103 48 126  103 48 126  103 48 126  103 48 126  103 48 126  103 48 126  103 48 126  103 48 126  103 48 126  103 48 126  103 48 126  103 48 126  103 48 126  103 48 126  103 48 126  103 48 126  103 48 126  103 48 126  103 48 126  103 48 126  108 108 108  108 108 108  108 108 108  108 108 108  108 108 108  108 108 108  108 108 108  108 108 108  108 108 108  108 108 108  108 108 108  148 148 148  148 148 148  162 162 162  162 162 162  162 162 162  162 162 162  162 162 162  162 162 162  162 162 162  162 162 162  162 162 162  162 162 162  162 162 162  162 162 162  162 162 162  163 163 163  163 163 163  163 163 163  163 163 163  163 163 163  163 163 163  163 163 163  163 163 163  163 163 163  163 163 163  163 163 163  163 163 163  163 163 163  163 163 163  163 163 163  163 163 163  163 163 163  163 163 163  163 163 163  163 163 163  163 163 163  163 163 163  163 163 163  163 163 163  163 163 163  163 163 163  163 163 163  163 163 163  163 163 163  129 129 129  129 129 129  129 129 129  129 129 129  129 129 129  129 129 129  129 129 129  129 129 129  129 129 129  129 129 129  129 129 129  129 129 129  129 129 129  129 129 129  129 129 129  129 129 129  129 129 129  129 129 129  129 129 129  129 129 129  129 129 129  129 129 129  129 129 129  129 129 129  21 109 58  21 109 58  21 109 58  21 110 59  21 110 59  33 147 81  33 147 81  33 147 81  33 147 81  33 147 81  33 147 81  33 147 81  33 147 81  33 147 81  33 147 81  33 147 81  33 147 81  33 147 81  33 147 81  33 147 81  33 147 81  33 147 81  33 147 81  33 147 81  33 147 81  33 147 81  33 147 81  33 147 81  33 147 81  33 147 81  33 147 81  33 147 81  33 147 81  33 147 81  33 147 81  33 147 81  33 147 81  33 147 81  33 147 81  33 147 81  33 147 81  33 147 81  33 147 80  33 147 80  33 147 80  33 147 80  33 146 80  33 146 80  33 146 80  33 146 80  33 146 80  33 146 80  33 146 80  33 146 80  33 146 80  33 146 80  33 146 80  33 146 80  33 146 80  33 146 80  33 146 80  33 146 80  33 146 80  33 146 80  33 146 80  32 146 80  32 146 80  32 146 80  32 146 80  32 146 80  32 146 80  32 146 80  32 146 80  32 146 80  32 146 80  32 146 80  32 146 80  161 161 161  161 161 161  161 161 161  161 161 161  161 161 161  161 161 161  161 161 161  161 161 161  161 161 161  161 161 161  160 160 160  160 160 160  160 160 160  160 160 160  160 160 160  160 160 160  160 160 160  160 160 160  160 160 160  160 160 160  160 160 160  160 160 160  160 160 160  160 160 160  160 160 160  160 160 160  160 160 160  160 160 160  160 160 160  160 160 160  160 160 160  160 160 160  160 160 160  160 160 160  160 160 160  160 160 160  160 160 160  160 160 160  159 159 159  159 159 159  159 159 159  159 159 159  159 159 159  159 159 159  159 159 159  159 159 159  159 159 159  159 159 159  159 159 159  159 159 159  159 159 159  159 159 159  159 159 159  159 159 159  159 159 159  159 159 159  159 159 159  159 159 159  159 159 159  159 159 159
159 159 159  159 159 159  159 159 159  159 159 159  159 159 159  159 159 159  159 159 159  159 159 159  159 159 159  159 159 159  159 159 159  159 159 159  159 159 159  159 159 159  159 159 159  159 159 159  159 159 159  159 159 159  159 159 159  160 160 160  160 160 160  160 160 160  160 160 160  160 160 160  160 160 160  160 160 160  160 160 160  160 160 160  160 160 160  160 160 160  160 160 160  160 160 160  160 160 160  160 160 160  160 160 160  160 160 160  160 160 160  160 160 160  160 160 160  160 160 160  160 160 160  126 126 126  126 126 126  126 126 126  126 126 126  126 126 126  126 126 126  126 126 126  126 126 126  126 126 126  126 126 126  108 108 108  108 108 108  108 108 108  108 108 108  108 108 108  108 108 108  108 108 108  108 108 108  108 108 108  108 108 108  108 108 108  108 108 108  108 108 108  108 108 108  108 108 108  108 108 108  102 47 125  102 47 125  102 47 125  102 47 125  102 47 125  102 47 125  102 47 126  102 47 126  102 47 126  103 47 126  103 47 126  103 47 126  103 48 126  103 48 126  103 48 126  103 48 126  103 48 126  103 48 126  103 48 126  103 48 126  103 48 126  103 48 126  103 48 126  103 48 126  103 48 126  103 48 126  103 48 126  103 48 126  103 48 126  103 48 126  103 48 126  103 48 126  103 48 126  103 48 126  108 108 108  108 108 108  108 108 108  108 108 108  108 108 108  108 108 108  108 108 108  108 108 108  108 108 108  108 108 108  108 108 108  108 108 108  128 128 128  162 162 162  162 162 162  162 162 162  163 163 163  163 163 163  163 163 163  163 163 163  163 163 163  163 163 163  163 163 163  163 163 163  163 163 163  163 163 163  163 163 163  163 163 163  163 163 163  163 163 163  163 163 163  163 163 163  163 163 163  163 163 163  163 163 163  163 163 163  163 163 163  163 163 163  163 163 163  163 163 163  163 163 163  163 163 163  163 163 163  163 163 163  163 163 163  163 163 163  163 163 163  163 163 163  163 163 163  163 163 163  163 163 163  163 163 163  163 163 163  163 163 163  163 163 163  163 163 163  163 163 163  163 163 163  129 129 129  129 129 129  129 129 129  129 129 129  129 129 129  129 129 129  129 129 129  129 129 129  129 129 129  129 129 129  129 129 129  129 129 129  129 129 129  129 129 129  129 129 129  129 129 129  129 129 129  129 129 129  129 129 129  129 129 129  129 129 129  129 129 129  129 129 129  129 129 129  21 109 58  21 109 58  21 109 58  21 110 59  21 110 59  33 147 81  33 147 81  33 147 81  33 147 81  33 147 81  33 147 81  33 147 81  33 147 81  33 147 81  33 147 81  33 147 81  33 147 81  33 147 81  33 147 81  33 147 81  33 147 81  33 147 81  33 147 81  33 147 81  33 147 81  33 147 81  33 147 81  33 147 81  33 147 81  33 147 81  33 147 81  33 147 81  33 147 81  33 147 81  33 147 81  33 147 81  33 147 80  33 147 80  33 147 80  33 147 80  33 147 80  33 146 80  33 146 80  33 146 80  33 146 80  33 146 80  33 146 80  33 146 80  33 146 80  33 146 80  33 146 80  33 146 80  33 146 80  33 146 80  33 146 80  33 146 80  33 146 80  33 146 80  33 146 80  32 146 80  32 146 80  32 146 80  32 146 80  32 146 80  32 146 80  32 146 80  32 146 80  32 146 80  32 146 80  32 146 80  32 146 80  32 146 80  32 146 80  32 146 80  32 146 80  32 146 80  32 146 80  161 161 161  161 161 161  161 161 161  161 161 161  161 161 161  161 161 161  161 161 161  161 161 161  161 161 161  161 161 161  161 161 161  161 161 161  161 161 161  161 161 161  161 161 161  161 161 161  160 160 160  160 160 160  160 160 160  160 160 160  160 160 160  160 160 160  160 160 160  160 160 160  160 160 160  160 160 160  160 160 160  160 160 160  160 160 160  160 160 160  160 160 160  160 160 160  160 160 160  160 160 160  160 160 160  160 160 160  160 160 160  160 160 160  160 160 160  160 160 160  160 160 160  160 160 160  159 159 159  159 159 159  159 159 159  159 159 159  159 159 159  159 159 159  159 159 159  159 159 159  159 159 159  159 159 159  159 159 159  159 159 159  159 159 159  159 159 159  159 159 159  159 159 159  159 159 159  159 159 159
159 159 159  159 159 159  159 159 159  159 159 159  159 159 159  159 159 159  159 159 159  159 159 159  159 159 159  159 159 159  159 159 159  159 159 159  159 159 159  159 159 159  160 160 160  160 160 160  160 160 160  160 160 160  160 160 160  160 160 160  160 160 160  160 160 160  160 160 160  160 160 160  160 160 160  160 160 160  160 160 160  160 160 160  160 160 160  160 160 160  160 160 160  160 160 160  160 160 160  160 160 160  160 160 160  160 160 160  160 160 160  160 160 160  160 160 160  160 160 160  160 160 160  161 161 161  161 161 161  161 161 161  161 161 161  161 161 161  161 161 161  161 161 161  161 161 161  161 161 161  161 161 161  126 126 126  126 126 126  126 126 126  126 126 126  126 126 126  126 126 126  127 127 127  127 127 127  108 108 108  108 108 108  108 108 108  108 108 108  108 108 108  108 108 108  108 108 108  108 108 108  108 108 108  108 108 108  108 108 108  108 108 108  102 47 125  102 47 125  102 47 125  102 47 125  102 47 125  102 47 125  102 47 125  102 47 126  102 47 126  103 47 126  103 47 126  103 47 126  103 47 126  103 48 126  103 48 126  103 48 126  103 48 126  103 48 126  103 48 126  103 48 126  103 48 126  103 48 126  103 48 126  103 48 126  103 48 126  103 48 126  108 108 108  108 108 108  108 108 108  108 108 108  108 108 108  108 108 108  108 108 108  108 108 108  108 108 108  108 108 108  128 128 128  128 128 128  128 128 128  163 163 163  163 163 163  163 163 163  163 163 163  163 163 163  163 163 163  163 163 163  163 163 163  163 163 163  163 163 163  163 163 163  163 163 163  163 163 163  163 163 163  163 163 163  163 163 163  163 163 163  163 163 163  163 163 163  163 163 163  163 163 163  163 163 163  163 163 163  163 163 163  163 163 163  163 163 163  163 163 163  163 163 163  163 163 163  163 163 163  163 163 163  163 163 163  163 163 163  163 163 163  163 163 163  163 163 163  163 163 163  163 163 163  163 163 163  163 163 163  163 163 163  163 163 163  163 163 163  163 163 163  163 163 163  163 163 163  163 163 163  163 163 163  163 163 163  129 129 129  129 129 129  129 129 129  129 129 129  129 129 129  129 129 129  129 129 129  129 129 129  129 129 129  129 129 129  129 129 129  129 129 129  129 129 129  129 129 129  129 129 129  129 129 129  129 129 129  129 129 129  129 129 129  129 129 129  129 129 129  129 129 129  129 129 129  129 129 129  21 109 58  21 109 58  21 109 58  21 110 59  21 110 59  33 147 81  33 147 81  33 147 81  33 147 81  33 147 81  33 147 81  33 147 81  33 147 81  33 147 81  33 147 81  33 147 81  33 147 81  33 147 81  33 147 81  33 147 81  33 147 81  33 147 81  33 147 81  33 147 81  33 147 81  33 147 81  33 147 81  33 147 81  33 147 81  33 147 80  33 147 80  33 147 80  33 147 80  33 147 80  33 147 80  33 147 80  33 146 80  33 146 80  33 146 80  33 146 80  33 146 80  33 146 80  33 146 80  33 146 80  33 146 80  33 146 80  33 146 80  33 146 80  33 146 80  33 146 80  33 146 80  33 146 80  32 146 80  32 146 80  32 146 80  32 146 80  32 146 80  32 146 80  32 146 80  32 146 80  32 146 80  32 146 80  32 146 80  32 146 80  32 146 80  32 146 80  32 146 80  32 146 80  32 146 80  32 146 80  32 146 80  32 146 80  32 146 80  32 146 80  32 145 80  32 145 80  32 145 80  148 148 148  161 161 161  161 161 161  161 161 161  161 161 161  161 161 161  161 161 161  161 161 161  161 161 161  161 161 161  161 161 161  161 161 161  161 161 161  161 161 161  161 161 161  161 161 161  161 161 161  161 161 161  161 161 161  161 161 161  160 160 160  160 160 160  160 160 160  160 160 160  160 160 160  160 160 160  160 160 160  160 160 160  160 160 160  160 160 160  160 160 160  160 160 160  160 160 160  160 160 160  160 160 160  160 160 160  160 160 160  160 160 160  160 160 160  160 160 160  160 160 160  160 160 160  160 160 160  160 160 160  160 160 160  160 160 160  160 160 160  159 159 159  159 159 159  159 159 159  159 159 159  159 159 159  159 159 159  159 159 159  159 159 159  159 159 159  159 159 159  159 159 159  159 159 159  159 159 159
159 159 159  159 159 159  159 159 159  159 159 159  159 159 159  159 159 159  159 159 159  159 159 159  159 159 159  159 159 159  160 160 160  160 160 160  160 160 160  160 160 160  160 160 160  160 160 160  160 160 160  160 160 160  160 160 160  160 160 160  160 160 160  160 160 160  160 160 160  160 160 160  160 160 160  160 160 160  160 160 160  160 160 160  160 160 160  160 160 160  160 160 160  160 160 160  160 160 160  160 160 160  160 160 160  160 160 160  161 161 161  161 161 161  161 161 161  161 161 161  161 161 161  161 161 161  161 161 161  161 161 161  161 161 161  161 161 161  161 161 161  161 161 161  161 161 161  161 161 161  161 161 161  161 161 161  161 161 161  161 161 161  161 161 161  161 161 161  161 161 161  161 161 161  161 161 161  161 161 161  161 161 161  161 161 161  161 161 161  161 161 161  162 162 162  162 162 162  162 162 162  162 162 162  127 127 127  127 127 127  127 127 127  127 127 127  108 108 108  108 108 108  108 108 108  108 108 108  108 108 108  108 108 108  102 47 125  102 47 125  102 47 125  102 47 125  102 47 126  102 47 126  102 47 126  103 47 126  103 47 126  103 47 126  103 47 126  103 48 126  103 48 126  108 108 108  108 108 108  108 108 108  108 108 108  108 108 108  128 128 128  128 128 128  128 128 128  163 163 163  163 163 163  163 163 163  163 163 163  163 163 163  163 163 163  163 163 163  163 163 163  163 163 163  163 163 163  163 163 163  163 163 163  163 163 163  163 163 163  163 163 163  163 163 163  163 163 163  163 163 163  163 163 163  163 163 163  163 163 163  163 163 163  163 163 163  163 163 163  163 163 163  163 163 163  163 163 163  163 163 163  163 163 163  163 163 163  163 163 163  163 163 163  163 163 163  163 163 163  163 163 163  163 163 163  163 163 163  163 163 163  163 163 163  163 163 163  163 163 163  163 163 163  163 163 163  163 163 163  163 163 163  163 163 163  163 163 163  163 163 163  163 163 163  163 163 163  163 163 163  163 163 163  163 163 163  163 163 163  163 163 163  163 163 163  163 163 163  163 163 163  163 163 163  163 163 163  129 129 129  129 129 129  129 129 129  129 129 129  129 129 129  129 129 129  129 129 129  129 129 129  129 129 129  129 129 129  129 129 129  129 129 129  129 129 129  129 129 129  129 129 129  129 129 129  129 129 129  129 129 129  129 129 129  129 129 129  129 129 129  129 129 129  129 129 129  129 129 129  21 109 58  21 109 58  21 109 58  21 110 58  21 110 59  33 147 81  33 147 81  33 147 81  33 147 81  33 147 81  33 147 81  33 147 81  33 147 81  33 147 81  33 147 81  33 147 81  33 147 81  33 147 81  33 147 81  33 147 81  33 147 81  33 147 80  33 147 80  33 147 80  33 147 80  33 147 80  33 147 80  33 147 80  33 147 80  33 147 80  33 146 80  33 146 80  33 146 80  33 146 80  33 146 80  33 146 80  33 146 80  33 146 80  33 146 80  33 146 80  33 146 80  33 146 80  33 146 80  33 146 80  33 146 80  32 146 80  32 146 80  32 146 80  32 146 80  32 146 80  32 146 80  32 146 80  32 146 80  32 146 80  32 146 80  32 146 80  32 146 80  32 146 80  32 146 80  32 146 80  32 146 80  32 146 80  32 146 80  32 146 80  32 146 80  32 146 80  32 146 80  32 146 80  32 146 80  32 146 80  32 145 80  32 145 80  32 145 80  32 145 80  32 145 80  32 145 80  32 145 80  148 148 148  161 161 161  161 161 161  161 161 161  161 161 161  161 161 161  161 161 161  161 161 161  161 161 161  161 161 161  161 161 161  161 161 161  161 161 161  161 161 161  161 161 161  161 161 161  161 161 161  161 161 161  161 161 161  161 161 161  161 161 161  161 161 161  161 161 161  161 161 161  161 161 161  160 160 160  160 160 160  160 160 160  160 160 160  160 160 160  160 160 160  160 160 160  160 160 160  160 160 160  160 160 160  160 160 160  160 160 160  160 160 160  160 160 160  160 160 160  160 160 160  160 160 160  160 160 160  160 160 160  160 160 160  160 160 160  160 160 160  160 160 160  160 160 160  160 160 160  160 160 160  159 159 159  159 159 159  159 159 159  159 159 159  159 159 159  159 159 159  159 159 159  159 159 159  159 159 159
159 159 159  159 159 159  159 159 159  159 159 159  159 159 159  159 159 159  160 160 160  160 160 160  160 160 160  160 160 160  160 160 160  160 160 160  160 160 160  160 160 160  160 160 160  160 160 160  160 160 160  160 160 160  160 160 160  160 160 160  160 160 160  160 160 160  160 160 160  160 160 160  160 160 160  160 160 160  160 160 160  160 160 160  160 160 160  160 160 160  160 160 160  161 161 161  161 161 161  161 161 161  161 161 161  161 161 161  161 161 161  161 161 161  161 161 161  161 161 161  161 161 161  161 161 161  161 161 161  161 161 161  161 161 161  161 161 161  161 161 161  161 161 161  161 161 161  161 161 161  161 161 161  161 161 161  161 161 161  161 161 161  161 161 161  161 161 161  161 161 161  161 161 161  161 161 161  162 162 162  162 162 162  162 162 162  162 162 162  162 162 162  162 162 162  162 162 162  162 162 162  162 162 162  162 162 162  162 162 162  162 162 162  162 162 162  162 162 162  162 162 162  162 162 162  162 162 162  162 162 162  162 162 162  162 162 162  162 162 162  162 162 162  162 162 162  162 162 162  162 162 162  162 162 162  162 162 162  162 162 162  162 162 162  162 162 162  162 162 162  162 162 162  163 163 163  163 163 163  163 163 163  163 163 163  163 163 163  163 163 163  163 163 163  163 163 163  163 163 163  163 163 163  163 163 163  163 163 163  163 163 163  163 163 163  163 163 163  163 163 163  163 163 163  163 163 163  163 163 163  163 163 163  163 163 163  163 163 163  163 163 163  163 163 163  163 163 163  163 163 163  163 163 163  163 163 163  163 163 163  163 163 163  163 163 163  163 163 163  163 163 163  163 163 163  163 163 163  163 163 163  163 163 163  163 163 163  163 163 163  163 163 163  163 163 163  163 163 163  163 163 163  163 163 163  163 163 163  163 163 163  163 163 163  163 163 163  163 163 163  163 163 163  163 163 163  163 163 163  163 163 163  163 163 163  163 163 163  163 163 163  163 163 163  163 163 163  163 163 163  163 163 163  163 163 163  163 163 163  163 163 163  163 163 163  163 163 163  163 163 163  163 163 163  163 163 163  130 130 130  130 130 130  130 130 130  130 130 130  130 130 130  130 130 130  130 130 130  130 130 130  130 130 130  130 130 130  130 130 130  130 130 130  130 130 130  130 130 130  130 130 130  130 130 130  130 130 130  130 130 130  130 130 130  130 130 130  130 130 130  130 130 130  130 130 130  130 130 130  21 109 58  21 109 58  21 109 58  21 110 58  21 110 59  33 147 81  33 147 81  33 147 81  33 147 81  33 147 81  33 147 81  33 147 80  33 147 80  33 147 80  33 147 80  33 147 80  33 147 80  33 147 80  33 147 80  33 147 80  33 147 80  33 147 80  33 147 80  33 146 80  33 146 80  33 146 80  33 146 80  33 146 80  33 146 80  33 146 80  33 146 80  33 146 80  33 146 80  33 146 80  33 146 80  33 146 80  33 146 80  32 146 80  32 146 80  32 146 80  32 146 80  32 146 80  32 146 80  32 146 80  32 146 80  32 146 80  32 146 80  32 146 80  32 146 80  32 146 80  32 146 80  32 146 80  32 146 80  32 146 80  32 146 80  32 146 80  32 146 80  32 146 80  32 146 80  32 146 80  32 146 80  32 146 80  32 146 80  32 146 80  32 146 80  32 146 80  32 146 80  32 145 80  32 145 80  32 145 80  32 145 80  32 145 80  32 145 80  32 145 80  32 145 80  32 145 80  32 145 80  148 148 148  148 148 148  161 161 161  161 161 161  161 161 161  161 161 161  161 161 161  161 161 161  161 161 161  161 161 161  161 161 161  161 161 161  161 161 161  161 161 161  161 161 161  161 161 161  161 161 161  161 161 161  161 161 161  161 161 161  161 161 161  161 161 161  161 161 161  161 161 161  161 161 161  161 161 161  161 161 161  161 161 161  161 161 161  161 161 161  160 160 160  160 160 160  160 160 160  160 160 160  160 160 160  160 160 160  160 160 160  160 160 160  160 160 160  160 160 160  160 160 160  160 160 160  160 160 160  160 160 160  160 160 160  160 160 160  160 160 160  160 160 160  160 160 160  160 160 160  160 160 160  160 160 160  160 160 160  160 160 160  160 160 160  159 159 159  159 159 159  159 159 159  159 159 159  159 159 159
159 159 159  159 159 159  160 160 160  160 160 160  160 160 160  160 160 160  160 160 160  160 160 160  160 160 160  160 160 160  160 160 160  160 160 160  160 160 160  160 160 160  160 160 160  160 160 160  160 160 160  160 160 160  160 160 160  160 160 160  160 160 160  160 160 160  160 160 160  160 160 160  160 160 160  160 160 160  160 160 160  161 161 161  161 161 161  161 161 161  161 161 161  161 161 161  161 161 161  161 161 161  161 161 161  161 161 161  161 161 161  161 161 161  161 161 161  161 161 161  161 161 161  161 161 161  161 161 161  161 161 161  161 161 161  161 161 161  161 161 161  161 161 161  161 161 161  161 161 161  161 161 161  161 161 161  161 161 161  161 161 161  162 162 162  162 162 162  162 162 162  162 162 162  162 162 162  162 162 162  162 162 162  162 162 162  162 162 162  162 162 162  162 162 162  162 162 162  162 162 162  162 162 162  162 162 162  162 162 162  162 162 162  162 162 162  162 162 162  162 162 162  162 162 162  162 162 162  162 162 162  162 162 162  162 162 162  162 162 162  162 162 162  162 162 162  162 162 162  162 162 162  162 162 162  163 163 163  163 163 163  163 163 163  163 163 163  163 163 163  163 163 163  163 163 163  163 163 163  163 163 163  163 163 163  163 163 163  163 163 163  163 163 163  163 163 163  163 163 163  163 163 163  163 163 163  163 163 163  163 163 163  163 163 163  163 163 163  163 163 163  163 163 163  163 163 163  163 163 163  163 163 163  163 163 163  163 163 163  163 163 163  163 163 163  163 163 163  163 163 163  163 163 163  163 163 163  163 163 163  163 163 163  163 163 163  163 163 163  163 163 163  163 163 163  163 163 163  163 163 163  163 163 163  163 163 163  163 163 163  163 163 163  163 163 163  163 163 163  163 163 163  163 163 163  164 164 164  164 164 164  164 164 164  164 164 164  164 164 164  164 164 164  164 164 164  164 164 164  164 164 164  164 164 164  164 164 164  164 164 164  164 164 164  164 164 164  164 164 164  164 164 164  164 164 164  164 164 164  164 164 164  164 164 164  164 164 164  164 164 164  164 164 164  164 164 164  130 130 130  130 130 130  130 130 130  130 130 130  130 130 130  130 130 130  130 130 130  130 130 130  130 130 130  130 130 130  130 130 130  130 130 130  130 130 130  130 130 130  130 130 130  130 130 130  130 130 130  130 130 130  130 130 130  130 130 130  130 130 130  130 130 130  130 130 130  130 130 130  21 109 58  21 109 58  21 109 58  21 110 58  21 110 59  33 147 80  33 147 80  33 147 80  33 147 80  33 147 80  33 147 80  33 147 80  33 147 80  33 147 80  33 147 80  33 146 80  33 146 80  33 146 80  33 146 80  33 146 80  33 146 80  33 146 80  33 146 80  33 146 80  33 146 80  33 146 80  33 146 80  32 146 80  32 146 80  32 146 80  32 146 80  32 146 80  32 146 80  32 146 80  32 146 80  32 146 80  32 146 80  32 146 80  32 146 80  32 146 80  32 146 80  32 146 80  32 146 80  32 146 80  32 146 80  32 146 80  32 146 80  32 146 80  32 146 80  32 146 80  32 146 80  32 146 80  32 146 80  32 146 80  32 146 80  32 146 80  32 146 80  32 146 80  32 146 80  32 146 80  32 146 80  32 146 80  32 146 80  32 145 80  32 145 80  32 145 80  32 145 80  32 145 80  32 145 80  32 145 80  32 145 80  32 145 80  32 145 80  32 145 80  32 145 80  32 145 80  32 145 80  148 148 148  148 148 148  148 148 148  162 162 162  162 162 162  162 162 162  162 162 162  161 161 161  161 161 161  161 161 161  161 161 161  161 161 161  161 161 161  161 161 161  161 161 161  161 161 161  161 161 161  161 161 161  161 161 161  161 161 161  161 161 161  161 161 161  161 161 161  161 161 161  161 161 161  161 161 161  161 161 161  161 161 161  161 161 161  161 161 161  161 161 161  161 161 161  161 161 161  161 161 161  160 160 160  160 160 160  160 160 160  160 160 160  160 160 160  160 160 160  160 160 160  160 160 160  160 160 160  160 160 160  160 160 160  160 160 160  160 160 160  160 160 160  160 160 160  160 160 160  160 160 160  160 160 160  160 160 160  160 160 160  160 160 160  160 160 160  160 160 160  160 160 160  160 160 160  159 159 159
160 160 160  160 160 160  160 160 160  160 160 160  160 160 160  160 160 160  160 160 160  160 160 160  160 160 160  160 160 160  160 160 160  160 160 160  160 160 160  160 160 160  160 160 160  160 160 160  160 160 160  160 160 160  160 160 160  160 160 160  160 160 160  160 160 160  160 160 160  161 161 161  161 161 161  161 161 161  161 161 161  161 161 161  161 161 161  161 161 161  161 161 161  161 161 161  161 161 161  161 161 161  161 161 161  161 161 161  161 161 161  161 161 161  161 161 161  161 161 161  161 161 161  161 161 161  161 161 161  161 161 161  161 161 161  161 161 161  161 161 161  161 161 161  161 161 161  162 162 162  162 162 162  162 162 162  162 162 162  162 162 162  162 162 162  162 162 162  162 162 162  162 162 162  162 162 162  162 162 162  162 162 162  162 162 162  162 162 162  162 162 162  162 162 162  162 162 162  162 162 162  162 162 162  162 162 162  162 162 162  162 162 162  162 162 162  162 162 162  162 162 162  162 162 162  162 162 162  162 162 162  162 162 162  162 162 162  163 163 163  163 163 163  163 163 163  163 163 163  163 163 163  163 163 163  163 163 163  163 163 163  163 163 163  163 163 163  163 163 163  163 163 163  163 163 163  163 163 163  163 163 163  163 163 163  163 163 163  163 163 163  163 163 163  163 163 163  163 163 163  163 163 163  163 163 163  163 163 163  163 163 163  163 163 163  163 163 163  163 163 163  163 163 163  163 163 163  163 163 163  163 163 163  163 163 163  163 163 163  163 163 163  163 163 163  163 163 163  163 163 163  163 163 163  163 163 163  163 163 163  163 163 163  164 164 164  164 164 164  164 164 164  164 164 164  164 164 164  164 164 164  164 164 164  164 164 164  164 164 164  164 164 164  164 164 164  164 164 164  164 164 164  164 164 164  164 164 164  164 164 164  164 164 164  164 164 164  164 164 164  164 164 164  164 164 164  164 164 164  164 164 164  164 164 164  164 164 164  164 164 164  164 164 164  164 164 164  164 164 164  164 164 164  164 164 164  164 164 164  164 164 164  164 164 164  164 164 164  164 164 164  164 164 164  164 164 164  130 130 130  130 130 130  130 130 130  130 130 130  130 130 130  130 130 130  130 130 130  130 130 130  130 130 130  130 130 130  130 130 130  130 130 130  130 130 130  130 130 130  130 130 130  130 130 130  130 130 130  130 130 130  130 130 130  130 130 130  130 130 130  130 130 130  130 130 130  130 130 130  21 109 58  21 109 58  21 109 58  21 109 58  21 110 59  33 146 80  33 146 80  33 146 80  33 146 80  33 146 80  33 146 80  33 146 80  33 146 80  33 146 80  33 146 80  32 146 80  32 146 80  32 146 80  32 146 80  32 146 80  32 146 80  32 146 80  32 146 80  32 146 80  32 146 80  32 146 80  32 146 80  32 146 80  32 146 80  32 146 80  32 146 80  32 146 80  32 146 80  32 146 80  32 146 80  32 146 80  32 146 80  32 146 80  32 146 80  32 146 80  32 146 80  32 146 80  32 146 80  32 146 80  32 146 80  32 146 80  32 146 80  32 146 80  32 146 80  32 146 80  32 146 80  32 146 80  32 146 80  32 146 80  32 146 80  32 146 80  32 146 80  32 146 80  32 146 80  32 145 80  32 145 80  32 145 80  32 145 80  32 145 80  32 145 80  32 145 80  32 145 80  32 145 80  32 145 80  32 145 80  32 145 80  32 145 80  32 145 80  32 145 80  32 145 79  32 145 79  148 148 148  148 148 148  148 148 148  148 148 148  148 148 148  162 162 162  162 162 162  162 162 162  162 162 162  162 162 162  162 162 162  162 162 162  162 162 162  161 161 161  161 161 161  161 161 161  161 161 161  161 161 161  161 161 161  161 161 161  161 161 161  161 161 161  161 161 161  161 161 161  161 161 161  161 161 161  161 161 161  161 161 161  161 161 161  161 161 161  161 161 161  161 161 161  161 161 161  161 161 161  161 161 161  161 161 161  161 161 161  161 161 161  161 161 161  161 161 161  160 160 160  160 160 160  160 160 160  160 160 160  160 160 160  160 160 160  160 160 160  160 160 160  160 160 160  160 160 160  160 160 160  160 160 160  160 160 160  160 160 160  160 160 160  160 160 160  160 160 160  160 160 160  160 160 160  160 160 160  160 160 160
160 160 160  160 160 160  160 160 160  160 160 160  160 160 160  160 160 160  160 160 160  160 160 160  160 160 160  160 160 160  160 160 160  160 160 160  160 160 160  160 160 160  160 160 160  160 160 160  160 160 160  160 160 160  160 160 160  161 161 161  161 161 161  161 161 161  161 161 161  161 161 161  161 161 161  161 161 161  161 161 161  161 161 161  161 161 161  161 161 161  161 161 161  161 161 161  161 161 161  161 161 161  161 161 161  161 161 161  161 161 161  161 161 161  161 161 161  161 161 161  161 161 161  161 161 161  161 161 161  161 161 161  162 162 162  162 162 162  162 162 162  162 162 162  162 162 162  162 162 162  162 162 162  162 162 162  162 162 162  162 162 162  162 162 162  162 162 162  162 162 162  162 162 162  162 162 162  162 162 162  162 162 162  162 162 162  162 162 162  162 162 162  162 162 162  162 162 162  162 162 162  162 162 162  162 162 162  162 162 162  162 162 162  162 162 162  162 162 162  163 163 163  163 163 163  163 163 163  163 163 163  163 163 163  163 163 163  163 163 163  163 163 163  163 163 163  163 163 163  163 163 163  163 163 163  163 163 163  163 163 163  163 163 163  163 163 163  163 163 163  163 163 163  163 163 163  163 163 163  163 163 163  163 163 163  163 163 163  163 163 163  163 163 163  163 163 163  163 163 163  163 163 163  163 163 163  163 163 163  163 163 163  163 163 163  163 163 163  163 163 163  163 163 163  163 163 163  163 163 163  163 163 163  163 163 163  164 164 164  164 164 164  164 164 164  164 164 164  164 164 164  164 164 164  164 164 164  164 164 164  164 164 164  164 164 164  164 164 164  164 164 164  164 164 164  164 164 164  164 164 164  164 164 164  164 164 164  164 164 164  164 164 164  164 164 164  164 164 164  164 164 164  164 164 164  164 164 164  164 164 164  164 164 164  164 164 164  164 164 164  164 164 164  164 164 164  164 164 164  164 164 164  164 164 164  164 164 164  164 164 164  164 164 164  164 164 164  164 164 164  164 164 164  164 164 164  164 164 164  164 164 164  164 164 164  164 164 164  164 164 164  164 164 164  164 164 164  130 130 130  130 130 130  130 130 130  130 130 130  130 130 130  130 130 130  130 130 130  130 130 130  130 130 130  130 130 130  130 130 130  130 130 130  130 130 130  130 130 130  130 130 130  130 130 130  130 130 130  130 130 130  130 130 130  130 130 130  130 130 130  130 130 130  130 130 130  130 130 130  21 109 58  21 109 58  21 109 58  21 109 58  21 110 59  32 146 80  32 146 80  32 146 80  32 146 80  32 146 80  32 146 80  32 146 80  32 146 80  32 146 80  32 146 80  32 146 80  32 146 80  32 146 80  32 146 80  32 146 80  32 146 80  32 146 80  32 146 80  32 146 80  32 146 80  32 146 80  32 146 80  32 146 80  32 146 80  32 146 80  32 146 80  32 146 80  32 146 80  32 146 80  32 146 80  32 146 80  32 146 80  32 146 80  32 146 80  32 146 80  32 146 80  32 146 80  32 146 80  32 146 80  32 146 80  32 146 80  32 146 80  32 146 80  32 146 80  32 146 80  32 146 80  32 146 80  32 146 80  32 146 80  32 146 80  32 145 80  32 145 80  32 145 80  32 145 80  32 145 80  32 145 80  32 145 80  32 145 80  32 145 80  32 145 80  32 145 80  32 145 80  32 145 80  32 145 80  32 145 80  32 145 79  32 145 79  32 145 79  32 145 79  32 145 79  32 145 79  148 148 148  148 148 148  148 148 148  148 148 148  148 148 148  148 148 148  162 162 162  162 162 162  162 162 162  162 162 162  162 162 162  162 162 162  162 162 162  162 162 162  162 162 162  162 162 162  162 162 162  162 162 162  161 161 161  161 161 161  161 161 161  161 161 161  161 161 161  161 161 161  161 161 161  161 161 161  161 161 161  161 161 161  161 161 161  161 161 161  161 161 161  161 161 161  161 161 161  161 161 161  161 161 161  161 161 161  161 161 161  161 161 161  161 161 161  161 161 161  161 161 161  161 161 161  161 161 161  161 161 161  160 160 160  160 160 160  160 160 160  160 160 160  160 160 160  160 160 160  160 160 160  160 160 160  160 160 160  160 160 160  160 160 160  160 160 160  160 160 160  160 160 160  160 160 160  160 160 160  160 160 160
160 160 160  160 160 160  160 160 160  160 160 160  160 160 160  160 160 160  160 160 160  160 160 160  160 160 160  160 160 160  160 160 160  160 160 160  160 160 160  160 160 160  160 160 160  161 161 161  161 161 161  161 161 161  161 161 161  161 161 161  161 161 161  161 161 161  161 161 161  161 161 161  161 161 161  161 161 161  161 161 161  161 161 161  161 161 161  161 161 161  161 161 161  161 161 161  161 161 161  161 161 161  161 161 161  161 161 161  161 161 161  161 161 161  161 161 161  161 161 161  162 162 162  162 162 162  162 162 162  162 162 162  162 162 162  162 162 162  162 162 162  162 162 162  162 162 162  162 162 162  162 162 162  162 162 162  162 162 162  162 162 162  162 162 162  162 162 162  162 162 162  162 162 162  162 162 162  162 162 162  162 162 162  162 162 162  162 162 162  162 162 162  162 162 162  162 162 162  162 162 162  162 162 162  163 163 163  163 163 163  163 163 163  163 163 163  163 163 163  163 163 163  163 163 163  163 163 163  163 163 163  163 163 163  163 163 163  163 163 163  163 163 163  163 163 163  163 163 163  163 163 163  163 163 163  163 163 163  163 163 163  163 163 163  163 163 163  163 163 163  163 163 163  163 163 163  163 163 163  163 163 163  163 163 163  163 163 163  163 163 163  163 163 163  163 163 163  163 163 163  163 163 163  163 163 163  163 163 163  163 163 163  164 164 164  164 164 164  164 164 164  164 164 164  164 164 164  164 164 164  164 164 164  164 164 164  164 164 164  164 164 164  164 164 164  164 164 164  164 164 164  164 164 164  164 164 164  164 164 164  164 164 164  164 164 164  164 164 164  164 164 164  164 164 164  164 164 164  164 164 164  164 164 164  164 164 164  164 164 164  164 164 164  164 164 164  164 164 164  164 164 164  164 164 164  164 164 164  164 164 164  164 164 164  164 164 164  164 164 164  164 164 164  164 164 164  164 164 164  164 164 164  164 164 164  164 164 164  164 164 164  164 164 164  164 164 164  164 164 164  164 164 164  164 164 164  164 164 164  164 164 164  164 164 164  164 164 164  164 164 164  164 164 164  164 164 164  131 131 131  131 131 131  131 131 131  131 131 131  131 131 131  131 131 131  131 131 131  131 131 131  131 131 131  131 131 131  131 131 131  131 131 131  131 131 131  131 131 131  131 131 131  131 131 131  131 131 131  131 131 131  131 131 131  131 131 131  131 131 131  131 131 131  131 131 131  130 130 130  21 109 58  21 109 58  21 109 58  21 109 58  21 110 59  32 146 80  32 146 80  32 146 80  32 146 80  32 146 80  32 146 80  32 146 80  32 146 80  32 146 80  32 146 80  32 146 80  32 146 80  32 146 80  32 146 80  32 146 80  32 146 80  32 146 80  32 146 80  32 146 80  32 146 80  32 146 80  32 146 80  32 146 80  32 146 80  32 146 80  32 146 80  32 146 80  32 146 80  32 146 80  32 146 80  32 146 80  32 146 80  32 146 80  32 146 80  32 146 80  32 146 80  32 146 80  32 146 80  32 146 80  32 146 80  32 146 80  32 146 80  32 146 80  32 146 80  32 146 80  32 145 80  32 145 80  32 145 80  32 145 80  32 145 80  32 145 80  32 145 80  32 145 80  32 145 80  32 145 80  32 145 80  32 145 80  32 145 80  32 145 80  32 145 80  32 145 80  32 145 79  32 145 79  32 145 79  32 145 79  32 145 79  32 145 79  32 145 79  32 145 79  32 145 79  32 145 79  148 148 148  148 148 148  148 148 148  148 148 148  148 148 148  148 148 148  148 148 148  162 162 162  162 162 162  162 162 162  162 162 162  162 162 162  162 162 162  162 162 162  162 162 162  162 162 162  162 162 162  162 162 162  162 162 162  162 162 162  162 162 162  162 162 162  161 161 161  161 161 161  161 161 161  161 161 161  161 161 161  161 161 161  161 161 161  161 161 161  161 161 161  161 161 161  161 161 161  161 161 161  161 161 161  161 161 161  161 161 161  161 161 161  161 161 161  161 161 161  161 161 161  161 161 161  161 161 161  161 161 161  161 161 161  161 161 161  161 161 161  161 161 161  160 160 160  160 160 160  160 160 160  160 160 160  160 160 160  160 160 160  160 160 160  160 160 160  160 160 160  160 160 160  160 160 160  160 160 160  160 160 160
160 160 160  160 160 160  160 160 160  160 160 160  160 160 160  160 160 160  160 160 160  160 160 160  160 160 160  160 160 160  160 160 160  161 161 161  161 161 161  161 161 161  161 161 161  161 161 161  161 161 161  161 161 161  161 161 161  161 161 161  161 161 161  161 161 161  161 161 161  161 161 161  161 161 161  161 161 161  161 161 161  161 161 161  161 161 161  161 161 161  161 161 161  161 161 161  161 161 161  161 161 161  161 161 161  161 161 161  162 162 162  162 162 162  162 162 162  162 162 162  162 162 162  162 162 162  162 162 162  162 162 162  162 162 162  162 162 162  162 162 162  162 162 162  162 162 162  162 162 162  162 162 162  162 162 162  162 162 162  162 162 162  162 162 162  162 162 162  162 162 162  162 162 162  162 162 162  162 162 162  162 162 162  162 162 162  162 162 162  163 163 163  163 163 163  163 163 163  163 163 163  163 163 163  163 163 163  163 163 163  163 163 163  163 163 163  163 163 163  163 163 163  163 163 163  163 163 163  163 163 163  163 163 163  163 163 163  163 163 163  163 163 163  163 163 163  163 163 163  163 163 163  163 163 163  163 163 163  163 163 163  163 163 163  163 163 163  163 163 163  163 163 163  163 163 163  163 163 163  163 163 163  163 163 163  163 163 163  164 164 164  164 164 164  164 164 164  164 164 164  164 164 164  164 164 164  164 164 164  164 164 164  164 164 164  164 164 164  164 164 164  164 164 164  164 164 164  164 164 164  164 164 164  164 164 164  164 164 164  164 164 164  164 164 164  164 164 164  164 164 164  164 164 164  164 164 164  164 164 164  164 164 164  164 164 164  164 164 164  164 164 164  164 164 164  164 164 164  164 164 164  164 164 164  164 164 164  164 164 164  164 164 164  164 164 164  164 164 164  164 164 164  164 164 164  164 164 164  164 164 164  164 164 164  164 164 164  164 164 164  164 164 164  164 164 164  164 164 164  164 164 164  164 164 164  164 164 164  164 164 164  164 164 164  164 164 164  164 164 164  164 164 164  164 164 164  164 164 164  164 164 164  164 164 164  164 164 164  164 164 164  164 164 164  164 164 164  131 131 131  131 131 131  131 131 131  131 131 131  131 131 131  131 131 131  131 131 131  131 131 131  131 131 131  131 131 131  131 131 131  131 131 131  131 131 131  131 131 131  131 131 131  131 131 131  131 131 131  131 131 131  131 131 131  131 131 131  131 131 131  131 131 131  131 131 131  131 131 131  21 109 58  21 109 58  21 109 58  21 109 58  21 110 59  32 146 80  32 146 80  32 146 80  32 146 80  32 146 80  32 146 80  32 146 80  32 146 80  32 146 80  32 146 80  32 146 80  32 146 80  32 146 80  32 146 80  32 146 80  32 146 80  32 146 80  32 146 80  32 146 80  32 146 80  32 146 80  32 146 80  32 146 80  32 146 80  32 146 80  32 146 80  32 146 80  32 146 80  32 146 80  32 146 80  32 146 80  32 146 80  32 146 80  32 146 80  32 146 80  32 146 80  32 146 80  32 146 80  32 146 80  32 146 80  32 145 80  32 145 80  32 145 80  32 145 80  32 145 80  32 145 80  32 145 80  32 145 80  32 145 80  32 145 80  32 145 80  32 145 80  32 145 80  32 145 80  32 145 80  32 145 80  32 145 79  32 145 79  32 145 79  32 145 79  32 145 79  32 145 79  32 145 79  32 145 79  32 145 79  32 145 79  32 145 79  32 145 79  32 145 79  32 145 79  32 145 79  148 148 148  148 148 148  148 148 148  148 148 148  148 148 148  148 148 148  148 148 148  148 148 148  162 162 162  162 162 162  162 162 162  162 162 162  162 162 162  162 162 162  162 162 162  162 162 162  162 162 162  162 162 162  162 162 162  162 162 162  162 162 162  162 162 162  162 162 162  162 162 162  162 162 162  162 162 162  162 162 162  161 161 161  161 161 161  161 161 161  161 161 161  161 161 161  161 161 161  161 161 161  161 161 161  161 161 161  161 161 161  161 161 161  161 161 161  161 161 161  161 161 161  161 161 161  161 161 161  161 161 161  161 161 161  161 161 161  161 161 161  161 161 161  161 161 161  161 161 161  161 161 161  161 161 161  160 160 160  160 160 160  160 160 160  160 160 160  160 160 160  160 160 160  160 160 160  160 160 160  160 160 160
160 160 160  160 160 160  160 160 160  160 160 160  160 160 160  160 160 160  160 160 160  161 161 161  161 161 161  161 161 161  161 161 161  161 161 161  161 161 161  161 161 161  161 161 161  161 161 161  161 161 161  161 161 161  161 161 161  161 161 161  161 161 161  161 161 161  161 161 161  161 161 161  161 161 161  161 161 161  161 161 161  161 161 161  161 161 161  161 161 161  161 161 161  161 161 161  162 162 162  162 162 162  162 162 162  162 162 162  162 162 162  162 162 162  162 162 162  162 162 162  162 162 162  162 162 162  162 162 162  162 162 162  162 162 162  162 162 162  162 162 162  162 162 162  162 162 162  162 162 162  162 162 162  162 162 162  162 162 162  162 162 162  162 162 162  162 162 162  162 162 162  162 162 162  163 163 163  163 163 163  163 163 163  163 163 163  163 163 163  163 163 163  163 163 163  163 163 163  163 163 163  163 163 163  163 163 163  163 163 163  163 163 163  163 163 163  163 163 163  163 163 163  163 163 163  163 163 163  163 163 163  163 163 163  163 163 163  163 163 163  163 163 163  163 163 163  163 163 163  163 163 163  163 163 163  163 163 163  163 163 163  163 163 163  163 163 163  163 163 163  164 164 164  164 164 164  164 164 164  164 164 164  164 164 164  164 164 164  164 164 164  164 164 164  164 164 164  164 164 164  164 164 164  164 164 164  164 164 164  164 164 164  164 164 164  164 164 164  164 164 164  164 164 164  164 164 164  164 164 164  164 164 164  164 164 164  164 164 164  164 164 164  164 164 164  164 164 164  164 164 164  164 164 164  164 164 164  164 164 164  164 164 164  164 164 164  164 164 164  164 164 164  164 164 164  164 164 164  164 164 164  164 164 164  164 164 164  164 164 164  164 164 164  164 164 164  164 164 164  164 164 164  164 164 164  164 164 164  164 164 164  164 164 164  164 164 164  164 164 164  164 164 164  164 164 164  164 164 164  164 164 164  164 164 164  164 164 164  164 164 164  164 164 164  164 164 164  164 164 164  164 164 164  164 164 164  164 164 164  164 164 164  164 164 164  164 164 164  165 165 165  165 165 165  165 165 165  131 131 131  131 131 131  131 131 131  131 131 131  131 131 131  131 131 131  131 131 131  131 131 131  131 131 131  131 131 131  131 131 131  131 131 131  131 131 131  131 131 131  131 131 131  131 131 131  131 131 131  131 131 131  131 131 131  131 131 131  131 131 131  131 131 131  131 131 131  131 131 131  21 109 58  21 109 58  21 109 58  21 109 58  21 110 59  32 146 80  32 146 80  32 146 80  32 146 80  32 146 80  32 146 80  32 146 80  32 146 80  32 146 80  32 146 80  32 146 80  32 146 80  32 146 80  32 146 80  32 146 80  32 146 80  32 146 80  32 146 80  32 146 80  32 146 80  32 146 80  32 146 80  32 146 80  32 146 80  32 146 80  32 146 80  32 146 80  32 146 80  32 146 80  32 146 80  32 146 80  32 146 80  32 146 80  32 146 80  32 146 80  32 145 80  32 145 80  32 145 80  32 145 80  32 145 80  32 145 80  32 145 80  32 145 80  32 145 80  32 145 80  32 145 80  32 145 80  32 145 80  32 145 80  32 145 80  32 145 80  32 145 80  32 145 79  32 145 79  32 145 79  32 145 79  32 145 79  32 145 79  32 145 79  32 145 79  32 145 79  32 145 79  32 145 79  32 145 79  32 145 79  32 145 79  32 145 79  32 145 79  32 145 79  32 145 79  32 145 79  148 148 148  148 148 148  148 148 148  148 148 148  148 148 148  148 148 148  148 148 148  148 148 148  162 162 162  162 162 162  162 162 162  162 162 162  162 162 162  162 162 162  162 162 162  162 162 162  162 162 162  162 162 162  162 162 162  162 162 162  162 162 162  162 162 162  162 162 162  162 162 162  162 162 162  162 162 162  162 162 162  162 162 162  162 162 162  162 162 162  162 162 162  161 161 161  161 161 161  161 161 161  161 161 161  161 161 161  161 161 161  161 161 161  161 161 161  161 161 161  161 161 161  161 161 161  161 161 161  161 161 161  161 161 161  161 161 161  161 161 161  161 161 161  161 161 161  161 161 161  161 161 161  161 161 161  161 161 161  161 161 161  161 161 161  161 161 161  160 160 160  160 160 160  160 160 160  160 160 160  160 160 160
160 160 160  160 160 160  160 160 160  161 161 161  161 161 161  161 161 161  161 161 161  161 161 161  161 161 161  161 161 161  161 161 161  161 161 161  161 161 161  161 161 161  161 161 161  161 161 161  161 161 161  161 161 161  161 161 161  161 161 161  161 161 161  161 161 161  161 161 161  161 161 161  161 161 161  161 161 161  161 161 161  161 161 161  162 162 162  162 162 162  162 162 162  162 162 162  162 162 162  162 162 162  162 162 162  162 162 162  162 162 162  162 162 162  162 162 162  162 162 162  162 162 162  162 162 162  162 162 162  162 162 162  162 162 162  162 162 162  162 162 162  162 162 162  162 162 162  162 162 162  162 162 162  162 162 162  162 162 162  162 162 162  163 163 163  163 163 163  163 163 163  163 163 163  163 163 163  163 163 163  163 163 163  163 163 163  163 163 163  163 163 163  163 163 163  163 163 163  163 163 163  163 163 163  163 163 163  163 163 163  163 163 163  163 163 163  163 163 163  163 163 163  163 163 163  163 163 163  163 163 163  163 163 163  163 163 163  163 163 163  163 163 163  163 163 163  163 163 163  163 163 163  164 164 164  164 164 164  164 164 164  164 164 164  164 164 164  164 164 164  164 164 164  164 164 164  164 164 164  164 164 164  164 164 164  164 164 164  164 164 164  164 164 164  164 164 164  164 164 164  164 164 164  164 164 164  164 164 164  164 164 164  164 164 164  164 164 164  164 164 164  164 164 164  164 164 164  164 164 164  164 164 164  164 164 164  164 164 164  164 164 164  164 164 164  164 164 164  164 164 164  164 164 164  164 164 164  164 164 164  164 164 164  164 164 164  164 164 164  164 164 164  164 164 164  164 164 164  164 164 164  164 164 164  164 164 164  164 164 164  164 164 164  164 164 164  165 165 165  165 165 165  165 165 165  165 165 165  165 165 165  165 165 165  165 165 165  165 165 165  165 165 165  165 165 165  165 165 165  165 165 165  165 165 165  165 165 165  165 165 165  165 165 165  165 165 165  165 165 165  165 165 165  165 165 165  165 165 165  165 165 165  165 165 165  165 165 165  165 165 165  165 165 165  165 165 165  131 131 131  131 131 131  131 131 131  131 131 131  131 131 131  131 131 131  131 131 131  131 131 131  131 131 131  131 131 131  131 131 131  131 131 131  131 131 131  131 131 131  131 131 131  131 131 131  131 131 131  131 131 131  131 131 131  131 131 131  131 131 131  131 131 131  131 131 131  131 131 131  131 131 131  21 109 58  21 109 58  21 109 58  21 110 59  32 146 80  32 146 80  32 146 80  32 146 80  32 146 80  32 146 80  32 146 80  32 146 80  32 146 80  32 146 80  32 146 80  32 146 80  32 146 80  32 146 80  32 146 80  32 146 80  32 146 80  32 146 80  32 146 80  32 146 80  32 146 80  32 146 80  32 146 80  32 146 80  32 146 80  32 146 80  32 146 80  32 146 80  32 146 80  32 145 80  32 145 80  32 145 80  32 145 80  32 145 80  32 145 80  32 145 80  32 145 80  32 145 80  32 145 80  32 145 80  32 145 80  32 145 80  32 145 80  32 145 80  32 145 80  32 145 80  32 145 80  32 145 79  32 145 79  32 145 79  32 145 79  32 145 79  32 145 79  32 145 79  32 145 79  32 145 79  32 145 79  32 145 79  32 145 79  32 145 79  32 145 79  32 145 79  32 145 79  32 145 79  32 145 79  32 145 79  32 145 79  32 145 79  32 145 79  32 145 79  32 145 79  148 148 148  148 148 148  148 148 148  148 148 148  148 148 148  148 148 148  148 148 148  148 148 148  148 148 148  162 162 162  162 162 162  162 162 162  162 162 162  162 162 162  162 162 162  162 162 162  162 162 162  162 162 162  162 162 162  162 162 162  162 162 162  162 162 162  162 162 162  162 162 162  162 162 162  162 162 162  162 162 162  162 162 162  162 162 162  162 162 162  162 162 162  162 162 162  162 162 162  162 162 162  162 162 162  161 161 161  161 161 161  161 161 161  161 161 161  161 161 161  161 161 161  161 161 161  161 161 161  161 161 161  161 161 161  161 161 161  161 161 161  161 161 161  161 161 161  161 161 161  161 161 161  161 161 161  161 161 161  161 161 161  161 161 161  161 161 161  161 161 161  161 161 161  161 161 161  160 160 160  160 160 160
161 161 161  161 161 161  161 161 161  161 161 161  161 161 161  161 161 161  161 161 161  161 161 161  161 161 161  161 161 161  161 161 161  161 161 161  161 161 161  161 161 161  161 161 161  161 161 161  161 161 161  161 161 161  161 161 161  161 161 161  161 161 161  161 161 161  161 161 161  161 161 161  162 162 162  162 162 162  162 162 162  162 162 162  162 162 162  162 162 162  162 162 162  162 162 162  162 162 162  162 162 162  162 162 162  162 162 162  162 162 162  162 162 162  162 162 162  162 162 162  162 162 162  162 162 162  162 162 162  162 162 162  162 162 162  162 162 162  162 162 162  162 162 162  162 162 162  162 162 162  163 163 163  163 163 163  163 163 163  163 163 163  163 163 163  163 163 163  163 163 163  163 163 163  163 163 163  163 163 163  163 163 163  163 163 163  163 163 163  163 163 163  163 163 163  163 163 163  163 163 163  163 163 163  163 163 163  163 163 163  163 163 163  163 163 163  163 163 163  163 163 163  163 163 163  163 163 163  163 163 163  163 163 163  163 163 163  164 164 164  164 164 164  164 164 164  164 164 164  164 164 164  164 164 164  164 164 164  164 164 164  164 164 164  164 164 164  164 164 164  164 164 164  164 164 164  164 164 164  164 164 164  164 164 164  164 164 164  164 164 164  164 164 164  164 164 164  164 164 164  164 164 164  164 164 164  164 164 164  164 164 164  164 164 164  164 164 164  164 164 164  164 164 164  164 164 164  164 164 164  164 164 164  164 164 164  164 164 164  164 164 164  164 164 164  164 164 164  164 164 164  164 164 164  164 164 164  164 164 164  164 164 164  165 165 165  165 165 165  165 165 165  165 165 165  165 165 165  165 165 165  165 165 165  165 165 165  165 165 165  165 165 165  165 165 165  165 165 165  165 165 165  165 165 165  165 165 165  165 165 165  165 165 165  165 165 165  165 165 165  165 165 165  165 165 165  165 165 165  165 165 165  165 165 165  165 165 165  165 165 165  165 165 165  165 165 165  165 165 165  165 165 165  165 165 165  165 165 165  165 165 165  165 165 165  165 165 165  165 165 165  165 165 165  165 165 165  132 132 132  132 132 132  132 132 132  132 132 132  132 132 132  132 132 132  131 131 131  131 131 131  131 131 131  131 131 131  131 131 131  131 131 131  131 131 131  131 131 131  131 131 131  131 131 131  131 131 131  131 131 131  131 131 131  131 131 131  131 131 131  131 131 131  131 131 131  131 131 131  131 131 131  21 109 58  21 109 58  21 109 58  21 110 58  32 146 80  32 146 80  32 146 80  32 146 80  32 146 80  32 146 80  32 146 80  32 146 80  32 146 80  32 146 80  32 146 80  32 146 80  32 146 80  32 146 80  32 146 80  32 146 80  32 146 80  32 146 80  32 146 80  32 146 80  32 146 80  32 146 80  32 146 80  32 145 80  32 145 80  32 145 80  32 145 80  32 145 80  32 145 80  32 145 80  32 145 80  32 145 80  32 145 80  32 145 80  32 145 80  32 145 80  32 145 80  32 145 80  32 145 80  32 145 80  32 145 80  32 145 79  32 145 79  32 145 79  32 145 79  32 145 79  32 145 79  32 145 79  32 145 79  32 145 79  32 145 79  32 145 79  32 145 79  32 145 79  32 145 79  32 145 79  32 145 79  32 145 79  32 145 79  32 145 79  32 145 79  32 145 79  32 145 79  32 145 79  32 145 79  32 145 79  32 145 79  32 145 79  32 144 79  32 144 79  32 144 79  148 148 148  148 148 148  148 148 148  148 148 148  148 148 148  148 148 148  148 148 148  148 148 148  148 148 148  148 148 148  163 163 163  163 163 163  163 163 163  162 162 162  162 162 162  162 162 162  162 162 162  162 162 162  162 162 162  162 162 162  162 162 162  162 162 162  162 162 162  162 162 162  162 162 162  162 162 162  162 162 162  162 162 162  162 162 162  162 162 162  162 162 162  162 162 162  162 162 162  162 162 162  162 162 162  162 162 162  162 162 162  162 162 162  162 162 162  161 161 161  161 161 161  161 161 161  161 161 161  161 161 161  161 161 161  161 161 161  161 161 161  161 161 161  161 161 161  161 161 161  161 161 161  161 161 161  161 161 161  161 161 161  161 161 161  161 161 161  161 161 161  161 161 161  161 161 161  161 161 161  161 161 161
161 161 161  161 161 161  161 161 161  161 161 161  161 161 161  161 161 161  161 161 161  161 161 161  161 161 161  161 161 161  161 161 161  161 161 161  161 161 161  161 161 161  161 161 161  161 161 161  161 161 161  161 161 161  161 161 161  161 161 161  162 162 162  162 162 162  162 162 162  162 162 162  162 162 162  162 162 162  162 162 162  162 162 162  162 162 162  162 162 162  162 162 162  162 162 162  162 162 162  162 162 162  162 162 162  162 162 162  162 162 162  162 162 162  162 162 162  162 162 162  162 162 162  162 162 162  162 162 162  162 162 162  162 162 162  163 163 163  163 163 163  163 163 163  163 163 163  163 163 163  163 163 163  163 163 163  163 163 163  163 163 163  163 163 163  163 163 163  163 163 163  163 163 163  163 163 163  163 163 163  163 163 163  163 163 163  163 163 163  163 163 163  163 163 163  163 163 163  163 163 163  163 163 163  163 163 163  163 163 163  163 163 163  163 163 163  163 163 163  163 163 163  164 164 164  164 164 164  164 164 164  164 164 164  164 164 164  164 164 164  164 164 164  164 164 164  164 164 164  164 164 164  164 164 164  164 164 164  164 164 164  164 164 164  164 164 164  164 164 164  164 164 164  164 164 164  164 164 164  164 164 164  164 164 164  164 164 164  164 164 164  164 164 164  164 164 164  164 164 164  164 164 164  164 164 164  164 164 164  164 164 164  164 164 164  164 164 164  164 164 164  164 164 164  164 164 164  164 164 164  164 164 164  164 164 164  165 165 165  165 165 165  165 165 165  165 165 165  165 165 165  165 165 165  165 165 165  165 165 165  165 165 165  165 165 165  165 165 165  165 165 165  165 165 165  165 165 165  165 165 165  165 165 165  165 165 165  165 165 165  165 165 165  165 165 165  165 165 165  165 165 165  165 165 165  165 165 165  165 165 165  165 165 165  165 165 165  165 165 165  165 165 165  165 165 165  165 165 165  165 165 165  165 165 165  165 165 165  165 165 165  165 165 165  165 165 165  165 165 165  165 165 165  165 165 165  165 165 165  165 165 165  165 165 165  165 165 165  165 165 165  165 165 165  165 165 165  132 132 132  132 132 132  132 132 132  132 132 132  132 132 132  132 132 132  132 132 132  132 132 132  132 132 132  132 132 132  132 132 132  132 132 132  132 132 132  132 132 132  132 132 132  132 132 132  132 132 132  132 132 132  132 132 132  132 132 132  132 132 132  132 132 132  132 132 132  132 132 132  132 132 132  21 109 58  21 109 58  21 109 58  21 110 58  32 146 80  32 146 80  32 146 80  32 146 80  32 146 80  32 146 80  32 146 80  32 146 80  32 146 80  32 146 80  32 146 80  32 146 80  32 146 80  32 146 80  32 146 80  32 145 80  32 145 80  32 145 80  32 145 80  32 145 80  32 145 80  32 145 80  32 145 80  32 145 80  32 145 80  32 145 80  32 145 80  32 145 80  32 145 80  32 145 80  32 145 80  32 145 80  32 145 80  32 145 80  32 145 80  32 145 80  32 145 79  32 145 79  32 145 79  32 145 79  32 145 79  32 145 79  32 145 79  32 145 79  32 145 79  32 145 79  32 145 79  32 145 79  32 145 79  32 145 79  32 145 79  32 145 79  32 145 79  32 145 79  32 145 79  32 145 79  32 145 79  32 145 79  32 145 79  32 145 79  32 145 79  32 145 79  32 145 79  32 145 79  32 145 79  32 144 79  32 144 79  32 144 79  32 144 79  32 144 79  32 144 79  148 148 148  148 148 148  148 148 148  148 148 148  148 148 148  148 148 148  148 148 148  148 148 148  148 148 148  148 148 148  148 148 148  163 163 163  163 163 163  163 163 163  163 163 163  163 163 163  163 163 163  162 162 162  162 162 162  162 162 162  162 162 162  162 162 162  162 162 162  162 162 162  162 162 162  162 162 162  162 162 162  162 162 162  162 162 162  162 162 162  162 162 162  162 162 162  162 162 162  162 162 162  162 162 162  162 162 162  162 162 162  162 162 162  162 162 162  162 162 162  162 162 162  162 162 162  162 162 162  161 161 161  161 161 161  161 161 161  161 161 161  161 161 161  161 161 161  161 161 161  161 161 161  161 161 161  161 161 161  161 161 161  161 161 161  161 161 161  161 161 161  161 161 161  161 161 161  161 161 161  161 161 161
161 161 161  161 161 161  161 161 161  161 161 161  161 161 161  161 161 161  161 161 161  161 161 161  161 161 161  161 161 161  161 161 161  161 161 161  161 161 161  161 161 161  161 161 161  161 161 161  161 161 161  162 162 162  162 162 162  162 162 162  162 162 162  162 162 162  162 162 162  162 162 162  162 162 162  162 162 162  162 162 162  162 162 162  162 162 162  162 162 162  162 162 162  162 162 162  162 162 162  162 162 162  162 162 162  162 162 162  162 162 162  162 162 162  162 162 162  162 162 162  162 162 162  162 162 162  163 163 163  163 163 163  163 163 163  163 163 163  163 163 163  163 163 163  163 163 163  163 163 163  163 163 163  163 163 163  163 163 163  163 163 163  163 163 163  163 163 163  163 163 163  163 163 163  163 163 163  163 163 163  163 163 163  163 163 163  163 163 163  163 163 163  163 163 163  163 163 163  163 163 163  163 163 163  163 163 163  164 164 164  164 164 164  164 164 164  164 164 164  164 164 164  164 164 164  164 164 164  164 164 164  164 164 164  164 164 164  164 164 164  164 164 164  164 164 164  164 164 164  164 164 164  164 164 164  164 164 164  164 164 164  164 164 164  164 164 164  164 164 164  164 164 164  164 164 164  164 164 164  164 164 164  164 164 164  164 164 164  164 164 164  164 164 164  164 164 164  164 164 164  164 164 164  164 164 164  164 164 164  164 164 164  164 164 164  165 165 165  165 165 165  165 165 165  165 165 165  165 165 165  165 165 165  165 165 165  165 165 165  165 165 165  165 165 165  165 165 165  165 165 165  165 165 165  165 165 165  165 165 165  165 165 165  165 165 165  165 165 165  165 165 165  165 165 165  165 165 165  165 165 165  165 165 165  165 165 165  165 165 165  165 165 165  165 165 165  165 165 165  165 165 165  165 165 165  165 165 165  165 165 165  165 165 165  165 165 165  165 165 165  165 165 165  165 165 165  165 165 165  165 165 165  165 165 165  165 165 165  165 165 165  165 165 165  165 165 165  165 165 165  165 165 165  165 165 165  165 165 165  165 165 165  165 165 165  165 165 165  165 165 165  165 165 165  165 165 165  132 132 132  132 132 132  132 132 132  132 132 132  132 132 132  132 132 132  132 132 132  132 132 132  132 132 132  132 132 132  132 132 132  132 132 132  132 132 132  132 132 132  132 132 132  132 132 132  132 132 132  132 132 132  132 132 132  132 132 132  132 132 132  132 132 132  132 132 132  132 132 132  132 132 132  21 109 58  21 109 58  21 109 58  21 109 58  32 146 80  32 146 80  32 146 80  32 146 80  32 146 80  32 146 80  32 145 80  32 145 80  32 145 80  32 145 80  32 145 80  32 145 80  32 145 80  32 145 80  32 145 80  32 145 80  32 145 80  32 145 80  32 145 80  32 145 80  32 145 80  32 145 80  32 145 80  32 145 80  32 145 80  32 145 80  32 145 80  32 145 80  32 145 80  32 145 79  32 145 79  32 145 79  32 145 79  32 145 79  32 145 79  32 145 79  32 145 79  32 145 79  32 145 79  32 145 79  32 145 79  32 145 79  32 145 79  32 145 79  32 145 79  32 145 79  32 145 79  32 145 79  32 145 79  32 145 79  32 145 79  32 145 79  32 145 79  32 145 79  32 145 79  32 145 79  32 145 79  32 145 79  32 145 79  32 145 79  32 145 79  32 144 79  32 144 79  32 144 79  32 144 79  32 144 79  32 144 79  32 144 79  32 144 79  31 144 79  31 144 79  148 148 148  148 148 148  148 148 148  148 148 148  148 148 148  148 148 148  148 148 148  148 148 148  148 148 148  148 148 148  148 148 148  148 148 148  163 163 163  163 163 163  163 163 163  163 163 163  163 163 163  163 163 163  163 163 163  163 163 163  163 163 163  162 162 162  162 162 162  162 162 162  162 162 162  162 162 162  162 162 162  162 162 162  162 162 162  162 162 162  162 162 162  162 162 162  162 162 162  162 162 162  162 162 162  162 162 162  162 162 162  162 162 162  162 162 162  162 162 162  162 162 162  162 162 162  162 162 162  162 162 162  162 162 162  162 162 162  161 161 161  161 161 161  161 161 161  161 161 161  161 161 161  161 161 161  161 161 161  161 161 161  161 161 161  161 161 161  161 161 161  161 161 161  161 161 161  161 161 161  161 161 161
161 161 161  161 161 161  161 161 161  161 161 161  161 161 161  161 161 161  161 161 161  161 161 161  161 161 161  161 161 161  161 161 161  161 161 161  161 161 161  162 162 162  162 162 162  162 162 162  162 162 162  162 162 162  162 162 162  162 162 162  162 162 162  162 162 162  162 162 162  162 162 162  162 162 162  162 162 162  162 162 162  162 162 162  162 162 162  162 162 162  162 162 162  162 162 162  162 162 162  162 162 162  162 162 162  162 162 162  162 162 162  162 162 162  163 163 163  163 163 163  163 163 163  163 163 163  163 163 163  163 163 163  163 163 163  163 163 163  163 163 163  163 163 163  163 163 163  163 163 163  163 163 163  163 163 163  163 163 163  163 163 163  163 163 163  163 163 163  163 163 163  163 163 163  163 163 163  163 163 163  163 163 163  163 163 163  163 163 163  163 163 163  163 163 163  164 164 164  164 164 164  164 164 164  164 164 164  164 164 164  164 164 164  164 164 164  164 164 164  164 164 164  164 164 164  164 164 164  164 164 164  164 164 164  164 164 164  164 164 164  164 164 164  164 164 164  164 164 164  164 164 164  164 164 164  164 164 164  164 164 164  164 164 164  164 164 164  164 164 164  164 164 164  164 164 164  164 164 164  164 164 164  164 164 164  164 164 164  164 164 164  164 164 164  164 164 164  165 165 165  165 165 165  165 165 165  165 165 165  165 165 165  165 165 165  165 165 165  165 165 165  165 165 165  165 165 165  165 165 165  165 165 165  165 165 165  165 165 165  165 165 165  165 165 165  165 165 165  165 165 165  165 165 165  165 165 165  165 165 165  165 165 165  165 165 165  165 165 165  165 165 165  165 165 165  165 165 165  165 165 165  165 165 165  165 165 165  165 165 165  165 165 165  165 165 165  165 165 165  165 165 165  165 165 165  165 165 165  165 165 165  165 165 165  165 165 165  165 165 165  165 165 165  165 165 165  165 165 165  165 165 165  165 165 165  165 165 165  165 165 165  165 165 165  165 165 165  165 165 165  165 165 165  165 165 165  165 165 165  165 165 165  165 165 165  165 165 165  165 165 165  165 165 165  165 165 165  132 132 132  132 132 132  132 132 132  132 132 132  132 132 132  132 132 132  132 132 132  132 132 132  132 132 132  132 132 132  132 132 132  132 132 132  132 132 132  132 132 132  132 132 132  132 132 132  132 132 132  132 132 132  132 132 132  132 132 132  132 132 132  132 132 132  132 132 132  132 132 132  132 132 132  21 109 58  21 109 58  21 109 58  21 109 58  32 145 80  32 145 80  32 145 80  32 145 80  32 145 80  32 145 80  32 145 80  32 145 80  32 145 80  32 145 80  32 145 80  32 145 80  32 145 80  32 145 80  32 145 80  32 145 80  32 145 80  32 145 80  32 145 80  32 145 80  32 145 80  32 145 80  32 145 79  32 145 79  32 145 79  32 145 79  32 145 79  32 145 79  32 145 79  32 145 79  32 145 79  32 145 79  32 145 79  32 145 79  32 145 79  32 145 79  32 145 79  32 145 79  32 145 79  32 145 79  32 145 79  32 145 79  32 145 79  32 145 79  32 145 79  32 145 79  32 145 79  32 145 79  32 145 79  32 145 79  32 145 79  32 145 79  32 145 79  32 145 79  32 145 79  32 145 79  32 145 79  32 144 79  32 144 79  32 144 79  32 144 79  32 144 79  32 144 79  32 144 79  31 144 79  31 144 79  31 144 79  31 144 79  31 144 79  31 144 79  31 144 79  148 148 148  148 148 148  148 148 148  148 148 148  148 148 148  148 148 148  148 148 148  148 148 148  148 148 148  148 148 148  148 148 148  148 148 148  148 148 148  163 163 163  163 163 163  163 163 163  163 163 163  163 163 163  163 163 163  163 163 163  163 163 163  163 163 163  163 163 163  163 163 163  163 163 163  162 162 162  162 162 162  162 162 162  162 162 162  162 162 162  162 162 162  162 162 162  162 162 162  162 162 162  162 162 162  162 162 162  162 162 162  162 162 162  162 162 162  162 162 162  162 162 162  162 162 162  162 162 162  162 162 162  162 162 162  162 162 162  162 162 162  162 162 162  162 162 162  162 162 162  161 161 161  161 161 161  161 161 161  161 161 161  161 161 161  161 161 161  161 161 161  161 161 161  161 161 161  161 161 161  161 161 161
161 161 161  161 161 161  161 161 161  161 161 161  161 161 161  161 161 161  161 161 161  161 161 161  161 161 161  161 161 161  162 162 162  162 162 162  162 162 162  162 162 162  162 162 162  162 162 162  162 162 162  162 162 162  162 162 162  162 162 162  162 162 162  162 162 162  162 162 162  162 162 162  162 162 162  162 162 162  162 162 162  162 162 162  162 162 162  162 162 162  162 162 162  162 162 162  162 162 162  162 162 162  163 163 163  163 163 163  163 163 163  163 163 163  163 163 163  163 163 163  163 163 163  163 163 163  163 163 163  163 163 163  163 163 163  163 163 163  163 163 163  163 163 163  163 163 163  163 163 163  163 163 163  163 163 163  163 163 163  163 163 163  163 163 163  163 163 163  163 163 163  163 163 163  163 163 163  163 163 163  163 163 163  164 164 164  164 164 164  164 164 164  164 164 164  164 164 164  164 164 164  164 164 164  164 164 164  164 164 164  164 164 164  164 164 164  164 164 164  164 164 164  164 164 164  164 164 164  164 164 164  164 164 164  164 164 164  164 164 164  164 164 164  164 164 164  164 164 164  164 164 164  164 164 164  164 164 164  164 164 164  164 164 164  164 164 164  164 164 164  164 164 164  164 164 164  164 164 164  165 165 165  165 165 165  165 165 165  165 165 165  165 165 165  165 165 165  165 165 165  165 165 165  165 165 165  165 165 165  165 165 165  165 165 165  165 165 165  165 165 165  165 165 165  165 165 165  165 165 165  165 165 165  165 165 165  165 165 165  165 165 165  165 165 165  165 165 165  165 165 165  165 165 165  165 165 165  165 165 165  165 165 165  165 165 165  165 165 165  165 165 165  165 165 165  165 165 165  165 165 165  165 165 165  165 165 165  165 165 165  165 165 165  165 165 165  165 165 165  165 165 165  165 165 165  165 165 165  165 165 165  165 165 165  165 165 165  165 165 165  165 165 165  165 165 165  165 165 165  165 165 165  165 165 165  165 165 165  165 165 165  165 165 165  165 165 165  165 165 165  165 165 165  165 165 165  165 165 165  165 165 165  165 165 165  165 165 165  165 165 165  165 165 165  165 165 165  132 132 132  132 132 132  132 132 132  132 132 132  132 132 132  132 132 132  132 132 132  132 132 132  132 132 132  132 132 132  132 132 132  132 132 132  132 132 132  132 132 132  132 132 132  132 132 132  132 132 132  132 132 132  132 132 132  132 132 132  132 132 132  132 132 132  132 132 132  132 132 132  132 132 132  21 109 58  21 109 58  21 109 58  21 109 58  32 145 80  32 145 80  32 145 80  32 145 80  32 145 80  32 145 80  32 145 80  32 145 80  32 145 80  32 145 80  32 145 80  32 145 80  32 145 80  32 145 80  32 145 79  32 145 79  32 145 79  32 145 79  32 145 79  32 145 79  32 145 79  32 145 79  32 145 79  32 145 79  32 145 79  32 145 79  32 145 79  32 145 79  32 145 79  32 145 79  32 145 79  32 145 79  32 145 79  32 145 79  32 145 79  32 145 79  32 145 79  32 145 79  32 145 79  32 145 79  32 145 79  32 145 79  32 145 79  32 145 79  32 145 79  32 145 79  32 145 79  32 145 79  32 145 79  32 145 79  32 145 79  32 145 79  32 144 79  32 144 79  32 144 79  32 144 79  32 144 79  32 144 79  31 144 79  31 144 79  31 144 79  31 144 79  31 144 79  31 144 79  31 144 79  31 144 79  31 144 79  31 144 79  31 144 79  31 144 79  148 148 148  148 148 148  148 148 148  148 148 148  148 148 148  148 148 148  148 148 148  148 148 148  148 148 148  148 148 148  148 148 148  148 148 148  148 148 148  148 148 148  148 148 148  163 163 163  163 163 163  163 163 163  163 163 163  163 163 163  163 163 163  163 163 163  163 163 163  163 163 163  163 163 163  163 163 163  163 163 163  163 163 163  163 163 163  163 163 163  162 162 162  162 162 162  162 162 162  162 162 162  162 162 162  162 162 162  162 162 162  162 162 162  162 162 162  162 162 162  162 162 162  162 162 162  162 162 162  162 162 162  162 162 162  162 162 162  162 162 162  162 162 162  162 162 162  162 162 162  162 162 162  162 162 162  162 162 162  162 162 162  161 161 161  161 161 161  161 161 161  161 161 161  161 161 161  161 161 161  161 161 161  161 161 161
161 161 161  161 161 161  161 161 161  161 161 161  161 161 161  161 161 161  162 162 162  162 162 162  162 162 162  162 162 162  162 162 162  162 162 162  162 162 162  162 162 162  162 162 162  162 162 162  162 162 162  162 162 162  162 162 162  162 162 162  162 162 162  162 162 162  162 162 162  162 162 162  162 162 162  162 162 162  162 162 162  162 162 162  162 162 162  162 162 162  163 163 163  163 163 163  163 163 163  163 163 163  163 163 163  163 163 163  163 163 163  163 163 163  163 163 163  163 163 163  163 163 163  163 163 163  163 163 163  163 163 163  163 163 163  163 163 163  163 163 163  163 163 163  163 163 163  163 163 163  163 163 163  163 163 163  163 163 163  163 163 163  163 163 163  163 163 163  163 163 163  164 164 164  164 164 164  164 164 164  164 164 164  164 164 164  164 164 164  164 164 164  164 164 164  164 164 164  164 164 164  164 164 164  164 164 164  164 164 164  164 164 164  164 164 164  164 164 164  164 164 164  164 164 164  164 164 164  164 164 164  164 164 164  164 164 164  164 164 164  164 164 164  164 164 164  164 164 164  164 164 164  164 164 164  164 164 164  164 164 164  164 164 164  165 165 165  165 165 165  165 165 165  165 165 165  165 165 165  165 165 165  165 165 165  165 165 165  165 165 165  165 165 165  165 165 165  165 165 165  165 165 165  165 165 165  165 165 165  165 165 165  165 165 165  165 165 165  165 165 165  165 165 165  165 165 165  165 165 165  165 165 165  165 165 165  165 165 165  165 165 165  165 165 165  165 165 165  165 165 165  165 165 165  165 165 165  165 165 165  165 165 165  165 165 165  165 165 165  165 165 165  165 165 165  165 165 165  165 165 165  165 165 165  165 165 165  165 165 165  165 165 165  165 165 165  165 165 165  165 165 165  165 165 165  165 165 165  165 165 165  165 165 165  165 165 165  165 165 165  165 165 165  166 166 166  166 166 166  166 166 166  166 166 166  166 166 166  166 166 166  166 166 166  166 166 166  166 166 166  166 166 166  166 166 166  166 166 166  166 166 166  166 166 166  166 166 166  166 166 166  166 166 166  166 166 166  132 132 132  132 132 132  132 132 132  132 132 132  132 132 132  132 132 132  132 132 132  132 132 132  132 132 132  132 132 132  132 132 132  132 132 132  132 132 132  132 132 132  132 132 132  132 132 132  132 132 132  132 132 132  132 132 132  132 132 132  132 132 132  132 132 132  132 132 132  132 132 132  132 132 132  132 132 132  21 109 58  21 109 58  21 109 58  32 145 80  32 145 80  32 145 79  32 145 79  32 145 79  32 145 79  32 145 79  32 145 79  32 145 79  32 145 79  32 145 79  32 145 79  32 145 79  32 145 79  32 145 79  32 145 79  32 145 79  32 145 79  32 145 79  32 145 79  32 145 79  32 145 79  32 145 79  32 145 79  32 145 79  32 145 79  32 145 79  32 145 79  32 145 79  32 145 79  32 145 79  32 145 79  32 145 79  32 145 79  32 145 79  32 145 79  32 145 79  32 145 79  32 145 79  32 145 79  32 145 79  32 145 79  32 145 79  32 145 79  32 145 79  32 145 79  32 145 79  32 145 79  32 144 79  32 144 79  32 144 79  32 144 79  31 144 79  31 144 79  31 144 79  31 144 79  31 144 79  31 144 79  31 144 79  31 144 79  31 144 79  31 144 79  31 144 79  31 144 79  31 144 79  31 144 79  31 144 79  31 144 79  31 144 79  31 144 79  148 148 148  148 148 148  148 148 148  148 148 148  148 148 148  148 148 148  148 148 148  148 148 148  148 148 148  148 148 148  148 148 148  148 148 148  148 148 148  148 148 148  148 148 148  148 148 148  163 163 163  163 163 163  163 163 163  163 163 163  163 163 163  163 163 163  163 163 163  163 163 163  163 163 163  163 163 163  163 163 163  163 163 163  163 163 163  163 163 163  163 163 163  163 163 163  163 163 163  162 162 162  162 162 162  162 162 162  162 162 162  162 162 162  162 162 162  162 162 162  162 162 162  162 162 162  162 162 162  162 162 162  162 162 162  162 162 162  162 162 162  162 162 162  162 162 162  162 162 162  162 162 162  162 162 162  162 162 162  162 162 162  162 162 162  162 162 162  162 162 162  162 162 162  161 161 161  161 161 161  161 161 161  161 161 161
161 161 161  161 161 161  161 161 161  162 162 162  162 162 162  162 162 162  162 162 162  162 162 162  162 162 162  162 162 162  162 162 162  162 162 162  162 162 162  162 162 162  162 162 162  162 162 162  162 162 162  162 162 162  162 162 162  162 162 162  162 162 162  162 162 162  162 162 162  162 162 162  162 162 162  162 162 162  162 162 162  163 163 163  163 163 163  163 163 163  163 163 163  163 163 163  163 163 163  163 163 163  163 163 163  163 163 163  163 163 163  163 163 163  163 163 163  163 163 163  163 163 163  163 163 163  163 163 163  163 163 163  163 163 163  163 163 163  163 163 163  163 163 163  163 163 163  163 163 163  163 163 163  163 163 163  163 163 163  164 164 164  164 164 164  164 164 164  164 164 164  164 164 164  164 164 164  164 164 164  164 164 164  164 164 164  164 164 164  164 164 164  164 164 164  164 164 164  164 164 164  164 164 164  164 164 164  164 164 164  164 164 164  164 164 164  164 164 164  164 164 164  164 164 164  164 164 164  164 164 164  164 164 164  164 164 164  164 164 164  164 164 164  164 164 164  164 164 164  165 165 165  165 165 165  165 165 165  165 165 165  165 165 165  165 165 165  165 165 165  165 165 165  165 165 165  165 165 165  165 165 165  165 165 165  165 165 165  165 165 165  165 165 165  165 165 165  165 165 165  165 165 165  165 165 165  165 165 165  165 165 165  165 165 165  165 165 165  165 165 165  165 165 165  165 165 165  165 165 165  165 165 165  165 165 165  165 165 165  165 165 165  165 165 165  165 165 165  165 165 165  165 165 165  165 165 165  165 165 165  165 165 165  165 165 165  165 165 165  165 165 165  165 165 165  165 165 165  165 165 165  165 165 165  166 166 166  166 166 166  166 166 166  166 166 166  166 166 166  166 166 166  166 166 166  166 166 166  166 166 166  166 166 166  166 166 166  166 166 166  166 166 166  166 166 166  166 166 166  166 166 166  166 166 166  166 166 166  166 166 166  166 166 166  166 166 166  166 166 166  166 166 166  166 166 166  166 166 166  166 166 166  166 166 166  166 166 166  166 166 166  166 166 166  166 166 166  133 133 133  133 133 133  133 133 133  133 133 133  133 133 133  133 133 133  133 133 133  133 133 133  133 133 133  133 133 133  133 133 133  133 133 133  133 133 133  133 133 133  133 133 133  133 133 133  133 133 133  133 133 133  133 133 133  133 133 133  133 133 133  133 133 133  133 133 133  133 133 133  133 133 133  133 133 133  21 109 58  21 109 58  21 109 58  32 145 79  32 145 79  32 145 79  32 145 79  32 145 79  32 145 79  32 145 79  32 145 79  32 145 79  32 145 79  32 145 79  32 145 79  32 145 79  32 145 79  32 145 79  32 145 79  32 145 79  32 145 79  32 145 79  32 145 79  32 145 79  32 145 79  32 145 79  32 145 79  32 145 79  32 145 79  32 145 79  32 145 79  32 145 79  32 145 79  32 145 79  32 145 79  32 145 79  32 145 79  32 145 79  32 145 79  32 145 79  32 145 79  32 145 79  32 145 79  32 145 79  32 145 79  32 145 79  32 144 79  32 144 79  31 144 79  31 144 79  31 144 79  31 144 79  31 144 79  31 144 79  31 144 79  31 144 79  31 144 79  31 144 79  31 144 79  31 144 79  31 144 79  31 144 79  31 144 79  31 144 79  31 144 79  31 144 79  31 144 79  31 144 79  31 144 79  31 144 79  31 144 79  31 144 79  31 144 79  148 148 148  148 148 148  148 148 148  148 148 148  148 148 148  148 148 148  148 148 148  148 148 148  148 148 148  148 148 148  148 148 148  148 148 148  148 148 148  148 148 148  148 148 148  148 148 148  163 163 163  163 163 163  163 163 163  163 163 163  163 163 163  163 163 163  163 163 163  163 163 163  163 163 163  163 163 163  163 163 163  163 163 163  163 163 163  163 163 163  163 163 163  163 163 163  163 163 163  163 163 163  163 163 163  163 163 163  163 163 163  162 162 162  162 162 162  162 162 162  162 162 162  162 162 162  162 162 162  162 162 162  162 162 162  162 162 162  162 162 162  162 162 162  162 162 162  162 162 162  162 162 162  162 162 162  162 162 162  162 162 162  162 162 162  162 162 162  162 162 162  162 162 162  162 162 162  162 162 162  162 162 162  161 161 161
162 162 162  162 162 162  162 162 162  162 162 162  162 162 162  162 162 162  162 162 162  162 162 162  162 162 162  162 162 162  162 162 162  162 162 162  162 162 162  162 162 162  162 162 162  162 162 162  162 162 162  162 162 162  162 162 162  162 162 162  162 162 162  162 162 162  162 162 162  162 162 162  163 163 163  163 163 163  163 163 163  163 163 163  163 163 163  163 163 163  163 163 163  163 163 163  163 163 163  163 163 163  163 163 163  163 163 163  163 163 163  163 163 163  163 163 163  163 163 163  163 163 163  163 163 163  163 163 163  163 163 163  163 163 163  163 163 163  163 163 163  163 163 163  163 163 163  164 164 164  164 164 164  164 164 164  164 164 164  164 164 164  164 164 164  164 164 164  164 164 164  164 164 164  164 164 164  164 164 164  164 164 164  164 164 164  164 164 164  164 164 164  164 164 164  164 164 164  164 164 164  164 164 164  164 164 164  164 164 164  164 164 164  164 164 164  164 164 164  164 164 164  164 164 164  164 164 164  164 164 164  164 164 164  165 165 165  165 165 165  165 165 165  165 165 165  165 165 165  165 165 165  165 165 165  165 165 165  165 165 165  165 165 165  165 165 165  165 165 165  165 165 165  165 165 165  165 165 165  165 165 165  165 165 165  165 165 165  165 165 165  165 165 165  165 165 165  165 165 165  165 165 165  165 165 165  165 165 165  165 165 165  165 165 165  165 165 165  165 165 165  165 165 165  165 165 165  165 165 165  165 165 165  165 165 165  165 165 165  165 165 165  165 165 165  165 165 165  165 165 165  165 165 165  165 165 165  166 166 166  166 166 166  166 166 166  166 166 166  166 166 166  166 166 166  166 166 166  166 166 166  166 166 166  166 166 166  166 166 166  166 166 166  166 166 166  166 166 166  166 166 166  166 166 166  166 166 166  166 166 166  166 166 166  166 166 166  166 166 166  166 166 166  166 166 166  166 166 166  166 166 166  166 166 166  166 166 166  166 166 166  166 166 166  166 166 166  166 166 166  166 166 166  166 166 166  166 166 166  166 166 166  166 166 166  166 166 166  166 166 166  166 166 166  166 166 166  133 133 133  133 133 133  133 133 133  133 133 133  133 133 133  133 133 133  133 133 133  133 133 133  133 133 133  133 133 133  133 133 133  133 133 133  133 133 133  133 133 133  133 133 133  133 133 133  133 133 133  133 133 133  133 133 133  133 133 133  133 133 133  133 133 133  133 133 133  133 133 133  133 133 133  133 133 133  21 109 58  21 109 58  32 145 79  32 145 79  32 145 79  32 145 79  32 145 79  32 145 79  32 145 79  32 145 79  32 145 79  32 145 79  32 145 79  32 145 79  32 145 79  32 145 79  32 145 79  32 145 79  32 145 79  32 145 79  32 145 79  32 145 79  32 145 79  32 145 79  32 145 79  32 145 79  32 145 79  32 145 79  32 145 79  32 145 79  32 145 79  32 145 79  32 145 79  32 145 79  32 145 79  32 145 79  32 145 79  32 145 79  32 145 79  32 145 79  31 145 79  31 144 79  31 144 79  31 144 79  31 144 79  31 144 79  31 144 79  31 144 79  31 144 79  31 144 79  31 144 79  31 144 79  31 144 79  31 144 79  31 144 79  31 144 79  31 144 79  31 144 79  31 144 79  31 144 79  31 144 79  31 144 79  31 144 79  31 144 79  31 144 79  31 144 79  31 144 79  31 144 79  31 144 79  31 144 79  31 144 79  31 144 79  31 144 79  148 148 148  148 148 148  148 148 148  148 148 148  148 148 148  148 148 148  148 148 148  148 148 148  148 148 148  148 148 148  148 148 148  148 148 148  148 148 148  148 148 148  148 148 148  148 148 148  148 148 148  163 163 163  163 163 163  163 163 163  163 163 163  163 163 163  163 163 163  163 163 163  163 163 163  163 163 163  163 163 163  163 163 163  163 163 163  163 163 163  163 163 163  163 163 163  163 163 163  163 163 163  163 163 163  163 163 163  163 163 163  163 163 163  163 163 163  163 163 163  162 162 162  162 162 162  162 162 162  162 162 162  162 162 162  162 162 162  162 162 162  162 162 162  162 162 162  162 162 162  162 162 162  162 162 162  162 162 162  162 162 162  162 162 162  162 162 162  162 162 162  162 162 162  162 162 162  162 162 162  162 162 162  162 162 162
162 162 162  162 162 162  162 162 162  162 162 162  162 162 162  162 162 162  162 162 162  162 162 162  162 162 162  162 162 162  162 162 162  162 162 162  162 162 162  162 162 162  162 162 162  162 162 162  162 162 162  162 162 162  162 162 162  162 162 162  163 163 163  163 163 163  163 163 163  163 163 163  163 163 163  163 163 163  163 163 163  163 163 163  163 163 163  163 163 163  163 163 163  163 163 163  163 163 163  163 163 163  163 163 163  163 163 163  163 163 163  163 163 163  163 163 163  163 163 163  163 163 163  163 163 163  163 163 163  163 163 163  163 163 163  164 164 164  164 164 164  164 164 164  164 164 164  164 164 164  164 164 164  164 164 164  164 164 164  164 164 164  164 164 164  164 164 164  164 164 164  164 164 164  164 164 164  164 164 164  164 164 164  164 164 164  164 164 164  164 164 164  164 164 164  164 164 164  164 164 164  164 164 164  164 164 164  164 164 164  164 164 164  164 164 164  164 164 164  164 164 164  165 165 165  165 165 165  165 165 165  165 165 165  165 165 165  165 165 165  165 165 165  165 165 165  165 165 165  165 165 165  165 165 165  165 165 165  165 165 165  165 165 165  165 165 165  165 165 165  165 165 165  165 165 165  165 165 165  165 165 165  165 165 165  165 165 165  165 165 165  165 165 165  165 165 165  165 165 165  165 165 165  165 165 165  165 165 165  165 165 165  165 165 165  165 165 165  165 165 165  165 165 165  165 165 165  165 165 165  165 165 165  165 165 165  166 166 166  166 166 166  166 166 166  166 166 166  166 166 166  166 166 166  166 166 166  166 166 166  166 166 166  166 166 166  166 166 166  166 166 166  166 166 166  166 166 166  166 166 166  166 166 166  166 166 166  166 166 166  166 166 166  166 166 166  166 166 166  166 166 166  166 166 166  166 166 166  166 166 166  166 166 166  166 166 166  166 166 166  166 166 166  166 166 166  166 166 166  166 166 166  166 166 166  166 166 166  166 166 166  166 166 166  166 166 166  166 166 166  166 166 166  166 166 166  166 166 166  166 166 166  166 166 166  166 166 166  166 166 166  166 166 166  166 166 166  133 133 133  133 133 133  133 133 133  133 133 133  133 133 133  133 133 133  133 133 133  133 133 133  133 133 133  133 133 133  133 133 133  133 133 133  133 133 133  133 133 133  133 133 133  133 133 133  133 133 133  133 133 133  133 133 133  133 133 133  133 133 133  133 133 133  133 133 133  133 133 133  133 133 133  133 133 133  21 109 58  21 109 58  32 145 79  32 145 79  32 145 79  32 145 79  32 145 79  32 145 79  32 145 79  32 145 79  32 145 79  32 145 79  32 145 79  32 145 79  32 145 79  32 145 79  32 145 79  32 145 79  32 145 79  32 145 79  32 145 79  32 145 79  32 145 79  32 145 79  32 145 79  32 145 79  32 145 79  32 145 79  32 145 79  32 145 79  32 145 79  31 145 79  31 145 79  31 145 79  31 145 79  31 144 79  31 144 79  31 144 79  31 144 79  31 144 79  31 144 79  31 144 79  31 144 79  31 144 79  31 144 79  31 144 79  31 144 79  31 144 79  31 144 79  31 144 79  31 144 79  31 144 79  31 144 79  31 144 79  31 144 79  31 144 79  31 144 79  31 144 79  31 144 79  31 144 79  31 144 79  31 144 79  31 144 79  31 144 79  31 144 79  31 144 79  31 144 79  31 144 79  31 144 79  31 144 79  31 144 79  31 144 79  31 144 79  148 148 148  148 148 148  148 148 148  148 148 148  148 148 148  148 148 148  148 148 148  148 148 148  148 148 148  148 148 148  148 148 148  148 148 148  148 148 148  148 148 148  148 148 148  148 148 148  148 148 148  164 164 164  164 164 164  163 163 163  163 163 163  163 163 163  163 163 163  163 163 163  163 163 163  163 163 163  163 163 163  163 163 163  163 163 163  163 163 163  163 163 163  163 163 163  163 163 163  163 163 163  163 163 163  163 163 163  163 163 163  163 163 163  163 163 163  163 163 163  163 163 163  163 163 163  163 163 163  163 163 163  162 162 162  162 162 162  162 162 162  162 162 162  162 162 162  162 162 162  162 162 162  162 162 162  162 162 162  162 162 162  162 162 162  162 162 162  162 162 162  162 162 162  162 162 162  162 162 162  162 162 162  162 162 162
162 162 162  162 162 162  162 162 162  162 162 162  162 162 162  162 162 162  162 162 162  162 162 162  162 162 162  162 162 162  162 162 162  162 162 162  162 162 162  162 162 162  162 162 162  162 162 162  162 162 162  163 163 163  163 163 163  163 163 163  163 163 163  163 163 163  163 163 163  163 163 163  163 163 163  163 163 163  163 163 163  163 163 163  163 163 163  163 163 163  163 163 163  163 163 163  163 163 163  163 163 163  163 163 163  163 163 163  163 163 163  163 163 163  163 163 163  163 163 163  163 163 163  163 163 163  164 164 164  164 164 164  164 164 164  164 164 164  164 164 164  164 164 164  164 164 164  164 164 164  164 164 164  164 164 164  164 164 164  164 164 164  164 164 164  164 164 164  164 164 164  164 164 164  164 164 164  164 164 164  164 164 164  164 164 164  164 164 164  164 164 164  164 164 164  164 164 164  164 164 164  164 164 164  164 164 164  164 164 164  165 165 165  165 165 165  165 165 165  165 165 165  165 165 165  165 165 165  165 165 165  165 165 165  165 165 165  165 165 165  165 165 165  165 165 165  165 165 165  165 165 165  165 165 165  165 165 165  165 165 165  165 165 165  165 165 165  165 165 165  165 165 165  165 165 165  165 165 165  165 165 165  165 165 165  165 165 165  165 165 165  165 165 165  165 165 165  165 165 165  165 165 165  165 165 165  165 165 165  165 165 165  165 165 165  165 165 165  166 166 166  166 166 166  166 166 166  166 166 166  166 166 166  166 166 166  166 166 166  166 166 166  166 166 166  166 166 166  166 166 166  166 166 166  166 166 166  166 166 166  166 166 166  166 166 166  166 166 166  166 166 166  166 166 166  166 166 166  166 166 166  166 166 166  166 166 166  166 166 166  166 166 166  166 166 166  166 166 166  166 166 166  166 166 166  166 166 166  166 166 166  166 166 166  166 166 166  166 166 166  166 166 166  166 166 166  166 166 166  166 166 166  166 166 166  166 166 166  166 166 166  166 166 166  166 166 166  166 166 166  166 166 166  166 166 166  166 166 166  166 166 166  166 166 166  166 166 166  166 166 166  166 166 166  166 166 166  133 133 133  133 133 133  133 133 133  133 133 133  133 133 133  133 133 133  133 133 133  133 133 133  133 133 133  133 133 133  133 133 133  133 133 133  133 133 133  133 133 133  133 133 133  133 133 133  133 133 133  133 133 133  133 133 133  133 133 133  133 133 133  133 133 133  133 133 133  133 133 133  133 133 133  133 133 133  21 109 58  21 109 58  32 145 79  32 145 79  32 145 79  32 145 79  32 145 79  32 145 79  32 145 79  32 145 79  32 145 79  32 145 79  32 145 79  32 145 79  32 145 79  32 145 79  32 145 79  32 145 79  32 145 79  31 145 79  31 145 79  31 145 79  31 145 79  31 145 79  31 145 79  31 145 79  31 145 79  31 145 79  31 145 79  31 144 79  31 144 79  31 144 79  31 144 79  31 144 79  31 144 79  31 144 79  31 144 79  31 144 79  31 144 79  31 144 79  31 144 79  31 144 79  31 144 79  31 144 79  31 144 79  31 144 79  31 144 79  31 144 79  31 144 79  31 144 79  31 144 79  31 144 79  31 144 79  31 144 79  31 144 79  31 144 79  31 144 79  31 144 79  31 144 79  31 144 79  31 144 79  31 144 79  31 144 79  31 144 79  31 144 79  31 144 79  31 144 79  31 144 79  31 144 79  31 144 79  31 144 79  31 144 79  31 144 79  148 148 148  148 148 148  148 148 148  148 148 148  148 148 148  148 148 148  148 148 148  148 148 148  148 148 148  148 148 148  148 148 148  148 148 148  148 148 148  148 148 148  148 148 148  164 164 164  164 164 164  164 164 164  164 164 164  164 164 164  164 164 164  164 164 164  163 163 163  163 163 163  163 163 163  163 163 163  163 163 163  163 163 163  163 163 163  163 163 163  163 163 163  163 163 163  163 163 163  163 163 163  163 163 163  163 163 163  163 163 163  163 163 163  163 163 163  163 163 163  163 163 163  163 163 163  163 163 163  163 163 163  163 163 163  163 163 163  163 163 163  162 162 162  162 162 162  162 162 162  162 162 162  162 162 162  162 162 162  162 162 162  162 162 162  162 162 162  162 162 162  162 162 162  162 162 162  162 162 162  162 162 162  162 162 162
162 162 162  162 162 162  162 162 162  162 162 162  162 162 162  162 162 162  162 162 162  162 162 162  162 162 162  162 162 162  162 162 162  162 162 162  162 162 162  162 162 162  163 163 163  163 163 163  163 163 163  163 163 163  163 163 163  163 163 163  163 163 163  163 163 163  163 163 163  163 163 163  163 163 163  163 163 163  163 163 163  163 163 163  163 163 163  163 163 163  163 163 163  163 163 163  163 163 163  163 163 163  163 163 163  163 163 163  163 163 163  163 163 163  163 163 163  164 164 164  164 164 164  164 164 164  164 164 164  164 164 164  164 164 164  164 164 164  164 164 164  164 164 164  164 164 164  164 164 164  164 164 164  164 164 164  164 164 164  164 164 164  164 164 164  164 164 164  164 164 164  164 164 164  164 164 164  164 164 164  164 164 164  164 164 164  164 164 164  164 164 164  164 164 164  164 164 164  165 165 165  165 165 165  165 165 165  165 165 165  165 165 165  165 165 165  165 165 165  165 165 165  165 165 165  165 165 165  165 165 165  165 165 165  165 165 165  165 165 165  165 165 165  165 165 165  165 165 165  165 165 165  165 165 165  165 165 165  165 165 165  165 165 165  165 165 165  165 165 165  165 165 165  165 165 165  165 165 165  165 165 165  165 165 165  165 165 165  165 165 165  165 165 165  165 165 165  165 165 165  166 166 166  166 166 166  166 166 166  166 166 166  166 166 166  166 166 166  166 166 166  166 166 166  166 166 166  166 166 166  166 166 166  166 166 166  166 166 166  166 166 166  166 166 166  166 166 166  166 166 166  166 166 166  166 166 166  166 166 166  166 166 166  166 166 166  166 166 166  166 166 166  166 166 166  166 166 166  166 166 166  166 166 166  166 166 166  166 166 166  166 166 166  166 166 166  166 166 166  166 166 166  166 166 166  166 166 166  166 166 166  166 166 166  166 166 166  166 166 166  166 166 166  166 166 166  166 166 166  166 166 166  166 166 166  166 166 166  166 166 166  166 166 166  166 166 166  166 166 166  166 166 166  166 166 166  166 166 166  166 166 166  166 166 166  166 166 166  166 166 166  166 166 166  166 166 166  166 166 166  166 166 166  166 166 166  133 133 133  133 133 133  133 133 133  133 133 133  133 133 133  133 133 133  133 133 133  133 133 133  133 133 133  133 133 133  133 133 133  133 133 133  133 133 133  133 133 133  133 133 133  133 133 133  133 133 133  133 133 133  133 133 133  133 133 133  133 133 133  133 133 133  133 133 133  133 133 133  21 109 58  31 145 79  31 145 79  31 145 79  31 145 79  31 145 79  31 145 79  31 145 79  31 145 79  31 145 79  31 145 79  31 145 79  31 145 79  31 145 79  31 145 79  31 145 79  31 145 79  31 145 79  31 145 79  31 145 79  31 144 79  31 144 79  31 144 79  31 144 79  31 144 79  31 144 79  31 144 79  31 144 79  31 144 79  31 144 79  31 144 79  31 144 79  31 144 79  31 144 79  31 144 79  31 144 79  31 144 79  31 144 79  31 144 79  31 144 79  31 144 79  31 144 79  31 144 79  31 144 79  31 144 79  31 144 79  31 144 79  31 144 79  31 144 79  31 144 79  31 144 79  31 144 79  31 144 79  31 144 79  31 144 79  31 144 79  31 144 79  31 144 79  31 144 79  31 144 79  31 144 79  31 144 79  31 144 79  31 144 79  31 144 79  31 144 79  31 144 79  31 144 79  31 144 79  31 144 79  31 144 78  31 144 78  148 148 148  148 148 148  148 148 148  148 148 148  148 148 148  148 148 148  148 148 148  148 148 148  148 148 148  148 148 148  148 148 148  148 148 148  148 148 148  148 148 148  164 164 164  164 164 164  164 164 164  164 164 164  164 164 164  164 164 164  164 164 164  164 164 164  164 164 164  164 164 164  164 164 164  164 164 164  163 163 163  163 163 163  163 163 163  163 163 163  163 163 163  163 163 163  163 163 163  163 163 163  163 163 163  163 163 163  163 163 163  163 163 163  163 163 163  163 163 163  163 163 163  163 163 163  163 163 163  163 163 163  163 163 163  163 163 163  163 163 163  163 163 163  163 163 163  163 163 163  162 162 162  162 162 162  162 162 162  162 162 162  162 162 162  162 162 162  162 162 162  162 162 162  162 162 162  162 162 162  162 162 162  162 162 162
162 162 162  162 162 162  162 162 162  162 162 162  162 162 162  162 162 162  162 162 162  162 162 162  162 162 162  162 162 162  162 162 162  163 163 163  163 163 163  163 163 163  163 163 163  163 163 163  163 163 163  163 163 163  163 163 163  163 163 163  163 163 163  163 163 163  163 163 163  163 163 163  163 163 163  163 163 163  163 163 163  163 163 163  163 163 163  163 163 163  163 163 163  163 163 163  163 163 163  163 163 163  163 163 163  164 164 164  164 164 164  164 164 164  164 164 164  164 164 164  164 164 164  164 164 164  164 164 164  164 164 164  164 164 164  164 164 164  164 164 164  164 164 164  164 164 164  164 164 164  164 164 164  164 164 164  164 164 164  164 164 164  164 164 164  164 164 164  164 164 164  164 164 164  164 164 164  164 164 164  164 164 164  164 164 164  165 165 165  165 165 165  165 165 165  165 165 165  165 165 165  165 165 165  165 165 165  165 165 165  165 165 165  165 165 165  165 165 165  165 165 165  165 165 165  165 165 165  165 165 165  165 165 165  165 165 165  165 165 165  165 165 165  165 165 165  165 165 165  165 165 165  165 165 165  165 165 165  165 165 165  165 165 165  165 165 165  165 165 165  165 165 165  165 165 165  165 165 165  165 165 165  165 165 165  166 166 166  166 166 166  166 166 166  166 166 166  166 166 166  166 166 166  166 166 166  166 166 166  166 166 166  166 166 166  166 166 166  166 166 166  166 166 166  166 166 166  166 166 166  166 166 166  166 166 166  166 166 166  166 166 166  166 166 166  166 166 166  166 166 166  166 166 166  166 166 166  166 166 166  166 166 166  166 166 166  166 166 166  166 166 166  166 166 166  166 166 166  166 166 166  166 166 166  166 166 166  166 166 166  166 166 166  166 166 166  166 166 166  166 166 166  166 166 166  166 166 166  166 166 166  166 166 166  166 166 166  166 166 166  166 166 166  166 166 166  166 166 166  166 166 166  166 166 166  166 166 166  166 166 166  166 166 166  166 166 166  166 166 166  166 166 166  166 166 166  166 166 166  166 166 166  166 166 166  166 166 166  166 166 166  166 166 166  166 166 166  166 166 166  166 166 166  166 166 166  166 166 166  166 166 166  166 166 166  134 134 134  134 134 134  134 134 134  134 134 134  134 134 134  134 134 134  134 134 134  134 134 134  134 134 134  133 133 133  133 133 133  133 133 133  133 133 133  133 133 133  133 133 133  133 133 133  133 133 133  133 133 133  133 133 133  133 133 133  133 133 133  21 109 58  31 145 79  31 145 79  31 145 79  31 145 79  31 145 79  31 145 79  31 145 79  31 145 79  31 145 79  31 145 79  31 144 79  31 144 79  31 144 79  31 144 79  31 144 79  31 144 79  31 144 79  31 144 79  31 144 79  31 144 79  31 144 79  31 144 79  31 144 79  31 144 79  31 144 79  31 144 79  31 144 79  31 144 79  31 144 79  31 144 79  31 144 79  31 144 79  31 144 79  31 144 79  31 144 79  31 144 79  31 144 79  31 144 79  31 144 79  31 144 79  31 144 79  31 144 79  31 144 79  31 144 79  31 144 79  31 144 79  31 144 79  31 144 79  31 144 79  31 144 79  31 144 79  31 144 79  31 144 79  31 144 79  31 144 79  31 144 79  31 144 79  31 144 79  31 144 79  31 144 79  31 144 79  31 144 79  31 144 79  31 144 79  31 144 79  31 144 78  31 144 78  31 144 78  31 143 78  31 143 78  31 143 78  148 148 148  148 148 148  148 148 148  148 148 148  148 148 148  148 148 148  148 148 148  148 148 148  148 148 148  148 148 148  148 148 148  148 148 148  164 164 164  164 164 164  164 164 164  164 164 164  164 164 164  164 164 164  164 164 164  164 164 164  164 164 164  164 164 164  164 164 164  164 164 164  164 164 164  164 164 164  164 164 164  164 164 164  164 164 164  163 163 163  163 163 163  163 163 163  163 163 163  163 163 163  163 163 163  163 163 163  163 163 163  163 163 163  163 163 163  163 163 163  163 163 163  163 163 163  163 163 163  163 163 163  163 163 163  163 163 163  163 163 163  163 163 163  163 163 163  163 163 163  163 163 163  163 163 163  163 163 163  163 163 163  162 162 162  162 162 162  162 162 162  162 162 162  162 162 162  162 162 162  162 162 162  162 162 162
162 162 162  162 162 162  162 162 162  162 162 162  162 162 162  162 162 162  162 162 162  162 162 162  163 163 163  163 163 163  163 163 163  163 163 163  163 163 163  163 163 163  163 163 163  163 163 163  163 163 163  163 163 163  163 163 163  163 163 163  163 163 163  163 163 163  163 163 163  163 163 163  163 163 163  163 163 163  163 163 163  163 163 163  163 163 163  163 163 163  163 163 163  163 163 163  164 164 164  164 164 164  164 164 164  164 164 164  164 164 164  164 164 164  164 164 164  164 164 164  164 164 164  164 164 164  164 164 164  164 164 164  164 164 164  164 164 164  164 164 164  164 164 164  164 164 164  164 164 164  164 164 164  164 164 164  164 164 164  164 164 164  164 164 164  164 164 164  164 164 164  164 164 164  165 165 165  165 165 165  165 165 165  165 165 165  165 165 165  165 165 165  165 165 165  165 165 165  165 165 165  165 165 165  165 165 165  165 165 165  165 165 165  165 165 165  165 165 165  165 165 165  165 165 165  165 165 165  165 165 165  165 165 165  165 165 165  165 165 165  165 165 165  165 165 165  165 165 165  165 165 165  165 165 165  165 165 165  165 165 165  165 165 165  165 165 165  165 165 165  166 166 166  166 166 166  166 166 166  166 166 166  166 166 166  166 166 166  166 166 166  166 166 166  166 166 166  166 166 166  166 166 166  166 166 166  166 166 166  166 166 166  166 166 166  166 166 166  166 166 166  166 166 166  166 166 166  166 166 166  166 166 166  166 166 166  166 166 166  166 166 166  166 166 166  166 166 166  166 166 166  166 166 166  166 166 166  166 166 166  166 166 166  166 166 166  166 166 166  166 166 166  166 166 166  166 166 166  166 166 166  166 166 166  166 166 166  166 166 166  166 166 166  166 166 166  166 166 166  166 166 166  166 166 166  166 166 166  166 166 166  166 166 166  166 166 166  166 166 166  166 166 166  166 166 166  166 166 166  166 166 166  166 166 166  166 166 166  166 166 166  166 166 166  166 166 166  166 166 166  166 166 166  167 167 167  167 167 167  167 167 167  167 167 167  167 167 167  167 167 167  167 167 167  167 167 167  167 167 167  167 167 167  167 167 167  167 167 167  167 167 167  167 167 167  167 167 167  167 167 167  167 167 167  134 134 134  134 134 134  134 134 134  134 134 134  134 134 134  134 134 134  134 134 134  134 134 134  134 134 134  134 134 134  134 134 134  134 134 134  134 134 134  134 134 134  134 134 134  134 134 134  134 134 134  134 134 134  21 109 58  31 144 79  31 144 79  31 144 79  31 144 79  31 144 79  31 144 79  31 144 79  31 144 79  31 144 79  31 144 79  31 144 79  31 144 79  31 144 79  31 144 79  31 144 79  31 144 79  31 144 79  31 144 79  31 144 79  31 144 79  31 144 79  31 144 79  31 144 79  31 144 79  31 144 79  31 144 79  31 144 79  31 144 79  31 144 79  31 144 79  31 144 79  31 144 79  31 144 79  31 144 79  31 144 79  31 144 79  31 144 79  31 144 79  31 144 79  31 144 79  31 144 79  31 144 79  31 144 79  31 144 79  31 144 79  31 144 79  31 144 79  31 144 79  31 144 79  31 144 79  31 144 79  31 144 79  31 144 79  31 144 79  31 144 79  31 144 79  31 144 79  31 144 79  31 144 79  31 144 79  31 144 79  31 144 78  31 144 78  31 144 78  31 143 78  31 143 78  31 143 78  31 143 78  31 143 78  31 143 78  31 143 78  148 148 148  148 148 148  148 148 148  148 148 148  148 148 148  148 148 148  148 148 148  148 148 148  148 148 148  148 148 148  164 164 164  164 164 164  164 164 164  164 164 164  164 164 164  164 164 164  164 164 164  164 164 164  164 164 164  164 164 164  164 164 164  164 164 164  164 164 164  164 164 164  164 164 164  164 164 164  164 164 164  164 164 164  164 164 164  164 164 164  164 164 164  164 164 164  163 163 163  163 163 163  163 163 163  163 163 163  163 163 163  163 163 163  163 163 163  163 163 163  163 163 163  163 163 163  163 163 163  163 163 163  163 163 163  163 163 163  163 163 163  163 163 163  163 163 163  163 163 163  163 163 163  163 163 163  163 163 163  163 163 163  163 163 163  163 163 163  163 163 163  162 162 162  162 162 162  162 162 162  162 162 162  162 162 162
162 162 162  162 162 162  162 162 162  162 162 162  162 162 162  163 163 163  163 163 163  163 163 163  163 163 163  163 163 163  163 163 163  163 163 163  163 163 163  163 163 163  163 163 163  163 163 163  163 163 163  163 163 163  163 163 163  163 163 163  163 163 163  163 163 163  163 163 163  163 163 163  163 163 163  163 163 163  163 163 163  163 163 163  163 163 163  164 164 164  164 164 164  164 164 164  164 164 164  164 164 164  164 164 164  164 164 164  164 164 164  164 164 164  164 164 164  164 164 164  164 164 164  164 164 164  164 164 164  164 164 164  164 164 164  164 164 164  164 164 164  164 164 164  164 164 164  164 164 164  164 164 164  164 164 164  164 164 164  164 164 164  164 164 164  165 165 165  165 165 165  165 165 165  165 165 165  165 165 165  165 165 165  165 165 165  165 165 165  165 165 165  165 165 165  165 165 165  165 165 165  165 165 165  165 165 165  165 165 165  165 165 165  165 165 165  165 165 165  165 165 165  165 165 165  165 165 165  165 165 165  165 165 165  165 165 165  165 165 165  165 165 165  165 165 165  165 165 165  165 165 165  165 165 165  165 165 165  166 166 166  166 166 166  166 166 166  166 166 166  166 166 166  166 166 166  166 166 166  166 166 166  166 166 166  166 166 166  166 166 166  166 166 166  166 166 166  166 166 166  166 166 166  166 166 166  166 166 166  166 166 166  166 166 166  166 166 166  166 166 166  166 166 166  166 166 166  166 166 166  166 166 166  166 166 166  166 166 166  166 166 166  166 166 166  166 166 166  166 166 166  166 166 166  166 166 166  166 166 166  166 166 166  166 166 166  166 166 166  166 166 166  166 166 166  166 166 166  166 166 166  166 166 166  166 166 166  166 166 166  166 166 166  166 166 166  166 166 166  166 166 166  166 166 166  167 167 167  167 167 167  167 167 167  167 167 167  167 167 167  167 167 167  167 167 167  167 167 167  167 167 167  167 167 167  167 167 167  167 167 167  167 167 167  167 167 167  167 167 167  167 167 167  167 167 167  167 167 167  167 167 167  167 167 167  167 167 167  167 167 167  167 167 167  167 167 167  167 167 167  167 167 167  167 167 167  167 167 167  167 167 167  167 167 167  167 167 167  167 167 167  167 167 167  167 167 167  167 167 167  167 167 167  134 134 134  134 134 134  134 134 134  134 134 134  134 134 134  134 134 134  134 134 134  134 134 134  134 134 134  134 134 134  134 134 134  134 134 134  134 134 134  134 134 134  134 134 134  21 109 58  31 144 79  31 144 79  31 144 79  31 144 79  31 144 79  31 144 79  31 144 79  31 144 79  31 144 79  31 144 79  31 144 79  31 144 79  31 144 79  31 144 79  31 144 79  31 144 79  31 144 79  31 144 79  31 144 79  31 144 79  31 144 79  31 144 79  31 144 79  31 144 79  31 144 79  31 144 79  31 144 79  31 144 79  31 144 79  31 144 79  31 144 79  31 144 79  31 144 79  31 144 79  31 144 79  31 144 79  31 144 79  31 144 79  31 144 79  31 144 79  31 144 79  31 144 79  31 144 79  31 144 79  31 144 79  31 144 79  31 144 79  31 144 79  31 144 79  31 144 79  31 144 79  31 144 79  31 144 79  31 144 79  31 144 79  31 144 79  31 144 78  31 144 78  31 144 78  31 144 78  31 143 78  31 143 78  31 143 78  31 143 78  31 143 78  31 143 78  31 143 78  31 143 78  31 143 78  31 143 78  148 148 148  148 148 148  148 148 148  148 148 148  148 148 148  148 148 148  148 148 148  148 148 148  148 148 148  165 165 165  164 164 164  164 164 164  164 164 164  164 164 164  164 164 164  164 164 164  164 164 164  164 164 164  164 164 164  164 164 164  164 164 164  164 164 164  164 164 164  164 164 164  164 164 164  164 164 164  164 164 164  164 164 164  164 164 164  164 164 164  164 164 164  164 164 164  164 164 164  164 164 164  164 164 164  164 164 164  163 163 163  163 163 163  163 163 163  163 163 163  163 163 163  163 163 163  163 163 163  163 163 163  163 163 163  163 163 163  163 163 163  163 163 163  163 163 163  163 163 163  163 163 163  163 163 163  163 163 163  163 163 163  163 163 163  163 163 163  163 163 163  163 163 163  163 163 163  163 163 163  163 163 163  162 162 162  162 162 162
162 162 162  162 162 162  163 163 163  163 163 163  163 163 163  163 163 163  163 163 163  163 163 163  163 163 163  163 163 163  163 163 163  163 163 163  163 163 163  163 163 163  163 163 163  163 163 163  163 163 163  163 163 163  163 163 163  163 163 163  163 163 163  163 163 163  163 163 163  163 163 163  163 163 163  163 163 163  164 164 164  164 164 164  164 164 164  164 164 164  164 164 164  164 164 164  164 164 164  164 164 164  164 164 164  164 164 164  164 164 164  164 164 164  164 164 164  164 164 164  164 164 164  164 164 164  164 164 164  164 164 164  164 164 164  164 164 164  164 164 164  164 164 164  164 164 164  164 164 164  164 164 164  164 164 164  165 165 165  165 165 165  165 165 165  165 165 165  165 165 165  165 165 165  165 165 165  165 165 165  165 165 165  165 165 165  165 165 165  165 165 165  165 165 165  165 165 165  165 165 165  165 165 165  165 165 165  165 165 165  165 165 165  165 165 165  165 165 165  165 165 165  165 165 165  165 165 165  165 165 165  165 165 165  165 165 165  165 165 165  165 165 165  165 165 165  166 166 166  166 166 166  166 166 166  166 166 166  166 166 166  166 166 166  166 166 166  166 166 166  166 166 166  166 166 166  166 166 166  166 166 166  166 166 166  166 166 166  166 166 166  166 166 166  166 166 166  166 166 166  166 166 166  166 166 166  166 166 166  166 166 166  166 166 166  166 166 166  166 166 166  166 166 166  166 166 166  166 166 166  166 166 166  166 166 166  166 166 166  166 166 166  166 166 166  166 166 166  166 166 166  166 166 166  166 166 166  166 166 166  166 166 166  166 166 166  166 166 166  166 166 166  166 166 166  166 166 166  167 167 167  167 167 167  167 167 167  167 167 167  167 167 167  167 167 167  167 167 167  167 167 167  167 167 167  167 167 167  167 167 167  167 167 167  167 167 167  167 167 167  167 167 167  167 167 167  167 167 167  167 167 167  167 167 167  167 167 167  167 167 167  167 167 167  167 167 167  167 167 167  167 167 167  167 167 167  167 167 167  167 167 167  167 167 167  167 167 167  167 167 167  167 167 167  167 167 167  167 167 167  167 167 167  167 167 167  167 167 167  167 167 167  167 167 167  167 167 167  167 167 167  167 167 167  167 167 167  167 167 167  167 167 167  167 167 167  167 167 167  167 167 167  134 134 134  134 134 134  134 134 134  134 134 134  134 134 134  134 134 134  134 134 134  134 134 134  134 134 134  134 134 134  134 134 134  134 134 134  21 109 58  31 144 79  31 144 79  31 144 79  31 144 79  31 144 79  31 144 79  31 144 79  31 144 79  31 144 79  31 144 79  31 144 79  31 144 79  31 144 79  31 144 79  31 144 79  31 144 79  31 144 79  31 144 79  31 144 79  31 144 79  31 144 79  31 144 79  31 144 79  31 144 79  31 144 79  31 144 79  31 144 79  31 144 79  31 144 79  31 144 79  31 144 79  31 144 79  31 144 79  31 144 79  31 144 79  31 144 79  31 144 79  31 144 79  31 144 79  31 144 79  31 144 79  31 144 79  31 144 79  31 144 79  31 144 79  31 144 79  31 144 79  31 144 79  31 144 79  31 144 79  31 144 79  31 144 78  31 144 78  31 144 78  31 144 78  31 144 78  31 143 78  31 143 78  31 143 78  31 143 78  31 143 78  31 143 78  31 143 78  31 143 78  31 143 78  31 143 78  31 143 78  31 143 78  31 143 78  31 143 78  148 148 148  148 148 148  148 148 148  148 148 148  148 148 148  148 148 148  148 148 148  148 148 148  165 165 165  165 165 165  165 165 165  165 165 165  165 165 165  165 165 165  164 164 164  164 164 164  164 164 164  164 164 164  164 164 164  164 164 164  164 164 164  164 164 164  164 164 164  164 164 164  164 164 164  164 164 164  164 164 164  164 164 164  164 164 164  164 164 164  164 164 164  164 164 164  164 164 164  164 164 164  164 164 164  164 164 164  164 164 164  164 164 164  164 164 164  164 164 164  163 163 163  163 163 163  163 163 163  163 163 163  163 163 163  163 163 163  163 163 163  163 163 163  163 163 163  163 163 163  163 163 163  163 163 163  163 163 163  163 163 163  163 163 163  163 163 163  163 163 163  163 163 163  163 163 163  163 163 163  163 163 163  163 163 163  163 163 163
163 163 163  163 163 163  163 163 163  163 163 163  163 163 163  163 163 163  163 163 163  163 163 163  163 163 163  163 163 163  163 163 163  163 163 163  163 163 163  163 163 163  163 163 163  163 163 163  163 163 163  163 163 163  163 163 163  163 163 163  163 163 163  163 163 163  163 163 163  164 164 164  164 164 164  164 164 164  164 164 164  164 164 164  164 164 164  164 164 164  164 164 164  164 164 164  164 164 164  164 164 164  164 164 164  164 164 164  164 164 164  164 164 164  164 164 164  164 164 164  164 164 164  164 164 164  164 164 164  164 164 164  164 164 164  164 164 164  164 164 164  164 164 164  164 164 164  165 165 165  165 165 165  165 165 165  165 165 165  165 165 165  165 165 165  165 165 165  165 165 165  165 165 165  165 165 165  165 165 165  165 165 165  165 165 165  165 165 165  165 165 165  165 165 165  165 165 165  165 165 165  165 165 165  165 165 165  165 165 165  165 165 165  165 165 165  165 165 165  165 165 165  165 165 165  165 165 165  165 165 165  165 165 165  166 166 166  166 166 166  166 166 166  166 166 166  166 166 166  166 166 166  166 166 166  166 166 166  166 166 166  166 166 166  166 166 166  166 166 166  166 166 166  166 166 166  166 166 166  166 166 166  166 166 166  166 166 166  166 166 166  166 166 166  166 166 166  166 166 166  166 166 166  166 166 166  166 166 166  166 166 166  166 166 166  166 166 166  166 166 166  166 166 166  166 166 166  166 166 166  166 166 166  166 166 166  166 166 166  166 166 166  166 166 166  166 166 166  166 166 166  166 166 166  167 167 167  167 167 167  167 167 167  167 167 167  167 167 167  167 167 167  167 167 167  167 167 167  167 167 167  167 167 167  167 167 167  167 167 167  167 167 167  167 167 167  167 167 167  167 167 167  167 167 167  167 167 167  167 167 167  167 167 167  167 167 167  167 167 167  167 167 167  167 167 167  167 167 167  167 167 167  167 167 167  167 167 167  167 167 167  167 167 167  167 167 167  167 167 167  167 167 167  167 167 167  167 167 167  167 167 167  167 167 167  167 167 167  167 167 167  167 167 167  167 167 167  167 167 167  167 167 167  167 167 167  167 167 167  167 167 167  167 167 167  167 167 167  167 167 167  167 167 167  167 167 167  167 167 167  167 167 167  167 167 167  167 167 167  167 167 167  167 167 167  167 167 167  167 167 167  134 134 134  134 134 134  134 134 134  134 134 134  134 134 134  134 134 134  134 134 134  134 134 134  134 134 134  134 134 134  31 144 79  31 144 79  31 144 79  31 144 79  31 144 79  31 144 79  31 144 79  31 144 79  31 144 79  31 144 79  31 144 79  31 144 79  31 144 79  31 144 79  31 144 79  31 144 79  31 144 79  31 144 79  31 144 79  31 144 79  31 144 79  31 144 79  31 144 79  31 144 79  31 144 79  31 144 79  31 144 79  31 144 79  31 144 79  31 144 79  31 144 79  31 144 79  31 144 79  31 144 79  31 144 79  31 144 79  31 144 79  31 144 79  31 144 79  31 144 79  31 144 79  31 144 79  31 144 79  31 144 79  31 144 79  31 144 79  31 144 78  31 144 78  31 144 78  31 144 78  31 144 78  31 143 78  31 143 78  31 143 78  31 143 78  31 143 78  31 143 78  31 143 78  31 143 78  31 143 78  31 143 78  31 143 78  31 143 78  31 143 78  31 143 78  31 143 78  31 143 78  31 143 78  31 143 78  31 143 78  148 148 148  148 148 148  148 148 148  148 148 148  148 148 148  148 148 148  165 165 165  165 165 165  165 165 165  165 165 165  165 165 165  165 165 165  165 165 165  165 165 165  165 165 165  165 165 165  165 165 165  164 164 164  164 164 164  164 164 164  164 164 164  164 164 164  164 164 164  164 164 164  164 164 164  164 164 164  164 164 164  164 164 164  164 164 164  164 164 164  164 164 164  164 164 164  164 164 164  164 164 164  164 164 164  164 164 164  164 164 164  164 164 164  164 164 164  164 164 164  164 164 164  164 164 164  164 164 164  163 163 163  163 163 163  163 163 163  163 163 163  163 163 163  163 163 163  163 163 163  163 163 163  163 163 163  163 163 163  163 163 163  163 163 163  163 163 163  163 163 163  163 163 163  163 163 163  163 163 163  163 163 163  163 163 163  163 163 163
163 163 163  163 163 163  163 163 163  163 163 163  163 163 163  163 163 163  163 163 163  163 163 163  163 163 163  163 163 163  163 163 163  163 163 163  163 163 163  163 163 163  163 163 163  163 163 163  163 163 163  163 163 163  163 163 163  163 163 163  164 164 164  164 164 164  164 164 164  164 164 164  164 164 164  164 164 164  164 164 164  164 164 164  164 164 164  164 164 164  164 164 164  164 164 164  164 164 164  164 164 164  164 164 164  164 164 164  164 164 164  164 164 164  164 164 164  164 164 164  164 164 164  164 164 164  164 164 164  164 164 164  164 164 164  165 165 165  165 165 165  165 165 165  165 165 165  165 165 165  165 165 165  165 165 165  165 165 165  165 165 165  165 165 165  165 165 165  165 165 165  165 165 165  165 165 165  165 165 165  165 165 165  165 165 165  165 165 165  165 165 165  165 165 165  165 165 165  165 165 165  165 165 165  165 165 165  165 165 165  165 165 165  165 165 165  165 165 165  165 165 165  166 166 166  166 166 166  166 166 166  166 166 166  166 166 166  166 166 166  166 166 166  166 166 166  166 166 166  166 166 166  166 166 166  166 166 166  166 166 166  166 166 166  166 166 166  166 166 166  166 166 166  166 166 166  166 166 166  166 166 166  166 166 166  166 166 166  166 166 166  166 166 166  166 166 166  166 166 166  166 166 166  166 166 166  166 166 166  166 166 166  166 166 166  166 166 166  166 166 166  166 166 166  166 166 166  166 166 166  166 166 166  166 166 166  167 167 167  167 167 167  167 167 167  167 167 167  167 167 167  167 167 167  167 167 167  167 167 167  167 167 167  167 167 167  167 167 167  167 167 167  167 167 167  167 167 167  167 167 167  167 167 167  167 167 167  167 167 167  167 167 167  167 167 167  167 167 167  167 167 167  167 167 167  167 167 167  167 167 167  167 167 167  167 167 167  167 167 167  167 167 167  167 167 167  167 167 167  167 167 167  167 167 167  167 167 167  167 167 167  167 167 167  167 167 167  167 167 167  167 167 167  167 167 167  167 167 167  167 167 167  167 167 167  167 167 167  167 167 167  167 167 167  167 167 167  167 167 167  167 167 167  167 167 167  167 167 167  167 167 167  167 167 167  167 167 167  167 167 167  167 167 167  167 167 167  167 167 167  167 167 167  167 167 167  167 167 167  167 167 167  167 167 167  167 167 167  167 167 167  167 167 167  167 167 167  167 167 167  134 134 134  134 134 134  134 134 134  134 134 134  134 134 134  134 134 134  134 134 134  31 144 79  31 144 79  31 144 79  31 144 79  31 144 79  31 144 79  31 144 79  31 144 79  31 144 79  31 144 79  31 144 79  31 144 79  31 144 79  31 144 79  31 144 79  31 144 79  31 144 79  31 144 79  31 144 79  31 144 79  31 144 79  31 144 79  31 144 79  31 144 79  31 144 79  31 144 79  31 144 79  31 144 79  31 144 79  31 144 79  31 144 79  31 144 79  31 144 79  31 144 79  31 144 79  31 144 79  31 144 79  31 144 79  31 144 79  31 144 79  31 144 78  31 144 78  31 144 78  31 144 78  31 144 78  31 144 78  31 143 78  31 143 78  31 143 78  31 143 78  31 143 78  31 143 78  31 143 78  31 143 78  31 143 78  31 143 78  31 143 78  31 143 78  31 143 78  31 143 78  31 143 78  31 143 78  31 143 78  31 143 78  31 143 78  31 143 78  31 143 78  31 143 78  31 143 78  31 143 78  148 148 148  148 148 148  148 148 148  148 148 148  165 165 165  165 165 165  165 165 165  165 165 165  165 165 165  165 165 165  165 165 165  165 165 165  165 165 165  165 165 165  165 165 165  165 165 165  165 165 165  165 165 165  165 165 165  165 165 165  164 164 164  164 164 164  164 164 164  164 164 164  164 164 164  164 164 164  164 164 164  164 164 164  164 164 164  164 164 164  164 164 164  164 164 164  164 164 164  164 164 164  164 164 164  164 164 164  164 164 164  164 164 164  164 164 164  164 164 164  164 164 164  164 164 164  164 164 164  164 164 164  164 164 164  164 164 164  163 163 163  163 163 163  163 163 163  163 163 163  163 163 163  163 163 163  163 163 163  163 163 163  163 163 163  163 163 163  163 163 163  163 163 163  163 163 163  163 163 163  163 163 163  163 163 163  163 163 163
163 163 163  163 163 163  163 163 163  163 163 163  163 163 163  163 163 163  163 163 163  163 163 163  163 163 163  163 163 163  163 163 163  163 163 163  163 163 163  163 163 163  163 163 163  163 163 163  163 163 163  163 163 163  164 164 164  164 164 164  164 164 164  164 164 164  164 164 164  164 164 164  164 164 164  164 164 164  164 164 164  164 164 164  164 164 164  164 164 164  164 164 164  164 164 164  164 164 164  164 164 164  164 164 164  164 164 164  164 164 164  164 164 164  164 164 164  164 164 164  164 164 164  164 164 164  165 165 165  165 165 165  165 165 165  165 165 165  165 165 165  165 165 165  165 165 165  165 165 165  165 165 165  165 165 165  165 165 165  165 165 165  165 165 165  165 165 165  165 165 165  165 165 165  165 165 165  165 165 165  165 165 165  165 165 165  165 165 165  165 165 165  165 165 165  165 165 165  165 165 165  165 165 165  165 165 165  165 165 165  166 166 166  166 166 166  166 166 166  166 166 166  166 166 166  166 166 166  166 166 166  166 166 166  166 166 166  166 166 166  166 166 166  166 166 166  166 166 166  166 166 166  166 166 166  166 166 166  166 166 166  166 166 166  166 166 166  166 166 166  166 166 166  166 166 166  166 166 166  166 166 166  166 166 166  166 166 166  166 166 166  166 166 166  166 166 166  166 166 166  166 166 166  166 166 166  166 166 166  166 166 166  166 166 166  166 166 166  166 166 166  167 167 167  167 167 167  167 167 167  167 167 167  167 167 167  167 167 167  167 167 167  167 167 167  167 167 167  167 167 167  167 167 167  167 167 167  167 167 167  167 167 167  167 167 167  167 167 167  167 167 167  167 167 167  167 167 167  167 167 167  167 167 167  167 167 167  167 167 167  167 167 167  167 167 167  167 167 167  167 167 167  167 167 167  167 167 167  167 167 167  167 167 167  167 167 167  167 167 167  167 167 167  167 167 167  167 167 167  167 167 167  167 167 167  167 167 167  167 167 167  167 167 167  167 167 167  167 167 167  167 167 167  167 167 167  167 167 167  167 167 167  167 167 167  167 167 167  167 167 167  167 167 167  167 167 167  167 167 167  167 167 167  167 167 167  167 167 167  167 167 167  167 167 167  167 167 167  167 167 167  167 167 167  167 167 167  167 167 167  167 167 167  167 167 167  167 167 167  167 167 167  167 167 167  167 167 167  167 167 167  167 167 167  167 167 167  167 167 167  167 167 167  167 167 167  167 167 167  134 134 134  134 134 134  134 134 134  134 134 134  31 144 79  31 144 79  31 144 79  31 144 79  31 144 79  31 144 79  31 144 79  31 144 79  31 144 79  31 144 79  31 144 79  31 144 79  31 144 79  31 144 79  31 144 79  31 144 79  31 144 79  31 144 79  31 144 79  31 144 79  31 144 79  31 144 79  31 144 79  31 144 79  31 144 79  31 144 79  31 144 79  31 144 79  31 144 79  31 144 79  31 144 79  31 144 79  31 144 79  31 144 79  31 144 78  31 144 78  31 144 78  31 144 78  31 144 78  31 144 78  31 144 78  31 143 78  31 143 78  31 143 78  31 143 78  31 143 78  31 143 78  31 143 78  31 143 78  31 143 78  31 143 78  31 143 78  31 143 78  31 143 78  31 143 78  31 143 78  31 143 78  31 143 78  31 143 78  31 143 78  31 143 78  31 143 78  31 143 78  31 143 78  31 143 78  31 143 78  31 143 78  31 143 78  31 143 78  31 143 78  148 148 148  148 148 148  165 165 165  165 165 165  165 165 165  165 165 165  165 165 165  165 165 165  165 165 165  165 165 165  165 165 165  165 165 165  165 165 165  165 165 165  165 165 165  165 165 165  165 165 165  165 165 165  165 165 165  165 165 165  165 165 165  165 165 165  165 165 165  164 164 164  164 164 164  164 164 164  164 164 164  164 164 164  164 164 164  164 164 164  164 164 164  164 164 164  164 164 164  164 164 164  164 164 164  164 164 164  164 164 164  164 164 164  164 164 164  164 164 164  164 164 164  164 164 164  164 164 164  164 164 164  164 164 164  164 164 164  164 164 164  164 164 164  164 164 164  163 163 163  163 163 163  163 163 163  163 163 163  163 163 163  163 163 163  163 163 163  163 163 163  163 163 163  163 163 163  163 163 163  163 163 163  163 163 163  163 163 163
163 163 163  163 163 163  163 163 163  163 163 163  163 163 163  163 163 163  163 163 163  163 163 163  163 163 163  163 163 163  163 163 163  163 163 163  163 163 163  163 163 163  163 163 163  164 164 164  164 164 164  164 164 164  164 164 164  164 164 164  164 164 164  164 164 164  164 164 164  164 164 164  164 164 164  164 164 164  164 164 164  164 164 164  164 164 164  164 164 164  164 164 164  164 164 164  164 164 164  164 164 164  164 164 164  164 164 164  164 164 164  164 164 164  164 164 164  164 164 164  165 165 165  165 165 165  165 165 165  165 165 165  165 165 165  165 165 165  165 165 165  165 165 165  165 165 165  165 165 165  165 165 165  165 165 165  165 165 165  165 165 165  165 165 165  165 165 165  165 165 165  165 165 165  165 165 165  165 165 165  165 165 165  165 165 165  165 165 165  165 165 165  165 165 165  165 165 165  165 165 165  166 166 166  166 166 166  166 166 166  166 166 166  166 166 166  166 166 166  166 166 166  166 166 166  166 166 166  166 166 166  166 166 166  166 166 166  166 166 166  166 166 166  166 166 166  166 166 166  166 166 166  166 166 166  166 166 166  166 166 166  166 166 166  166 166 166  166 166 166  166 166 166  166 166 166  166 166 166  166 166 166  166 166 166  166 166 166  166 166 166  166 166 166  166 166 166  166 166 166  166 166 166  166 166 166  167 167 167  167 167 167  167 167 167  167 167 167  167 167 167  167 167 167  167 167 167  167 167 167  167 167 167  167 167 167  167 167 167  167 167 167  167 167 167  167 167 167  167 167 167  167 167 167  167 167 167  167 167 167  167 167 167  167 167 167  167 167 167  167 167 167  167 167 167  167 167 167  167 167 167  167 167 167  167 167 167  167 167 167  167 167 167  167 167 167  167 167 167  167 167 167  167 167 167  167 167 167  167 167 167  167 167 167  167 167 167  167 167 167  167 167 167  167 167 167  167 167 167  167 167 167  167 167 167  167 167 167  167 167 167  167 167 167  167 167 167  167 167 167  167 167 167  167 167 167  167 167 167  167 167 167  167 167 167  167 167 167  167 167 167  167 167 167  167 167 167  167 167 167  167 167 167  167 167 167  167 167 167  167 167 167  167 167 167  167 167 167  167 167 167  167 167 167  167 167 167  167 167 167  167 167 167  167 167 167  167 167 167  167 167 167  167 167 167  167 167 167  167 167 167  167 167 167  167 167 167  167 167 167  167 167 167  167 167 167  167 167 167  167 167 167  167 167 167  167 167 167  134 134 134  31 144 79  31 144 79  31 144 79  31 144 79  31 144 79  31 144 79  31 144 79  31 144 79  31 144 79  31 144 79  31 144 79  31 144 79  31 144 79  31 144 79  31 144 79  31 144 79  31 144 79  31 144 79  31 144 79  31 144 79  31 144 79  31 144 79  31 144 79  31 144 79  31 144 79  31 144 79  31 144 79  31 144 78  31 144 78  31 144 78  31 144 78  31 144 78  31 144 78  31 144 78  31 144 78  31 143 78  31 143 78  31 143 78  31 143 78  31 143 78  31 143 78  31 143 78  31 143 78  31 143 78  31 143 78  31 143 78  31 143 78  31 143 78  31 143 78  31 143 78  31 143 78  31 143 78  31 143 78  31 143 78  31 143 78  31 143 78  31 143 78  31 143 78  31 143 78  31 143 78  31 143 78  31 143 78  31 143 78  31 143 78  31 143 78  31 143 78  31 143 78  31 143 78  31 143 78  31 143 78  165 165 165  165 165 165  165 165 165  165 165 165  165 165 165  165 165 165  165 165 165  165 165 165  165 165 165  165 165 165  165 165 165  165 165 165  165 165 165  165 165 165  165 165 165  165 165 165  165 165 165  165 165 165  165 165 165  165 165 165  165 165 165  165 165 165  165 165 165  165 165 165  165 165 165  165 165 165  164 164 164  164 164 164  164 164 164  164 164 164  164 164 164  164 164 164  164 164 164  164 164 164  164 164 164  164 164 164  164 164 164  164 164 164  164 164 164  164 164 164  164 164 164  164 164 164  164 164 164  164 164 164  164 164 164  164 164 164  164 164 164  164 164 164  164 164 164  164 164 164  164 164 164  163 163 163  163 163 163  163 163 163  163 163 163  163 163 163  163 163 163  163 163 163  163 163 163  163 163 163  163 163 163  163 163 163  163 163 163
163 163 163  163 163 163  163 163 163  163 163 163  163 163 163  163 163 163  163 163 163  163 163 163  163 163 163  163 163 163  163 163 163  163 163 163  164 164 164  164 164 164  164 164 164  164 164 164  164 164 164  164 164 164  164 164 164  164 164 164  164 164 164  164 164 164  164 164 164  164 164 164  164 164 164  164 164 164  164 164 164  164 164 164  164 164 164  164 164 164  164 164 164  164 164 164  164 164 164  164 164 164  164 164 164  164 164 164  164 164 164  165 165 165  165 165 165  165 165 165  165 165 165  165 165 165  165 165 165  165 165 165  165 165 165  165 165 165  165 165 165  165 165 165  165 165 165  165 165 165  165 165 165  165 165 165  165 165 165  165 165 165  165 165 165  165 165 165  165 165 165  165 165 165  165 165 165  165 165 165  165 165 165  165 165 165  165 165 165  165 165 165  166 166 166  166 166 166  166 166 166  166 166 166  166 166 166  166 166 166  166 166 166  166 166 166  166 166 166  166 166 166  166 166 166  166 166 166  166 166 166  166 166 166  166 166 166  166 166 166  166 166 166  166 166 166  166 166 166  166 166 166  166 166 166  166 166 166  166 166 166  166 166 166  166 166 166  166 166 166  166 166 166  166 166 166  166 166 166  166 166 166  166 166 166  166 166 166  166 166 166  167 167 167  167 167 167  167 167 167  167 167 167  167 167 167  167 167 167  167 167 167  167 167 167  167 167 167  167 167 167  167 167 167  167 167 167  167 167 167  167 167 167  167 167 167  167 167 167  167 167 167  167 167 167  167 167 167  167 167 167  167 167 167  167 167 167  167 167 167  167 167 167  167 167 167  167 167 167  167 167 167  167 167 167  167 167 167  167 167 167  167 167 167  167 167 167  167 167 167  167 167 167  167 167 167  167 167 167  167 167 167  167 167 167  167 167 167  167 167 167  167 167 167  167 167 167  167 167 167  167 167 167  167 167 167  167 167 167  167 167 167  167 167 167  167 167 167  167 167 167  167 167 167  167 167 167  167 167 167  167 167 167  167 167 167  167 167 167  167 167 167  167 167 167  167 167 167  167 167 167  167 167 167  167 167 167  167 167 167  167 167 167  167 167 167  167 167 167  167 167 167  167 167 167  167 167 167  167 167 167  167 167 167  167 167 167  167 167 167  167 167 167  167 167 167  167 167 167  167 167 167  167 167 167  167 167 167  167 167 167  167 167 167  167 167 167  167 167 167  167 167 167  167 167 167  167 167 167  167 167 167  167 167 167  167 167 167  167 167 167  167 167 167  167 167 167  167 167 167  167 167 167  167 167 167  167 167 167  167 167 167  167 167 167  167 167 167  167 167 167  167 167 167  167 167 167  167 167 167  167 167 167  167 167 167  167 167 167  167 167 167  167 167 167  167 167 167  167 167 167  167 167 167  167 167 167  167 167 167  167 167 167  167 167 167  167 167 167  167 167 167  167 167 167  167 167 167  167 167 167  167 167 167  167 167 167  167 167 167  167 167 167  167 167 167  167 167 167  167 167 167  167 167 167  166 166 166  166 166 166  166 166 166  166 166 166  166 166 166  166 166 166  166 166 166  166 166 166  166 166 166  166 166 166  166 166 166  166 166 166  166 166 166  166 166 166  166 166 166  166 166 166  166 166 166  166 166 166  166 166 166  166 166 166  166 166 166  166 166 166  166 166 166  166 166 166  166 166 166  166 166 166  166 166 166  166 166 166  166 166 166  166 166 166  166 166 166  166 166 166  166 166 166  166 166 166  165 165 165  165 165 165  165 165 165  165 165 165  165 165 165  165 165 165  165 165 165  165 165 165  165 165 165  165 165 165  165 165 165  165 165 165  165 165 165  165 165 165  165 165 165  165 165 165  165 165 165  165 165 165  165 165 165  165 165 165  165 165 165  165 165 165  165 165 165  165 165 165  165 165 165  165 165 165  165 165 165  164 164 164  164 164 164  164 164 164  164 164 164  164 164 164  164 164 164  164 164 164  164 164 164  164 164 164  164 164 164  164 164 164  164 164 164  164 164 164  164 164 164  164 164 164  164 164 164  164 164 164  164 164 164  164 164 164  164 164 164  164 164 164  164 164 164  164 164 164  164 164 164  164 164 164  163 163 163  163 163 163  163 163 163  163 163 163  163 163 163  163 163 163  163 163 163  163 163 163  163 163 163
163 163 163  163 163 163  163 163 163  163 163 163  163 163 163  163 163 163  163 163 163  163 163 163  163 163 163  163 163 163  164 164 164  164 164 164  164 164 164  164 164 164  164 164 164  164 164 164  164 164 164  164 164 164  164 164 164  164 164 164  164 164 164  164 164 164  164 164 164  164 164 164  164 164 164  164 164 164  164 164 164  164 164 164  164 164 164  164 164 164  164 164 164  164 164 164  164 164 164  164 164 164  165 165 165  165 165 165  165 165 165  165 165 165  165 165 165  165 165 165  165 165 165  165 165 165  165 165 165  165 165 165  165 165 165  165 165 165  165 165 165  165 165 165  165 165 165  165 165 165  165 165 165  165 165 165  165 165 165  165 165 165  165 165 165  165 165 165  165 165 165  165 165 165  165 165 165  165 165 165  165 165 165  166 166 166  166 166 166  166 166 166  166 166 166  166 166 166  166 166 166  166 166 166  166 166 166  166 166 166  166 166 166  166 166 166  166 166 166  166 166 166  166 166 166  166 166 166  166 166 166  166 166 166  166 166 166  166 166 166  166 166 166  166 166 166  166 166 166  166 166 166  166 166 166  166 166 166  166 166 166  166 166 166  166 166 166  166 166 166  166 166 166  166 166 166  166 166 166  167 167 167  167 167 167  167 167 167  167 167 167  167 167 167  167 167 167  167 167 167  167 167 167  167 167 167  167 167 167  167 167 167  167 167 167  167 167 167  167 167 167  167 167 167  167 167 167  167 167 167  167 167 167  167 167 167  167 167 167  167 167 167  167 167 167  167 167 167  167 167 167  167 167 167  167 167 167  167 167 167  167 167 167  167 167 167  167 167 167  167 167 167  167 167 167  167 167 167  167 167 167  167 167 167  167 167 167  167 167 167  167 167 167  167 167 167  167 167 167  167 167 167  167 167 167  167 167 167  167 167 167  167 167 167  167 167 167  167 167 167  167 167 167  167 167 167  167 167 167  167 167 167  167 167 167  167 167 167  167 167 167  167 167 167  167 167 167  167 167 167  167 167 167  167 167 167  167 167 167  167 167 167  167 167 167  167 167 167  167 167 167  167 167 167  167 167 167  167 167 167  167 167 167  167 167 167  167 167 167  167 167 167  167 167 167  167 167 167  167 167 167  167 167 167  167 167 167  167 167 167  167 167 167  167 167 167  167 167 167  167 167 167  167 167 167  167 167 167  167 167 167  167 167 167  167 167 167  167 167 167  167 167 167  167 167 167  167 167 167  167 167 167  167 167 167  167 167 167  167 167 167  167 167 167  167 167 167  167 167 167  167 167 167  167 167 167  167 167 167  167 167 167  167 167 167  167 167 167  167 167 167  167 167 167  167 167 167  167 167 167  167 167 167  167 167 167  167 167 167  167 167 167  167 167 167  167 167 167  167 167 167  167 167 167  167 167 167  167 167 167  167 167 167  167 167 167  167 167 167  167 167 167  167 167 167  167 167 167  167 167 167  167 167 167  167 167 167  167 167 167  167 167 167  167 167 167  167 167 167  167 167 167  167 167 167  167 167 167  167 167 167  167 167 167  167 167 167  167 167 167  166 166 166  166 166 166  166 166 166  166 166 166  166 166 166  166 166 166  166 166 166  166 166 166  166 166 166  166 166 166  166 166 166  166 166 166  166 166 166  166 166 166  166 166 166  166 166 166  166 166 166  166 166 166  166 166 166  166 166 166  166 166 166  166 166 166  166 166 166  166 166 166  166 166 166  166 166 166  166 166 166  166 166 166  166 166 166  166 166 166  166 166 166  166 166 166  165 165 165  165 165 165  165 165 165  165 165 165  165 165 165  165 165 165  165 165 165  165 165 165  165 165 165  165 165 165  165 165 165  165 165 165  165 165 165  165 165 165  165 165 165  165 165 165  165 165 165  165 165 165  165 165 165  165 165 165  165 165 165  165 165 165  165 165 165  165 165 165  165 165 165  165 165 165  165 165 165  164 164 164  164 164 164  164 164 164  164 164 164  164 164 164  164 164 164  164 164 164  164 164 164  164 164 164  164 164 164  164 164 164  164 164 164  164 164 164  164 164 164  164 164 164  164 164 164  164 164 164  164 164 164  164 164 164  164 164 164  164 164 164  164 164 164  164 164 164  164 164 164  164 164 164  163 163 163  163 163 163  163 163 163  163 163 163  163 163 163  163 163 163
163 163 163  163 163 163  163 163 163  163 163 163  163 163 163  163 163 163  163 163 163  164 164 164  164 164 164  164 164 164  164 164 164  164 164 164  164 164 164  164 164 164  164 164 164  164 164 164  164 164 164  164 164 164  164 164 164  164 164 164  164 164 164  164 164 164  164 164 164  164 164 164  164 164 164  164 164 164  164 164 164  164 164 164  164 164 164  164 164 164  164 164 164  165 165 165  165 165 165  165 165 165  165 165 165  165 165 165  165 165 165  165 165 165  165 165 165  165 165 165  165 165 165  165 165 165  165 165 165  165 165 165  165 165 165  165 165 165  165 165 165  165 165 165  165 165 165  165 165 165  165 165 165  165 165 165  165 165 165  165 165 165  165 165 165  165 165 165  165 165 165  165 165 165  166 166 166  166 166 166  166 166 166  166 166 166  166 166 166  166 166 166  166 166 166  166 166 166  166 166 166  166 166 166  166 166 166  166 166 166  166 166 166  166 166 166  166 166 166  166 166 166  166 166 166  166 166 166  166 166 166  166 166 166  166 166 166  166 166 166  166 166 166  166 166 166  166 166 166  166 166 166  166 166 166  166 166 166  166 166 166  166 166 166  166 166 166  167 167 167  167 167 167  167 167 167  167 167 167  167 167 167  167 167 167  167 167 167  167 167 167  167 167 167  167 167 167  167 167 167  167 167 167  167 167 167  167 167 167  167 167 167  167 167 167  167 167 167  167 167 167  167 167 167  167 167 167  167 167 167  167 167 167  167 167 167  167 167 167  167 167 167  167 167 167  167 167 167  167 167 167  167 167 167  167 167 167  167 167 167  167 167 167  167 167 167  167 167 167  167 167 167  167 167 167  167 167 167  167 167 167  167 167 167  167 167 167  167 167 167  167 167 167  167 167 167  167 167 167  167 167 167  167 167 167  167 167 167  167 167 167  167 167 167  167 167 167  167 167 167  167 167 167  167 167 167  167 167 167  167 167 167  167 167 167  168 168 168  168 168 168  168 168 168  168 168 168  168 168 168  168 168 168  168 168 168  168 168 168  168 168 168  168 168 168  168 168 168  168 168 168  168 168 168  168 168 168  168 168 168  168 168 168  168 168 168  168 168 168  168 168 168  168 168 168  168 168 168  168 168 168  168 168 168  168 168 168  168 168 168  168 168 168  168 168 168  168 168 168  168 168 168  168 168 168  168 168 168  168 168 168  167 167 167  167 167 167  167 167 167  167 167 167  167 167 167  167 167 167  167 167 167  167 167 167  167 167 167  167 167 167  167 167 167  167 167 167  167 167 167  167 167 167  167 167 167  167 167 167  167 167 167  167 167 167  167 167 167  167 167 167  167 167 167  167 167 167  167 167 167  167 167 167  167 167 167  167 167 167  167 167 167  167 167 167  167 167 167  167 167 167  167 167 167  167 167 167  167 167 167  167 167 167  167 167 167  167 167 167  167 167 167  167 167 167  167 167 167  167 167 167  167 167 167  167 167 167  167 167 167  167 167 167  167 167 167  167 167 167  167 167 167  167 167 167  167 167 167  167 167 167  167 167 167  167 167 167  167 167 167  167 167 167  167 167 167  167 167 167  167 167 167  166 166 166  166 166 166  166 166 166  166 166 166  166 166 166  166 166 166  166 166 166  166 166 166  166 166 166  166 166 166  166 166 166  166 166 166  166 166 166  166 166 166  166 166 166  166 166 166  166 166 166  166 166 166  166 166 166  166 166 166  166 166 166  166 166 166  166 166 166  166 166 166  166 166 166  166 166 166  166 166 166  166 166 166  166 166 166  166 166 166  166 166 166  165 165 165  165 165 165  165 165 165  165 165 165  165 165 165  165 165 165  165 165 165  165 165 165  165 165 165  165 165 165  165 165 165  165 165 165  165 165 165  165 165 165  165 165 165  165 165 165  165 165 165  165 165 165  165 165 165  165 165 165  165 165 165  165 165 165  165 165 165  165 165 165  165 165 165  165 165 165  165 165 165  164 164 164  164 164 164  164 164 164  164 164 164  164 164 164  164 164 164  164 164 164  164 164 164  164 164 164  164 164 164  164 164 164  164 164 164  164 164 164  164 164 164  164 164 164  164 164 164  164 164 164  164 164 164  164 164 164  164 164 164  164 164 164  164 164 164  164 164 164  164 164 164  164 164 164  163 163 163  163 163 163  163 163 163
163 163 163  163 163 163  163 163 163  163 163 163  163 163 163  164 164 164  164 164 164  164 164 164  164 164 164  164 164 164  164 164 164  164 164 164  164 164 164  164 164 164  164 164 164  164 164 164  164 164 164  164 164 164  164 164 164  164 164 164  164 164 164  164 164 164  164 164 164  164 164 164  164 164 164  164 164 164  164 164 164  164 164 164  164 164 164  165 165 165  165 165 165  165 165 165  165 165 165  165 165 165  165 165 165  165 165 165  165 165 165  165 165 165  165 165 165  165 165 165  165 165 165  165 165 165  165 165 165  165 165 165  165 165 165  165 165 165  165 165 165  165 165 165  165 165 165  165 165 165  165 165 165  165 165 165  165 165 165  165 165 165  165 165 165  166 166 166  166 166 166  166 166 166  166 166 166  166 166 166  166 166 166  166 166 166  166 166 166  166 166 166  166 166 166  166 166 166  166 166 166  166 166 166  166 166 166  166 166 166  166 166 166  166 166 166  166 166 166  166 166 166  166 166 166  166 166 166  166 166 166  166 166 166  166 166 166  166 166 166  166 166 166  166 166 166  166 166 166  166 166 166  166 166 166  166 166 166  167 167 167  167 167 167  167 167 167  167 167 167  167 167 167  167 167 167  167 167 167  167 167 167  167 167 167  167 167 167  167 167 167  167 167 167  167 167 167  167 167 167  167 167 167  167 167 167  167 167 167  167 167 167  167 167 167  167 167 167  167 167 167  167 167 167  167 167 167  167 167 167  167 167 167  167 167 167  167 167 167  167 167 167  167 167 167  167 167 167  167 167 167  167 167 167  167 167 167  167 167 167  167 167 167  167 167 167  167 167 167  167 167 167  167 167 167  167 167 167  167 167 167  167 167 167  167 167 167  167 167 167  167 167 167  167 167 167  167 167 167  167 167 167  168 168 168  168 168 168  168 168 168  168 168 168  168 168 168  168 168 168  168 168 168  168 168 168  168 168 168  168 168 168  168 168 168  168 168 168  168 168 168  168 168 168  168 168 168  168 168 168  168 168 168  168 168 168  168 168 168  168 168 168  168 168 168  168 168 168  168 168 168  168 168 168  168 168 168  168 168 168  168 168 168  168 168 168  168 168 168  168 168 168  168 168 168  168 168 168  168 168 168  168 168 168  168 168 168  168 168 168  168 168 168  168 168 168  168 168 168  168 168 168  168 168 168  168 168 168  168 168 168  168 168 168  168 168 168  168 168 168  168 168 168  168 168 168  168 168 168  168 168 168  168 168 168  168 168 168  168 168 168  168 168 168  168 168 168  167 167 167  167 167 167  167 167 167  167 167 167  167 167 167  167 167 167  167 167 167  167 167 167  167 167 167  167 167 167  167 167 167  167 167 167  167 167 167  167 167 167  167 167 167  167 167 167  167 167 167  167 167 167  167 167 167  167 167 167  167 167 167  167 167 167  167 167 167  167 167 167  167 167 167  167 167 167  167 167 167  167 167 167  167 167 167  167 167 167  167 167 167  167 167 167  167 167 167  167 167 167  167 167 167  167 167 167  167 167 167  167 167 167  167 167 167  167 167 167  167 167 167  167 167 167  167 167 167  167 167 167  167 167 167  167 167 167  167 167 167  167 167 167  167 167 167  166 166 166  166 166 166  166 166 166  166 166 166  166 166 166  166 166 166  166 166 166  166 166 166  166 166 166  166 166 166  166 166 166  166 166 166  166 166 166  166 166 166  166 166 166  166 166 166  166 166 166  166 166 166  166 166 166  166 166 166  166 166 166  166 166 166  166 166 166  166 166 166  166 166 166  166 166 166  166 166 166  166 166 166  166 166 166  166 166 166  166 166 166  165 165 165  165 165 165  165 165 165  165 165 165  165 165 165  165 165 165  165 165 165  165 165 165  165 165 165  165 165 165  165 165 165  165 165 165  165 165 165  165 165 165  165 165 165  165 165 165  165 165 165  165 165 165  165 165 165  165 165 165  165 165 165  165 165 165  165 165 165  165 165 165  165 165 165  165 165 165  164 164 164  164 164 164  164 164 164  164 164 164  164 164 164  164 164 164  164 164 164  164 164 164  164 164 164  164 164 164  164 164 164  164 164 164  164 164 164  164 164 164  164 164 164  164 164 164  164 164 164  164 164 164  164 164 164  164 164 164  164 164 164  164 164 164  164 164 164  164 164 164  163 163 163
163 163 163  163 163 163  164 164 164  164 164 164  164 164 164  164 164 164  164 164 164  164 164 164  164 164 164  164 164 164  164 164 164  164 164 164  164 164 164  164 164 164  164 164 164  164 164 164  164 164 164  164 164 164  164 164 164  164 164 164  164 164 164  164 164 164  164 164 164  164 164 164  164 164 164  164 164 164  165 165 165  165 165 165  165 165 165  165 165 165  165 165 165  165 165 165  165 165 165  165 165 165  165 165 165  165 165 165  165 165 165  165 165 165  165 165 165  165 165 165  165 165 165  165 165 165  165 165 165  165 165 165  165 165 165  165 165 165  165 165 165  165 165 165  165 165 165  165 165 165  165 165 165  165 165 165  166 166 166  166 166 166  166 166 166  166 166 166  166 166 166  166 166 166  166 166 166  166 166 166  166 166 166  166 166 166  166 166 166  166 166 166  166 166 166  166 166 166  166 166 166  166 166 166  166 166 166  166 166 166  166 166 166  166 166 166  166 166 166  166 166 166  166 166 166  166 166 166  166 166 166  166 166 166  166 166 166  166 166 166  166 166 166  166 166 166  167 167 167  167 167 167  167 167 167  167 167 167  167 167 167  167 167 167  167 167 167  167 167 167  167 167 167  167 167 167  167 167 167  167 167 167  167 167 167  167 167 167  167 167 167  167 167 167  167 167 167  167 167 167  167 167 167  167 167 167  167 167 167  167 167 167  167 167 167  167 167 167  167 167 167  167 167 167  167 167 167  167 167 167  167 167 167  167 167 167  167 167 167  167 167 167  167 167 167  167 167 167  167 167 167  167 167 167  167 167 167  167 167 167  167 167 167  167 167 167  167 167 167  167 167 167  167 167 167  167 167 167  168 168 168  168 168 168  168 168 168  168 168 168  168 168 168  168 168 168  168 168 168  168 168 168  168 168 168  168 168 168  168 168 168  168 168 168  168 168 168  168 168 168  168 168 168  168 168 168  168 168 168  168 168 168  168 168 168  168 168 168  168 168 168  168 168 168  168 168 168  168 168 168  168 168 168  168 168 168  168 168 168  168 168 168  168 168 168  168 168 168  168 168 168  168 168 168  168 168 168  168 168 168  168 168 168  168 168 168  168 168 168  168 168 168  168 168 168  168 168 168  168 168 168  168 168 168  168 168 168  168 168 168  168 168 168  168 168 168  168 168 168  168 168 168  168 168 168  168 168 168  168 168 168  168 168 168  168 168 168  168 168 168  168 168 168  168 168 168  168 168 168  168 168 168  168 168 168  168 168 168  168 168 168  168 168 168  168 168 168  168 168 168  168 168 168  168 168 168  168 168 168  168 168 168  168 168 168  168 168 168  168 168 168  167 167 167  167 167 167  167 167 167  167 167 167  167 167 167  167 167 167  167 167 167  167 167 167  167 167 167  167 167 167  167 167 167  167 167 167  167 167 167  167 167 167  167 167 167  167 167 167  167 167 167  167 167 167  167 167 167  167 167 167  167 167 167  167 167 167  167 167 167  167 167 167  167 167 167  167 167 167  167 167 167  167 167 167  167 167 167  167 167 167  167 167 167  167 167 167  167 167 167  167 167 167  167 167 167  167 167 167  167 167 167  167 167 167  167 167 167  167 167 167  167 167 167  167 167 167  167 167 167  167 167 167  166 166 166  166 166 166  166 166 166  166 166 166  166 166 166  166 166 166  166 166 166  166 166 166  166 166 166  166 166 166  166 166 166  166 166 166  166 166 166  166 166 166  166 166 166  166 166 166  166 166 166  166 166 166  166 166 166  166 166 166  166 166 166  166 166 166  166 166 166  166 166 166  166 166 166  166 166 166  166 166 166  166 166 166  166 166 166  166 166 166  165 165 165  165 165 165  165 165 165  165 165 165  165 165 165  165 165 165  165 165 165  165 165 165  165 165 165  165 165 165  165 165 165  165 165 165  165 165 165  165 165 165  165 165 165  165 165 165  165 165 165  165 165 165  165 165 165  165 165 165  165 165 165  165 165 165  165 165 165  165 165 165  165 165 165  165 165 165  165 165 165  164 164 164  164 164 164  164 164 164  164 164 164  164 164 164  164 164 164  164 164 164  164 164 164  164 164 164  164 164 164  164 164 164  164 164 164  164 164 164  164 164 164  164 164 164  164 164 164  164 164 164  164 164 164  164 164 164  164 164 164  164 164 164  164 164 164
164 164 164  164 164 164  164 164 164  164 164 164  164 164 164  164 164 164  164 164 164  164 164 164  164 164 164  164 164 164  164 164 164  164 164 164  164 164 164  164 164 164  164 164 164  164 164 164  164 164 164  164 164 164  164 164 164  164 164 164  164 164 164  164 164 164  164 164 164  164 164 164  165 165 165  165 165 165  165 165 165  165 165 165  165 165 165  165 165 165  165 165 165  165 165 165  165 165 165  165 165 165  165 165 165  165 165 165  165 165 165  165 165 165  165 165 165  165 165 165  165 165 165  165 165 165  165 165 165  165 165 165  165 165 165  165 165 165  165 165 165  165 165 165  165 165 165  166 166 166  166 166 166  166 166 166  166 166 166  166 166 166  166 166 166  166 166 166  166 166 166  166 166 166  166 166 166  166 166 166  166 166 166  166 166 166  166 166 166  166 166 166  166 166 166  166 166 166  166 166 166  166 166 166  166 166 166  166 166 166  166 166 166  166 166 166  166 166 166  166 166 166  166 166 166  166 166 166  166 166 166  166 166 166  166 166 166  167 167 167  167 167 167  167 167 167  167 167 167  167 167 167  167 167 167  167 167 167  167 167 167  167 167 167  167 167 167  167 167 167  167 167 167  167 167 167  167 167 167  167 167 167  167 167 167  167 167 167  167 167 167  167 167 167  167 167 167  167 167 167  167 167 167  167 167 167  167 167 167  167 167 167  167 167 167  167 167 167  167 167 167  167 167 167  167 167 167  167 167 167  167 167 167  167 167 167  167 167 167  167 167 167  167 167 167  167 167 167  167 167 167  167 167 167  167 167 167  167 167 167  168 168 168  168 168 168  168 168 168  168 168 168  168 168 168  168 168 168  168 168 168  168 168 168  168 168 168  168 168 168  168 168 168  168 168 168  168 168 168  168 168 168  168 168 168  168 168 168  168 168 168  168 168 168  168 168 168  168 168 168  168 168 168  168 168 168  168 168 168  168 168 168  168 168 168  168 168 168  168 168 168  168 168 168  168 168 168  168 168 168  168 168 168  168 168 168  168 168 168  168 168 168  168 168 168  168 168 168  168 168 168  168 168 168  168 168 168  168 168 168  168 168 168  168 168 168  168 168 168  168 168 168  168 168 168  168 168 168  168 168 168  168 168 168  168 168 168  168 168 168  168 168 168  168 168 168  168 168 168  168 168 168  168 168 168  168 168 168  168 168 168  168 168 168  168 168 168  168 168 168  168 168 168  168 168 168  168 168 168  168 168 168  168 168 168  168 168 168  168 168 168  168 168 168  168 168 168  168 168 168  168 168 168  168 168 168  168 168 168  168 168 168  168 168 168  168 168 168  168 168 168  168 168 168  168 168 168  168 168 168  168 168 168  168 168 168  168 168 168  167 167 167  167 167 167  167 167 167  167 167 167  167 167 167  167 167 167  167 167 167  167 167 167  167 167 167  167 167 167  167 167 167  167 167 167  167 167 167  167 167 167  167 167 167  167 167 167  167 167 167  167 167 167  167 167 167  167 167 167  167 167 167  167 167 167  167 167 167  167 167 167  167 167 167  167 167 167  167 167 167  167 167 167  167 167 167  167 167 167  167 167 167  167 167 167  167 167 167  167 167 167  167 167 167  167 167 167  167 167 167  167 167 167  167 167 167  167 167 167  167 167 167  167 167 167  166 166 166  166 166 166  166 166 166  166 166 166  166 166 166  166 166 166  166 166 166  166 166 166  166 166 166  166 166 166  166 166 166  166 166 166  166 166 166  166 166 166  166 166 166  166 166 166  166 166 166  166 166 166  166 166 166  166 166 166  166 166 166  166 166 166  166 166 166  166 166 166  166 166 166  166 166 166  166 166 166  166 166 166  166 166 166  165 165 165  165 165 165  165 165 165  165 165 165  165 165 165  165 165 165  165 165 165  165 165 165  165 165 165  165 165 165  165 165 165  165 165 165  165 165 165  165 165 165  165 165 165  165 165 165  165 165 165  165 165 165  165 165 165  165 165 165  165 165 165  165 165 165  165 165 165  165 165 165  165 165 165  165 165 165  164 164 164  164 164 164  164 164 164  164 164 164  164 164 164  164 164 164  164 164 164  164 164 164  164 164 164  164 164 164  164 164 164  164 164 164  164 164 164  164 164 164  164 164 164  164 164 164  164 164 164  164 164 164  164 164 164  164 164 164
164 164 164  164 164 164  164 164 164  164 164 164  164 164 164  164 164 164  164 164 164  164 164 164  164 164 164  164 164 164  164 164 164  164 164 164  164 164 164  164 164 164  164 164 164  164 164 164  164 164 164  164 164 164  164 164 164  164 164 164  164 164 164  165 165 165  165 165 165  165 165 165  165 165 165  165 165 165  165 165 165  165 165 165  165 165 165  165 165 165  165 165 165  165 165 165  165 165 165  165 165 165  165 165 165  165 165 165  165 165 165  165 165 165  165 165 165  165 165 165  165 165 165  165 165 165  165 165 165  165 165 165  165 165 165  165 165 165  165 165 165  166 166 166  166 166 166  166 166 166  166 166 166  166 166 166  166 166 166  166 166 166  166 166 166  166 166 166  166 166 166  166 166 166  166 166 166  166 166 166  166 166 166  166 166 166  166 166 166  166 166 166  166 166 166  166 166 166  166 166 166  166 166 166  166 166 166  166 166 166  166 166 166  166 166 166  166 166 166  166 166 166  166 166 166  166 166 166  167 167 167  167 167 167  167 167 167  167 167 167  167 167 167  167 167 167  167 167 167  167 167 167  167 167 167  167 167 167  167 167 167  167 167 167  167 167 167  167 167 167  167 167 167  167 167 167  167 167 167  167 167 167  167 167 167  167 167 167  167 167 167  167 167 167  167 167 167  167 167 167  167 167 167  167 167 167  167 167 167  167 167 167  167 167 167  167 167 167  167 167 167  167 167 167  167 167 167  167 167 167  167 167 167  167 167 167  167 167 167  167 167 167  168 168 168  168 168 168  168 168 168  168 168 168  168 168 168  168 168 168  168 168 168  168 168 168  168 168 168  168 168 168  168 168 168  168 168 168  168 168 168  168 168 168  168 168 168  168 168 168  168 168 168  168 168 168  168 168 168  168 168 168  168 168 168  168 168 168  168 168 168  168 168 168  168 168 168  168 168 168  168 168 168  168 168 168  168 168 168  168 168 168  168 168 168  168 168 168  168 168 168  168 168 168  168 168 168  168 168 168  168 168 168  168 168 168  168 168 168  168 168 168  168 168 168  168 168 168  168 168 168  168 168 168  168 168 168  168 168 168  168 168 168  168 168 168  168 168 168  168 168 168  168 168 168  168 168 168  168 168 168  168 168 168  168 168 168  168 168 168  168 168 168  168 168 168  168 168 168  168 168 168  168 168 168  168 168 168  168 168 168  168 168 168  168 168 168  168 168 168  168 168 168  168 168 168  168 168 168  168 168 168  168 168 168  168 168 168  168 168 168  168 168 168  168 168 168  168 168 168  168 168 168  168 168 168  168 168 168  168 168 168  168 168 168  168 168 168  168 168 168  168 168 168  168 168 168  168 168 168  168 168 168  168 168 168  168 168 168  168 168 168  168 168 168  168 168 168  168 168 168  168 168 168  168 168 168  167 167 167  167 167 167  167 167 167  167 167 167  167 167 167  167 167 167  167 167 167  167 167 167  167 167 167  167 167 167  167 167 167  167 167 167  167 167 167  167 167 167  167 167 167  167 167 167  167 167 167  167 167 167  167 167 167  167 167 167  167 167 167  167 167 167  167 167 167  167 167 167  167 167 167  167 167 167  167 167 167  167 167 167  167 167 167  167 167 167  167 167 167  167 167 167  167 167 167  167 167 167  167 167 167  167 167 167  167 167 167  167 167 167  167 167 167  166 166 166  166 166 166  166 166 166  166 166 166  166 166 166  166 166 166  166 166 166  166 166 166  166 166 166  166 166 166  166 166 166  166 166 166  166 166 166  166 166 166  166 166 166  166 166 166  166 166 166  166 166 166  166 166 166  166 166 166  166 166 166  166 166 166  166 166 166  166 166 166  166 166 166  166 166 166  166 166 166  166 166 166  166 166 166  165 165 165  165 165 165  165 165 165  165 165 165  165 165 165  165 165 165  165 165 165  165 165 165  165 165 165  165 165 165  165 165 165  165 165 165  165 165 165  165 165 165  165 165 165  165 165 165  165 165 165  165 165 165  165 165 165  165 165 165  165 165 165  165 165 165  165 165 165  165 165 165  165 165 165  165 165 165  164 164 164  164 164 164  164 164 164  164 164 164  164 164 164  164 164 164  164 164 164  164 164 164  164 164 164  164 164 164  164 164 164  164 164 164  164 164 164  164 164 164  164 164 164  164 164 164  164 164 164
164 164 164  164 164 164  164 164 164  164 164 164  164 164 164  164 164 164  164 164 164  164 164 164  164 164 164  164 164 164  164 164 164  164 164 164  164 164 164  164 164 164  164 164 164  164 164 164  164 164 164  164 164 164  164 164 164  165 165 165  165 165 165  165 165 165  165 165 165  165 165 165  165 165 165  165 165 165  165 165 165  165 165 165  165 165 165  165 165 165  165 165 165  165 165 165  165 165 165  165 165 165  165 165 165  165 165 165  165 165 165  165 165 165  165 165 165  165 165 165  165 165 165  165 165 165  165 165 165  165 165 165  166 166 166  166 166 166  166 166 166  166 166 166  166 166 166  166 166 166  166 166 166  166 166 166  166 166 166  166 166 166  166 166 166  166 166 166  166 166 166  166 166 166  166 166 166  166 166 166  166 166 166  166 166 166  166 166 166  166 166 166  166 166 166  166 166 166  166 166 166  166 166 166  166 166 166  166 166 166  166 166 166  166 166 166  166 166 166  167 167 167  167 167 167  167 167 167  167 167 167  167 167 167  167 167 167  167 167 167  167 167 167  167 167 167  167 167 167  167 167 167  167 167 167  167 167 167  167 167 167  167 167 167  167 167 167  167 167 167  167 167 167  167 167 167  167 167 167  167 167 167  167 167 167  167 167 167  167 167 167  167 167 167  167 167 167  167 167 167  167 167 167  167 167 167  167 167 167  167 167 167  167 167 167  167 167 167  167 167 167  167 167 167  167 167 167  167 167 167  168 168 168  168 168 168  168 168 168  168 168 168  168 168 168  168 168 168  168 168 168  168 168 168  168 168 168  168 168 168  168 168 168  168 168 168  168 168 168  168 168 168  168 168 168  168 168 168  168 168 168  168 168 168  168 168 168  168 168 168  168 168 168  168 168 168  168 168 168  168 168 168  168 168 168  168 168 168  168 168 168  168 168 168  168 168 168  168 168 168  168 168 168  168 168 168  168 168 168  168 168 168  168 168 168  168 168 168  168 168 168  168 168 168  168 168 168  168 168 168  168 168 168  168 168 168  168 168 168  168 168 168  168 168 168  168 168 168  168 168 168  168 168 168  168 168 168  168 168 168  168 168 168  168 168 168  168 168 168  168 168 168  168 168 168  168 168 168  168 168 168  168 168 168  168 168 168  168 168 168  168 168 168  168 168 168  168 168 168  168 168 168  168 168 168  168 168 168  168 168 168  168 168 168  168 168 168  168 168 168  168 168 168  168 168 168  168 168 168  168 168 168  168 168 168  168 168 168  168 168 168  168 168 168  168 168 168  168 168 168  168 168 168  168 168 168  168 168 168  168 168 168  168 168 168  168 168 168  168 168 168  168 168 168  168 168 168  168 168 168  168 168 168  168 168 168  168 168 168  168 168 168  168 168 168  168 168 168  168 168 168  168 168 168  168 168 168  168 168 168  168 168 168  168 168 168  168 168 168  168 168 168  167 167 167  167 167 167  167 167 167  167 167 167  167 167 167  167 167 167  167 167 167  167 167 167  167 167 167  167 167 167  167 167 167  167 167 167  167 167 167  167 167 167  167 167 167  167 167 167  167 167 167  167 167 167  167 167 167  167 167 167  167 167 167  167 167 167  167 167 167  167 167 167  167 167 167  167 167 167  167 167 167  167 167 167  167 167 167  167 167 167  167 167 167  167 167 167  167 167 167  167 167 167  167 167 167  167 167 167  167 167 167  166 166 166  166 166 166  166 166 166  166 166 166  166 166 166  166 166 166  166 166 166  166 166 166  166 166 166  166 166 166  166 166 166  166 166 166  166 166 166  166 166 166  166 166 166  166 166 166  166 166 166  166 166 166  166 166 166  166 166 166  166 166 166  166 166 166  166 166 166  166 166 166  166 166 166  166 166 166  166 166 166  166 166 166  166 166 166  165 165 165  165 165 165  165 165 165  165 165 165  165 165 165  165 165 165  165 165 165  165 165 165  165 165 165  165 165 165  165 165 165  165 165 165  165 165 165  165 165 165  165 165 165  165 165 165  165 165 165  165 165 165  165 165 165  165 165 165  165 165 165  165 165 165  165 165 165  165 165 165  165 165 165  164 164 164  164 164 164  164 164 164  164 164 164  164 164 164  164 164 164  164 164 164  164 164 164  164 164 164  164 164 164  164 164 164  164 164 164  164 164 164  164 164 164  164 164 164
164 164 164  164 164 164  164 164 164  164 164 164  164 164 164  164 164 164  164 164 164  164 164 164  164 164 164  164 164 164  164 164 164  164 164 164  164 164 164  164 164 164  164 164 164  164 164 164  164 164 164  165 165 165  165 165 165  165 165 165  165 165 165  165 165 165  165 165 165  165 165 165  165 165 165  165 165 165  165 165 165  165 165 165  165 165 165  165 165 165  165 165 165  165 165 165  165 165 165  165 165 165  165 165 165  165 165 165  165 165 165  165 165 165  165 165 165  165 165 165  165 165 165  165 165 165  166 166 166  166 166 166  166 166 166  166 166 166  166 166 166  166 166 166  166 166 166  166 166 166  166 166 166  166 166 166  166 166 166  166 166 166  166 166 166  166 166 166  166 166 166  166 166 166  166 166 166  166 166 166  166 166 166  166 166 166  166 166 166  166 166 166  166 166 166  166 166 166  166 166 166  166 166 166  166 166 166  166 166 166  167 167 167  167 167 167  167 167 167  167 167 167  167 167 167  167 167 167  167 167 167  167 167 167  167 167 167  167 167 167  167 167 167  167 167 167  167 167 167  167 167 167  167 167 167  167 167 167  167 167 167  167 167 167  167 167 167  167 167 167  167 167 167  167 167 167  167 167 167  167 167 167  167 167 167  167 167 167  167 167 167  167 167 167  167 167 167  167 167 167  167 167 167  167 167 167  167 167 167  167 167 167  167 167 167  168 168 168  168 168 168  168 168 168  168 168 168  168 168 168  168 168 168  168 168 168  168 168 168  168 168 168  168 168 168  168 168 168  168 168 168  168 168 168  168 168 168  168 168 168  168 168 168  168 168 168  168 168 168  168 168 168  168 168 168  168 168 168  168 168 168  168 168 168  168 168 168  168 168 168  168 168 168  168 168 168  168 168 168  168 168 168  168 168 168  168 168 168  168 168 168  168 168 168  168 168 168  168 168 168  168 168 168  168 168 168  168 168 168  168 168 168  168 168 168  168 168 168  168 168 168  168 168 168  168 168 168  168 168 168  168 168 168  168 168 168  168 168 168  168 168 168  168 168 168  168 168 168  168 168 168  168 168 168  168 168 168  168 168 168  168 168 168  168 168 168  168 168 168  168 168 168  168 168 168  168 168 168  168 168 168  168 168 168  168 168 168  168 168 168  168 168 168  168 168 168  168 168 168  168 168 168  168 168 168  168 168 168  168 168 168  168 168 168  168 168 168  168 168 168  168 168 168  168 168 168  168 168 168  168 168 168  168 168 168  168 168 168  168 168 168  168 168 168  168 168 168  168 168 168  168 168 168  168 168 168  168 168 168  168 168 168  168 168 168  168 168 168  168 168 168  168 168 168  168 168 168  168 168 168  168 168 168  168 168 168  168 168 168  168 168 168  168 168 168  168 168 168  168 168 168  168 168 168  168 168 168  168 168 168  168 168 168  168 168 168  168 168 168  168 168 168  168 168 168  168 168 168  168 168 168  168 168 168  167 167 167  167 167 167  167 167 167  167 167 167  167 167 167  167 167 167  167 167 167  167 167 167  167 167 167  167 167 167  167 167 167  167 167 167  167 167 167  167 167 167  167 167 167  167 167 167  167 167 167  167 167 167  167 167 167  167 167 167  167 167 167  167 167 167  167 167 167  167 167 167  167 167 167  167 167 167  167 167 167  167 167 167  167 167 167  167 167 167  167 167 167  167 167 167  167 167 167  167 167 167  167 167 167  167 167 167  166 166 166  166 166 166  166 166 166  166 166 166  166 166 166  166 166 166  166 166 166  166 166 166  166 166 166  166 166 166  166 166 166  166 166 166  166 166 166  166 166 166  166 166 166  166 166 166  166 166 166  166 166 166  166 166 166  166 166 166  166 166 166  166 166 166  166 166 166  166 166 166  166 166 166  166 166 166  166 166 166  166 166 166  165 165 165  165 165 165  165 165 165  165 165 165  165 165 165  165 165 165  165 165 165  165 165 165  165 165 165  165 165 165  165 165 165  165 165 165  165 165 165  165 165 165  165 165 165  165 165 165  165 165 165  165 165 165  165 165 165  165 165 165  165 165 165  165 165 165  165 165 165  165 165 165  165 165 165  165 165 165  164 164 164  164 164 164  164 164 164  164 164 164  164 164 164  164 164 164  164 164 164  164 164 164  164 164 164  164 164 164  164 164 164  164 164 164
164 164 164  164 164 164  164 164 164  164 164 164  164 164 164  164 164 164  164 164 164  164 164 164  164 164 164  164 164 164  164 164 164  164 164 164  164 164 164  164 164 164  165 165 165  165 165 165  165 165 165  165 165 165  165 165 165  165 165 165  165 165 165  165 165 165  165 165 165  165 165 165  165 165 165  165 165 165  165 165 165  165 165 165  165 165 165  165 165 165  165 165 165  165 165 165  165 165 165  165 165 165  165 165 165  165 165 165  165 165 165  165 165 165  165 165 165  166 166 166  166 166 166  166 166 166  166 166 166  166 166 166  166 166 166  166 166 166  166 166 166  166 166 166  166 166 166  166 166 166  166 166 166  166 166 166  166 166 166  166 166 166  166 166 166  166 166 166  166 166 166  166 166 166  166 166 166  166 166 166  166 166 166  166 166 166  166 166 166  166 166 166  166 166 166  166 166 166  166 166 166  167 167 167  167 167 167  167 167 167  167 167 167  167 167 167  167 167 167  167 167 167  167 167 167  167 167 167  167 167 167  167 167 167  167 167 167  167 167 167  167 167 167  167 167 167  167 167 167  167 167 167  167 167 167  167 167 167  167 167 167  167 167 167  167 167 167  167 167 167  167 167 167  167 167 167  167 167 167  167 167 167  167 167 167  167 167 167  167 167 167  167 167 167  167 167 167  167 167 167  167 167 167  168 168 168  168 168 168  168 168 168  168 168 168  168 168 168  168 168 168  168 168 168  168 168 168  168 168 168  168 168 168  168 168 168  168 168 168  168 168 168  168 168 168  168 168 168  168 168 168  168 168 168  168 168 168  168 168 168  168 168 168  168 168 168  168 168 168  168 168 168  168 168 168  168 168 168  168 168 168  168 168 168  168 168 168  168 168 168  168 168 168  168 168 168  168 168 168  168 168 168  168 168 168  168 168 168  168 168 168  168 168 168  168 168 168  168 168 168  168 168 168  168 168 168  168 168 168  168 168 168  168 168 168  168 168 168  168 168 168  168 168 168  168 168 168  168 168 168  168 168 168  168 168 168  168 168 168  168 168 168  168 168 168  168 168 168  168 168 168  168 168 168  168 168 168  168 168 168  168 168 168  168 168 168  168 168 168  168 168 168  168 168 168  168 168 168  168 168 168  168 168 168  168 168 168  168 168 168  168 168 168  168 168 168  168 168 168  168 168 168  168 168 168  168 168 168  168 168 168  168 168 168  168 168 168  168 168 168  168 168 168  168 168 168  168 168 168  168 168 168  168 168 168  168 168 168  168 168 168  168 168 168  168 168 168  168 168 168  168 168 168  168 168 168  168 168 168  168 168 168  168 168 168  168 168 168  168 168 168  168 168 168  168 168 168  168 168 168  168 168 168  168 168 168  168 168 168  168 168 168  168 168 168  168 168 168  168 168 168  168 168 168  168 168 168  168 168 168  168 168 168  168 168 168  168 168 168  168 168 168  168 168 168  168 168 168  168 168 168  168 168 168  168 168 168  168 168 168  168 168 168  168 168 168  168 168 168  167 167 167  167 167 167  167 167 167  167 167 167  167 167 167  167 167 167  167 167 167  167 167 167  167 167 167  167 167 167  167 167 167  167 167 167  167 167 167  167 167 167  167 167 167  167 167 167  167 167 167  167 167 167  167 167 167  167 167 167  167 167 167  167 167 167  167 167 167  167 167 167  167 167 167  167 167 167  167 167 167  167 167 167  167 167 167  167 167 167  167 167 167  167 167 167  167 167 167  167 167 167  166 166 166  166 166 166  166 166 166  166 166 166  166 166 166  166 166 166  166 166 166  166 166 166  166 166 166  166 166 166  166 166 166  166 166 166  166 166 166  166 166 166  166 166 166  166 166 166  166 166 166  166 166 166  166 166 166  166 166 166  166 166 166  166 166 166  166 166 166  166 166 166  166 166 166  166 166 166  166 166 166  166 166 166  165 165 165  165 165 165  165 165 165  165 165 165  165 165 165  165 165 165  165 165 165  165 165 165  165 165 165  165 165 165  165 165 165  165 165 165  165 165 165  165 165 165  165 165 165  165 165 165  165 165 165  165 165 165  165 165 165  165 165 165  165 165 165  165 165 165  165 165 165  165 165 165  165 165 165  164 164 164  164 164 164  164 164 164  164 164 164  164 164 164  164 164 164  164 164 164  164 164 164  164 164 164  164 164 164
164 164 164  164 164 164  164 164 164  164 164 164  164 164 164  164 164 164  164 164 164  164 164 164  164 164 164  164 164 164  164 164 164  164 164 164  165 165 165  165 165 165  165 165 165  165 165 165  165 165 165  165 165 165  165 165 165  165 165 165  165 165 165  165 165 165  165 165 165  165 165 165  165 165 165  165 165 165  165 165 165  165 165 165  165 165 165  165 165 165  165 165 165  165 165 165  165 165 165  165 165 165  165 165 165  165 165 165  165 165 165  166 166 166  166 166 166  166 166 166  166 166 166  166 166 166  166 166 166  166 166 166  166 166 166  166 166 166  166 166 166  166 166 166  166 166 166  166 166 166  166 166 166  166 166 166  166 166 166  166 166 166  166 166 166  166 166 166  166 166 166  166 166 166  166 166 166  166 166 166  166 166 166  166 166 166  166 166 166  166 166 166  167 167 167  167 167 167  167 167 167  167 167 167  167 167 167  167 167 167  167 167 167  167 167 167  167 167 167  167 167 167  167 167 167  167 167 167  167 167 167  167 167 167  167 167 167  167 167 167  167 167 167  167 167 167  167 167 167  167 167 167  167 167 167  167 167 167  167 167 167  167 167 167  167 167 167  167 167 167  167 167 167  167 167 167  167 167 167  167 167 167  167 167 167  167 167 167  167 167 167  168 168 168  168 168 168  168 168 168  168 168 168  168 168 168  168 168 168  168 168 168  168 168 168  168 168 168  168 168 168  168 168 168  168 168 168  168 168 168  168 168 168  168 168 168  168 168 168  168 168 168  168 168 168  168 168 168  168 168 168  168 168 168  168 168 168  168 168 168  168 168 168  168 168 168  168 168 168  168 168 168  168 168 168  168 168 168  168 168 168  168 168 168  168 168 168  168 168 168  168 168 168  168 168 168  168 168 168  168 168 168  168 168 168  168 168 168  168 168 168  168 168 168  168 168 168  168 168 168  168 168 168  168 168 168  168 168 168  168 168 168  168 168 168  168 168 168  168 168 168  168 168 168  168 168 168  168 168 168  168 168 168  168 168 168  168 168 168  168 168 168  168 168 168  168 168 168  168 168 168  168 168 168  168 168 168  168 168 168  168 168 168  168 168 168  168 168 168  168 168 168  168 168 168  168 168 168  168 168 168  168 168 168  168 168 168  168 168 168  168 168 168  168 168 168  168 168 168  168 168 168  168 168 168  168 168 168  168 168 168  168 168 168  168 168 168  168 168 168  168 168 168  168 168 168  168 168 168  168 168 168  168 168 168  168 168 168  168 168 168  168 168 168  168 168 168  168 168 168  168 168 168  168 168 168  168 168 168  168 168 168  168 168 168  168 168 168  168 168 168  168 168 168  168 168 168  168 168 168  168 168 168  168 168 168  168 168 168  168 168 168  168 168 168  168 168 168  168 168 168  168 168 168  168 168 168  168 168 168  168 168 168  168 168 168  168 168 168  168 168 168  168 168 168  168 168 168  168 168 168  168 168 168  168 168 168  168 168 168  168 168 168  168 168 168  168 168 168  168 168 168  168 168 168  168 168 168  167 167 167  167 167 167  167 167 167  167 167 167  167 167 167  167 167 167  167 167 167  167 167 167  167 167 167  167 167 167  167 167 167  167 167 167  167 167 167  167 167 167  167 167 167  167 167 167  167 167 167  167 167 167  167 167 167  167 167 167  167 167 167  167 167 167  167 167 167  167 167 167  167 167 167  167 167 167  167 167 167  167 167 167  167 167 167  167 167 167  167 167 167  167 167 167  167 167 167  167 167 167  166 166 166  166 166 166  166 166 166  166 166 166  166 166 166  166 166 166  166 166 166  166 166 166  166 166 166  166 166 166  166 166 166  166 166 166  166 166 166  166 166 166  166 166 166  166 166 166  166 166 166  166 166 166  166 166 166  166 166 166  166 166 166  166 166 166  166 166 166  166 166 166  166 166 166  166 166 166  166 166 166  166 166 166  165 165 165  165 165 165  165 165 165  165 165 165  165 165 165  165 165 165  165 165 165  165 165 165  165 165 165  165 165 165  165 165 165  165 165 165  165 165 165  165 165 165  165 165 165  165 165 165  165 165 165  165 165 165  165 165 165  165 165 165  165 165 165  165 165 165  165 165 165  165 165 165  165 165 165  164 164 164  164 164 164  164 164 164  164 164 164  164 164 164  164 164 164  164 164 164
164 164 164  164 164 164  164 164 164  164 164 164  164 164 164  164 164 164  164 164 164  164 164 164  164 164 164  164 164 164  165 165 165  165 165 165  165 165 165  165 165 165  165 165 165  165 165 165  165 165 165  165 165 165  165 165 165  165 165 165  165 165 165  165 165 165  165 165 165  165 165 165  165 165 165  165 165 165  165 165 165  165 165 165  165 165 165  165 165 165  165 165 165  165 165 165  165 165 165  165 165 165  165 165 165  166 166 166  166 166 166  166 166 166  166 166 166  166 166 166  166 166 166  166 166 166  166 166 166  166 166 166  166 166 166  166 166 166  166 166 166  166 166 166  166 166 166  166 166 166  166 166 166  166 166 166  166 166 166  166 166 166  166 166 166  166 166 166  166 166 166  166 166 166  166 166 166  166 166 166  166 166 166  166 166 166  167 167 167  167 167 167  167 167 167  167 167 167  167 167 167  167 167 167  167 167 167  167 167 167  167 167 167  167 167 167  167 167 167  167 167 167  167 167 167  167 167 167  167 167 167  167 167 167  167 167 167  167 167 167  167 167 167  167 167 167  167 167 167  167 167 167  167 167 167  167 167 167  167 167 167  167 167 167  167 167 167  167 167 167  167 167 167  167 167 167  167 167 167  167 167 167  168 168 168  168 168 168  168 168 168  168 168 168  168 168 168  168 168 168  168 168 168  168 168 168  168 168 168  168 168 168  168 168 168  168 168 168  168 168 168  168 168 168  168 168 168  168 168 168  168 168 168  168 168 168  168 168 168  168 168 168  168 168 168  168 168 168  168 168 168  168 168 168  168 168 168  168 168 168  168 168 168  168 168 168  168 168 168  168 168 168  168 168 168  168 168 168  168 168 168  168 168 168  168 168 168  168 168 168  168 168 168  168 168 168  168 168 168  168 168 168  168 168 168  168 168 168  168 168 168  168 168 168  168 168 168  168 168 168  168 168 168  168 168 168  168 168 168  168 168 168  168 168 168  168 168 168  168 168 168  168 168 168  168 168 168  168 168 168  168 168 168  168 168 168  168 168 168  168 168 168  168 168 168  168 168 168  168 168 168  168 168 168  168 168 168  168 168 168  168 168 168  168 168 168  168 168 168  168 168 168  168 168 168  168 168 168  168 168 168  168 168 168  168 168 168  168 168 168  168 168 168  168 168 168  168 168 168  168 168 168  168 168 168  168 168 168  168 168 168  168 168 168  168 168 168  168 168 168  168 168 168  168 168 168  168 168 168  168 168 168  168 168 168  168 168 168  168 168 168  168 168 168  168 168 168  168 168 168  168 168 168  168 168 168  168 168 168  168 168 168  168 168 168  168 168 168  168 168 168  168 168 168  168 168 168  168 168 168  168 168 168  168 168 168  168 168 168  168 168 168  168 168 168  168 168 168  168 168 168  168 168 168  168 168 168  168 168 168  168 168 168  168 168 168  168 168 168  168 168 168  168 168 168  168 168 168  168 168 168  168 168 168  168 168 168  168 168 168  168 168 168  168 168 168  168 168 168  168 168 168  168 168 168  168 168 168  168 168 168  168 168 168  168 168 168  168 168 168  167 167 167  167 167 167  167 167 167  167 167 167  167 167 167  167 167 167  167 167 167  167 167 167  167 167 167  167 167 167  167 167 167  167 167 167  167 167 167  167 167 167  167 167 167  167 167 167  167 167 167  167 167 167  167 167 167  167 167 167  167 167 167  167 167 167  167 167 167  167 167 167  167 167 167  167 167 167  167 167 167  167 167 167  167 167 167  167 167 167  167 167 167  167 167 167  167 167 167  166 166 166  166 166 166  166 166 166  166 166 166  166 166 166  166 166 166  166 166 166  166 166 166  166 166 166  166 166 166  166 166 166  166 166 166  166 166 166  166 166 166  166 166 166  166 166 166  166 166 166  166 166 166  166 166 166  166 166 166  166 166 166  166 166 166  166 166 166  166 166 166  166 166 166  166 166 166  166 166 166  165 165 165  165 165 165  165 165 165  165 165 165  165 165 165  165 165 165  165 165 165  165 165 165  165 165 165  165 165 165  165 165 165  165 165 165  165 165 165  165 165 165  165 165 165  165 165 165  165 165 165  165 165 165  165 165 165  165 165 165  165 165 165  165 165 165  165 165 165  165 165 165  165 165 165  164 164 164  164 164 164  164 164 164  164 164 164  164 164 164
164 164 164  164 164 164  164 164 164  164 164 164  164 164 164  164 164 164  164 164 164  164 164 164  165 165 165  165 165 165  165 165 165  165 165 165  165 165 165  165 165 165  165 165 165  165 165 165  165 165 165  165 165 165  165 165 165  165 165 165  165 165 165  165 165 165  165 165 165  165 165 165  165 165 165  165 165 165  165 165 165  165 165 165  165 165 165  165 165 165  165 165 165  165 165 165  166 166 166  166 166 166  166 166 166  166 166 166  166 166 166  166 166 166  166 166 166  166 166 166  166 166 166  166 166 166  166 166 166  166 166 166  166 166 166  166 166 166  166 166 166  166 166 166  166 166 166  166 166 166  166 166 166  166 166 166  166 166 166  166 166 166  166 166 166  166 166 166  166 166 166  166 166 166  166 166 166  167 167 167  167 167 167  167 167 167  167 167 167  167 167 167  167 167 167  167 167 167  167 167 167  167 167 167  167 167 167  167 167 167  167 167 167  167 167 167  167 167 167  167 167 167  167 167 167  167 167 167  167 167 167  167 167 167  167 167 167  167 167 167  167 167 167  167 167 167  167 167 167  167 167 167  167 167 167  167 167 167  167 167 167  167 167 167  167 167 167  167 167 167  167 167 167  168 168 168  168 168 168  168 168 168  168 168 168  168 168 168  168 168 168  168 168 168  168 168 168  168 168 168  168 168 168  168 168 168  168 168 168  168 168 168  168 168 168  168 168 168  168 168 168  168 168 168  168 168 168  168 168 168  168 168 168  168 168 168  168 168 168  168 168 168  168 168 168  168 168 168  168 168 168  168 168 168  168 168 168  168 168 168  168 168 168  168 168 168  168 168 168  168 168 168  168 168 168  168 168 168  168 168 168  168 168 168  168 168 168  168 168 168  168 168 168  168 168 168  168 168 168  168 168 168  168 168 168  168 168 168  168 168 168  168 168 168  168 168 168  168 168 168  168 168 168  168 168 168  168 168 168  168 168 168  168 168 168  169 169 169  169 169 169  169 169 169  169 169 169  169 169 169  169 169 169  169 169 169  169 169 169  169 169 169  169 169 169  169 169 169  169 169 169  169 169 169  169 169 169  169 169 169  169 169 169  169 169 169  169 169 169  169 169 169  169 169 169  169 169 169  169 169 169  169 169 169  169 169 169  169 169 169  169 169 169  169 169 169  169 169 169  169 169 169  169 169 169  169 169 169  169 169 169  169 169 169  169 169 169  168 168 168  168 168 168  168 168 168  168 168 168  168 168 168  168 168 168  168 168 168  168 168 168  168 168 168  168 168 168  168 168 168  168 168 168  168 168 168  168 168 168  168 168 168  168 168 168  168 168 168  168 168 168  168 168 168  168 168 168  168 168 168  168 168 168  168 168 168  168 168 168  168 168 168  168 168 168  168 168 168  168 168 168  168 168 168  168 168 168  168 168 168  168 168 168  168 168 168  168 168 168  168 168 168  168 168 168  168 168 168  168 168 168  168 168 168  168 168 168  168 168 168  168 168 168  168 168 168  168 168 168  168 168 168  168 168 168  168 168 168  168 168 168  168 168 168  168 168 168  168 168 168  168 168 168  168 168 168  168 168 168  168 168 168  167 167 167  167 167 167  167 167 167  167 167 167  167 167 167  167 167 167  167 167 167  167 167 167  167 167 167  167 167 167  167 167 167  167 167 167  167 167 167  167 167 167  167 167 167  167 167 167  167 167 167  167 167 167  167 167 167  167 167 167  167 167 167  167 167 167  167 167 167  167 167 167  167 167 167  167 167 167  167 167 167  167 167 167  167 167 167  167 167 167  167 167 167  166 166 166  166 166 166  166 166 166  166 166 166  166 166 166  166 166 166  166 166 166  166 166 166  166 166 166  166 166 166  166 166 166  166 166 166  166 166 166  166 166 166  166 166 166  166 166 166  166 166 166  166 166 166  166 166 166  166 166 166  166 166 166  166 166 166  166 166 166  166 166 166  166 166 166  166 166 166  166 166 166  166 166 166  165 165 165  165 165 165  165 165 165  165 165 165  165 165 165  165 165 165  165 165 165  165 165 165  165 165 165  165 165 165  165 165 165  165 165 165  165 165 165  165 165 165  165 165 165  165 165 165  165 165 165  165 165 165  165 165 165  165 165 165  165 165 165  165 165 165  165 165 165  165 165 165  164 164 164  164 164 164  164 164 164
164 164 164  164 164 164  164 164 164  164 164 164  164 164 164  164 164 164  165 165 165  165 165 165  165 165 165  165 165 165  165 165 165  165 165 165  165 165 165  165 165 165  165 165 165  165 165 165  165 165 165  165 165 165  165 165 165  165 165 165  165 165 165  165 165 165  165 165 165  165 165 165  165 165 165  165 165 165  165 165 165  165 165 165  165 165 165  165 165 165  166 166 166  166 166 166  166 166 166  166 166 166  166 166 166  166 166 166  166 166 166  166 166 166  166 166 166  166 166 166  166 166 166  166 166 166  166 166 166  166 166 166  166 166 166  166 166 166  166 166 166  166 166 166  166 166 166  166 166 166  166 166 166  166 166 166  166 166 166  166 166 166  166 166 166  166 166 166  166 166 166  167 167 167  167 167 167  167 167 167  167 167 167  167 167 167  167 167 167  167 167 167  167 167 167  167 167 167  167 167 167  167 167 167  167 167 167  167 167 167  167 167 167  167 167 167  167 167 167  167 167 167  167 167 167  167 167 167  167 167 167  167 167 167  167 167 167  167 167 167  167 167 167  167 167 167  167 167 167  167 167 167  167 167 167  167 167 167  167 167 167  168 168 168  168 168 168  168 168 168  168 168 168  168 168 168  168 168 168  168 168 168  168 168 168  168 168 168  168 168 168  168 168 168  168 168 168  168 168 168  168 168 168  168 168 168  168 168 168  168 168 168  168 168 168  168 168 168  168 168 168  168 168 168  168 168 168  168 168 168  168 168 168  168 168 168  168 168 168  168 168 168  168 168 168  168 168 168  168 168 168  168 168 168  168 168 168  168 168 168  168 168 168  168 168 168  168 168 168  168 168 168  168 168 168  168 168 168  168 168 168  168 168 168  168 168 168  168 168 168  168 168 168  168 168 168  168 168 168  168 168 168  168 168 168  169 169 169  169 169 169  169 169 169  169 169 169  169 169 169  169 169 169  169 169 169  169 169 169  169 169 169  169 169 169  169 169 169  169 169 169  169 169 169  169 169 169  169 169 169  169 169 169  169 169 169  169 169 169  169 169 169  169 169 169  169 169 169  169 169 169  169 169 169  169 169 169  169 169 169  169 169 169  169 169 169  169 169 169  169 169 169  169 169 169  169 169 169  169 169 169  169 169 169  169 169 169  169 169 169  169 169 169  169 169 169  169 169 169  169 169 169  169 169 169  169 169 169  169 169 169  169 169 169  169 169 169  169 169 169  169 169 169  169 169 169  169 169 169  169 169 169  169 169 169  169 169 169  169 169 169  169 169 169  169 169 169  168 168 168  168 168 168  168 168 168  168 168 168  168 168 168  168 168 168  168 168 168  168 168 168  168 168 168  168 168 168  168 168 168  168 168 168  168 168 168  168 168 168  168 168 168  168 168 168  168 168 168  168 168 168  168 168 168  168 168 168  168 168 168  168 168 168  168 168 168  168 168 168  168 168 168  168 168 168  168 168 168  168 168 168  168 168 168  168 168 168  168 168 168  168 168 168  168 168 168  168 168 168  168 168 168  168 168 168  168 168 168  168 168 168  168 168 168  168 168 168  168 168 168  168 168 168  168 168 168  168 168 168  168 168 168  168 168 168  168 168 168  168 168 168  167 167 167  167 167 167  167 167 167  167 167 167  167 167 167  167 167 167  167 167 167  167 167 167  167 167 167  167 167 167  167 167 167  167 167 167  167 167 167  167 167 167  167 167 167  167 167 167  167 167 167  167 167 167  167 167 167  167 167 167  167 167 167  167 167 167  167 167 167  167 167 167  167 167 167  167 167 167  167 167 167  167 167 167  167 167 167  167 167 167  167 167 167  166 166 166  166 166 166  166 166 166  166 166 166  166 166 166  166 166 166  166 166 166  166 166 166  166 166 166  166 166 166  166 166 166  166 166 166  166 166 166  166 166 166  166 166 166  166 166 166  166 166 166  166 166 166  166 166 166  166 166 166  166 166 166  166 166 166  166 166 166  166 166 166  166 166 166  166 166 166  166 166 166  165 165 165  165 165 165  165 165 165  165 165 165  165 165 165  165 165 165  165 165 165  165 165 165  165 165 165  165 165 165  165 165 165  165 165 165  165 165 165  165 165 165  165 165 165  165 165 165  165 165 165  165 165 165  165 165 165  165 165 165  165 165 165  165 165 165  165 165 165  165 165 165  165 165 165
164 164 164  164 164 164  164 164 164  164 164 164  165 165 165  165 165 165  165 165 165  165 165 165  165 165 165  165 165 165  165 165 165  165 165 165  165 165 165  165 165 165  165 165 165  165 165 165  165 165 165  165 165 165  165 165 165  165 165 165  165 165 165  165 165 165  165 165 165  165 165 165  165 165 165  165 165 165  165 165 165  165 165 165  166 166 166  166 166 166  166 166 166  166 166 166  166 166 166  166 166 166  166 166 166  166 166 166  166 166 166  166 166 166  166 166 166  166 166 166  166 166 166  166 166 166  166 166 166  166 166 166  166 166 166  166 166 166  166 166 166  166 166 166  166 166 166  166 166 166  166 166 166  166 166 166  166 166 166  166 166 166  167 167 167  167 167 167  167 167 167  167 167 167  167 167 167  167 167 167  167 167 167  167 167 167  167 167 167  167 167 167  167 167 167  167 167 167  167 167 167  167 167 167  167 167 167  167 167 167  167 167 167  167 167 167  167 167 167  167 167 167  167 167 167  167 167 167  167 167 167  167 167 167  167 167 167  167 167 167  167 167 167  167 167 167  167 167 167  167 167 167  168 168 168  168 168 168  168 168 168  168 168 168  168 168 168  168 168 168  168 168 168  168 168 168  168 168 168  168 168 168  168 168 168  168 168 168  168 168 168  168 168 168  168 168 168  168 168 168  168 168 168  168 168 168  168 168 168  168 168 168  168 168 168  168 168 168  168 168 168  168 168 168  168 168 168  168 168 168  168 168 168  168 168 168  168 168 168  168 168 168  168 168 168  168 168 168  168 168 168  168 168 168  168 168 168  168 168 168  168 168 168  168 168 168  168 168 168  168 168 168  168 168 168  168 168 168  168 168 168  168 168 168  169 169 169  169 169 169  169 169 169  169 169 169  169 169 169  169 169 169  169 169 169  169 169 169  169 169 169  169 169 169  169 169 169  169 169 169  169 169 169  169 169 169  169 169 169  169 169 169  169 169 169  169 169 169  169 169 169  169 169 169  169 169 169  169 169 169  169 169 169  169 169 169  169 169 169  169 169 169  169 169 169  169 169 169  169 169 169  169 169 169  169 169 169  169 169 169  169 169 169  169 169 169  169 169 169  169 169 169  169 169 169  169 169 169  169 169 169  169 169 169  169 169 169  169 169 169  169 169 169  169 169 169  169 169 169  169 169 169  169 169 169  169 169 169  169 169 169  169 169 169  169 169 169  169 169 169  169 169 169  169 169 169  169 169 169  169 169 169  169 169 169  169 169 169  169 169 169  169 169 169  169 169 169  169 169 169  169 169 169  169 169 169  169 169 169  169 169 169  169 169 169  169 169 169  168 168 168  168 168 168  168 168 168  168 168 168  168 168 168  168 168 168  168 168 168  168 168 168  168 168 168  168 168 168  168 168 168  168 168 168  168 168 168  168 168 168  168 168 168  168 168 168  168 168 168  168 168 168  168 168 168  168 168 168  168 168 168  168 168 168  168 168 168  168 168 168  168 168 168  168 168 168  168 168 168  168 168 168  168 168 168  168 168 168  168 168 168  168 168 168  168 168 168  168 168 168  168 168 168  168 168 168  168 168 168  168 168 168  168 168 168  168 168 168  168 168 168  168 168 168  168 168 168  168 168 168  167 167 167  167 167 167  167 167 167  167 167 167  167 167 167  167 167 167  167 167 167  167 167 167  167 167 167  167 167 167  167 167 167  167 167 167  167 167 167  167 167 167  167 167 167  167 167 167  167 167 167  167 167 167  167 167 167  167 167 167  167 167 167  167 167 167  167 167 167  167 167 167  167 167 167  167 167 167  167 167 167  167 167 167  167 167 167  167 167 167  167 167 167  166 166 166  166 166 166  166 166 166  166 166 166  166 166 166  166 166 166  166 166 166  166 166 166  166 166 166  166 166 166  166 166 166  166 166 166  166 166 166  166 166 166  166 166 166  166 166 166  166 166 166  166 166 166  166 166 166  166 166 166  166 166 166  166 166 166  166 166 166  166 166 166  166 166 166  166 166 166  165 165 165  165 165 165  165 165 165  165 165 165  165 165 165  165 165 165  165 165 165  165 165 165  165 165 165  165 165 165  165 165 165  165 165 165  165 165 165  165 165 165  165 165 165  165 165 165  165 165 165  165 165 165  165 165 165  165 165 165  165 165 165  165 165 165  165 165 165
164 164 164  165 165 165  165 165 165  165 165 165  165 165 165  165 165 165  165 165 165  165 165 165  165 165 165  165 165 165  165 165 165  165 165 165  165 165 165  165 165 165  165 165 165  165 165 165  165 165 165  165 165 165  165 165 165  165 165 165  165 165 165  165 165 165  165 165 165  165 165 165  165 165 165  165 165 165  166 166 166  166 166 166  166 166 166  166 166 166  166 166 166  166 166 166  166 166 166  166 166 166  166 166 166  166 166 166  166 166 166  166 166 166  166 166 166  166 166 166  166 166 166  166 166 166  166 166 166  166 166 166  166 166 166  166 166 166  166 166 166  166 166 166  166 166 166  166 166 166  166 166 166  166 166 166  167 167 167  167 167 167  167 167 167  167 167 167  167 167 167  167 167 167  167 167 167  167 167 167  167 167 167  167 167 167  167 167 167  167 167 167  167 167 167  167 167 167  167 167 167  167 167 167  167 167 167  167 167 167  167 167 167  167 167 167  167 167 167  167 167 167  167 167 167  167 167 167  167 167 167  167 167 167  167 167 167  167 167 167  167 167 167  168 168 168  168 168 168  168 168 168  168 168 168  168 168 168  168 168 168  168 168 168  168 168 168  168 168 168  168 168 168  168 168 168  168 168 168  168 168 168  168 168 168  168 168 168  168 168 168  168 168 168  168 168 168  168 168 168  168 168 168  168 168 168  168 168 168  168 168 168  168 168 168  168 168 168  168 168 168  168 168 168  168 168 168  168 168 168  168 168 168  168 168 168  168 168 168  168 168 168  168 168 168  168 168 168  168 168 168  168 168 168  168 168 168  168 168 168  168 168 168  168 168 168  169 169 169  169 169 169  169 169 169  169 169 169  169 169 169  169 169 169  169 169 169  169 169 169  169 169 169  169 169 169  169 169 169  169 169 169  169 169 169  169 169 169  169 169 169  169 169 169  169 169 169  169 169 169  169 169 169  169 169 169  169 169 169  169 169 169  169 169 169  169 169 169  169 169 169  169 169 169  169 169 169  169 169 169  169 169 169  169 169 169  169 169 169  169 169 169  169 169 169  169 169 169  169 169 169  169 169 169  169 169 169  169 169 169  169 169 169  169 169 169  169 169 169  169 169 169  169 169 169  169 169 169  169 169 169  169 169 169  169 169 169  169 169 169  169 169 169  169 169 169  169 169 169  169 169 169  169 169 169  169 169 169  169 169 169  169 169 169  169 169 169  169 169 169  169 169 169  169 169 169  169 169 169  169 169 169  169 169 169  169 169 169  169 169 169  169 169 169  169 169 169  169 169 169  169 169 169  169 169 169  169 169 169  169 169 169  169 169 169  169 169 169  169 169 169  169 169 169  169 169 169  169 169 169  169 169 169  169 169 169  168 168 168  168 168 168  168 168 168  168 168 168  168 168 168  168 168 168  168 168 168  168 168 168  168 168 168  168 168 168  168 168 168  168 168 168  168 168 168  168 168 168  168 168 168  168 168 168  168 168 168  168 168 168  168 168 168  168 168 168  168 168 168  168 168 168  168 168 168  168 168 168  168 168 168  168 168 168  168 168 168  168 168 168  168 168 168  168 168 168  168 168 168  168 168 168  168 168 168  168 168 168  168 168 168  168 168 168  168 168 168  168 168 168  168 168 168  168 168 168  168 168 168  167 167 167  167 167 167  167 167 167  167 167 167  167 167 167  167 167 167  167 167 167  167 167 167  167 167 167  167 167 167  167 167 167  167 167 167  167 167 167  167 167 167  167 167 167  167 167 167  167 167 167  167 167 167  167 167 167  167 167 167  167 167 167  167 167 167  167 167 167  167 167 167  167 167 167  167 167 167  167 167 167  167 167 167  167 167 167  167 167 167  166 166 166  166 166 166  166 166 166  166 166 166  166 166 166  166 166 166  166 166 166  166 166 166  166 166 166  166 166 166  166 166 166  166 166 166  166 166 166  166 166 166  166 166 166  166 166 166  166 166 166  166 166 166  166 166 166  166 166 166  166 166 166  166 166 166  166 166 166  166 166 166  166 166 166  166 166 166  166 166 166  165 165 165  165 165 165  165 165 165  165 165 165  165 165 165  165 165 165  165 165 165  165 165 165  165 165 165  165 165 165  165 165 165  165 165 165  165 165 165  165 165 165  165 165 165  165 165 165  165 165 165  165 165 165  165 165 165  165 165 165
165 165 165  165 165 165  165 165 165  165 165 165  165 165 165  165 165 165  165 165 165  165 165 165  165 165 165  165 165 165  165 165 165  165 165 165  165 165 165  165 165 165  165 165 165  165 165 165  165 165 165  165 165 165  165 165 165  165 165 165  165 165 165  165 165 165  165 165 165  165 165 165  166 166 166  166 166 166  166 166 166  166 166 166  166 166 166  166 166 166  166 166 166  166 166 166  166 166 166  166 166 166  166 166 166  166 166 166  166 166 166  166 166 166  166 166 166  166 166 166  166 166 166  166 166 166  166 166 166  166 166 166  166 166 166  166 166 166  166 166 166  166 166 166  166 166 166  166 166 166  167 167 167  167 167 167  167 167 167  167 167 167  167 167 167  167 167 167  167 167 167  167 167 167  167 167 167  167 167 167  167 167 167  167 167 167  167 167 167  167 167 167  167 167 167  167 167 167  167 167 167  167 167 167  167 167 167  167 167 167  167 167 167  167 167 167  167 167 167  167 167 167  167 167 167  167 167 167  167 167 167  167 167 167  167 167 167  168 168 168  168 168 168  168 168 168  168 168 168  168 168 168  168 168 168  168 168 168  168 168 168  168 168 168  168 168 168  168 168 168  168 168 168  168 168 168  168 168 168  168 168 168  168 168 168  168 168 168  168 168 168  168 168 168  168 168 168  168 168 168  168 168 168  168 168 168  168 168 168  168 168 168  168 168 168  168 168 168  168 168 168  168 168 168  168 168 168  168 168 168  168 168 168  168 168 168  168 168 168  168 168 168  168 168 168  168 168 168  168 168 168  169 169 169  169 169 169  169 169 169  169 169 169  169 169 169  169 169 169  169 169 169  169 169 169  169 169 169  169 169 169  169 169 169  169 169 169  169 169 169  169 169 169  169 169 169  169 169 169  169 169 169  169 169 169  169 169 169  169 169 169  169 169 169  169 169 169  169 169 169  169 169 169  169 169 169  169 169 169  169 169 169  169 169 169  169 169 169  169 169 169  169 169 169  169 169 169  169 169 169  169 169 169  169 169 169  169 169 169  169 169 169  169 169 169  169 169 169  169 169 169  169 169 169  169 169 169  169 169 169  169 169 169  169 169 169  169 169 169  169 169 169  169 169 169  169 169 169  169 169 169  169 169 169  169 169 169  169 169 169  169 169 169  169 169 169  169 169 169  169 169 169  169 169 169  169 169 169  169 169 169  169 169 169  169 169 169  169 169 169  169 169 169  169 169 169  169 169 169  169 169 169  169 169 169  169 169 169  169 169 169  169 169 169  169 169 169  169 169 169  169 169 169  169 169 169  169 169 169  169 169 169  169 169 169  169 169 169  169 169 169  169 169 169  169 169 169  169 169 169  169 169 169  169 169 169  169 169 169  169 169 169  169 169 169  169 169 169  169 169 169  168 168 168  168 168 168  168 168 168  168 168 168  168 168 168  168 168 168  168 168 168  168 168 168  168 168 168  168 168 168  168 168 168  168 168 168  168 168 168  168 168 168  168 168 168  168 168 168  168 168 168  168 168 168  168 168 168  168 168 168  168 168 168  168 168 168  168 168 168  168 168 168  168 168 168  168 168 168  168 168 168  168 168 168  168 168 168  168 168 168  168 168 168  168 168 168  168 168 168  168 168 168  168 168 168  168 168 168  168 168 168  168 168 168  168 168 168  167 167 167  167 167 167  167 167 167  167 167 167  167 167 167  167 167 167  167 167 167  167 167 167  167 167 167  167 167 167  167 167 167  167 167 167  167 167 167  167 167 167  167 167 167  167 167 167  167 167 167  167 167 167  167 167 167  167 167 167  167 167 167  167 167 167  167 167 167  167 167 167  167 167 167  167 167 167  167 167 167  167 167 167  167 167 167  167 167 167  166 166 166  166 166 166  166 166 166  166 166 166  166 166 166  166 166 166  166 166 166  166 166 166  166 166 166  166 166 166  166 166 166  166 166 166  166 166 166  166 166 166  166 166 166  166 166 166  166 166 166  166 166 166  166 166 166  166 166 166  166 166 166  166 166 166  166 166 166  166 166 166  166 166 166  166 166 166  165 165 165  165 165 165  165 165 165  165 165 165  165 165 165  165 165 165  165 165 165  165 165 165  165 165 165  165 165 165  165 165 165  165 165 165  165 165 165  165 165 165  165 165 165  165 165 165  165 165 165  165 165 165
165 165 165  165 165 165  165 165 165  165 165 165  165 165 165  165 165 165  165 165 165  165 165 165  165 165 165  165 165 165  165 165 165  165 165 165  165 165 165  165 165 165  165 165 165  165 165 165  165 165 165  165 165 165  165 165 165  165 165 165  165 165 165  165 165 165  166 166 166  166 166 166  166 166 166  166 166 166  166 166 166  166 166 166  166 166 166  166 166 166  166 166 166  166 166 166  166 166 166  166 166 166  166 166 166  166 166 166  166 166 166  166 166 166  166 166 166  166 166 166  166 166 166  166 166 166  166 166 166  166 166 166  166 166 166  166 166 166  166 166 166  167 167 167  167 167 167  167 167 167  167 167 167  167 167 167  167 167 167  167 167 167  167 167 167  167 167 167  167 167 167  167 167 167  167 167 167  167 167 167  167 167 167  167 167 167  167 167 167  167 167 167  167 167 167  167 167 167  167 167 167  167 167 167  167 167 167  167 167 167  167 167 167  167 167 167  167 167 167  167 167 167  167 167 167  167 167 167  168 168 168  168 168 168  168 168 168  168 168 168  168 168 168  168 168 168  168 168 168  168 168 168  168 168 168  168 168 168  168 168 168  168 168 168  168 168 168  168 168 168  168 168 168  168 168 168  168 168 168  168 168 168  168 168 168  168 168 168  168 168 168  168 168 168  168 168 168  168 168 168  168 168 168  168 168 168  168 168 168  168 168 168  168 168 168  168 168 168  168 168 168  168 168 168  168 168 168  168 168 168  168 168 168  168 168 168  168 168 168  169 169 169  169 169 169  169 169 169  169 169 169  169 169 169  169 169 169  169 169 169  169 169 169  169 169 169  169 169 169  169 169 169  169 169 169  169 169 169  169 169 169  169 169 169  169 169 169  169 169 169  169 169 169  169 169 169  169 169 169  169 169 169  169 169 169  169 169 169  169 169 169  169 169 169  169 169 169  169 169 169  169 169 169  169 169 169  169 169 169  169 169 169  169 169 169  169 169 169  169 169 169  169 169 169  169 169 169  169 169 169  169 169 169  169 169 169  169 169 169  169 169 169  169 169 169  169 169 169  169 169 169  169 169 169  169 169 169  169 169 169  169 169 169  169 169 169  169 169 169  169 169 169  169 169 169  169 169 169  169 169 169  169 169 169  169 169 169  169 169 169  169 169 169  169 169 169  169 169 169  169 169 169  169 169 169  169 169 169  169 169 169  169 169 169  169 169 169  169 169 169  169 169 169  169 169 169  169 169 169  169 169 169  169 169 169  169 169 169  169 169 169  169 169 169  169 169 169  169 169 169  169 169 169  169 169 169  169 169 169  169 169 169  169 169 169  169 169 169  169 169 169  169 169 169  169 169 169  169 169 169  169 169 169  169 169 169  169 169 169  169 169 169  169 169 169  169 169 169  169 169 169  169 169 169  169 169 169  169 169 169  169 169 169  169 169 169  168 168 168  168 168 168  168 168 168  168 168 168  168 168 168  168 168 168  168 168 168  168 168 168  168 168 168  168 168 168  168 168 168  168 168 168  168 168 168  168 168 168  168 168 168  168 168 168  168 168 168  168 168 168  168 168 168  168 168 168  168 168 168  168 168 168  168 168 168  168 168 168  168 168 168  168 168 168  168 168 168  168 168 168  168 168 168  168 168 168  168 168 168  168 168 168  168 168 168  168 168 168  168 168 168  168 168 168  168 168 168  167 167 167  167 167 167  167 167 167  167 167 167  167 167 167  167 167 167  167 167 167  167 167 167  167 167 167  167 167 167  167 167 167  167 167 167  167 167 167  167 167 167  167 167 167  167 167 167  167 167 167  167 167 167  167 167 167  167 167 167  167 167 167  167 167 167  167 167 167  167 167 167  167 167 167  167 167 167  167 167 167  167 167 167  167 167 167  166 166 166  166 166 166  166 166 166  166 166 166  166 166 166  166 166 166  166 166 166  166 166 166  166 166 166  166 166 166  166 166 166  166 166 166  166 166 166  166 166 166  166 166 166  166 166 166  166 166 166  166 166 166  166 166 166  166 166 166  166 166 166  166 166 166  166 166 166  166 166 166  166 166 166  166 166 166  165 165 165  165 165 165  165 165 165  165 165 165  165 165 165  165 165 165  165 165 165  165 165 165  165 165 165  165 165 165  165 165 165  165 165 165  165 165 165  165 165 165  165 165 165  165 165 165
165 165 165  165 165 165  165 165 165  165 165 165  165 165 165  165 165 165  165 165 165  165 165 165  165 165 165  165 165 165  165 165 165  165 165 165  165 165 165  165 165 165  165 165 165  165 165 165  165 165 165  165 165 165  165 165 165  165 165 165  166 166 166  166 166 166  166 166 166  166 166 166  166 166 166  166 166 166  166 166 166  166 166 166  166 166 166  166 166 166  166 166 166  166 166 166  166 166 166  166 166 166  166 166 166  166 166 166  166 166 166  166 166 166  166 166 166  166 166 166  166 166 166  166 166 166  166 166 166  166 166 166  166 166 166  167 167 167  167 167 167  167 167 167  167 167 167  167 167 167  167 167 167  167 167 167  167 167 167  167 167 167  167 167 167  167 167 167  167 167 167  167 167 167  167 167 167  167 167 167  167 167 167  167 167 167  167 167 167  167 167 167  167 167 167  167 167 167  167 167 167  167 167 167  167 167 167  167 167 167  167 167 167  167 167 167  167 167 167  168 168 168  168 168 168  168 168 168  168 168 168  168 168 168  168 168 168  168 168 168  168 168 168  168 168 168  168 168 168  168 168 168  168 168 168  168 168 168  168 168 168  168 168 168  168 168 168  168 168 168  168 168 168  168 168 168  168 168 168  168 168 168  168 168 168  168 168 168  168 168 168  168 168 168  168 168 168  168 168 168  168 168 168  168 168 168  168 168 168  168 168 168  168 168 168  168 168 168  168 168 168  168 168 168  168 168 168  169 169 169  169 169 169  169 169 169  169 169 169  169 169 169  169 169 169  169 169 169  169 169 169  169 169 169  169 169 169  169 169 169  169 169 169  169 169 169  169 169 169  169 169 169  169 169 169  169 169 169  169 169 169  169 169 169  169 169 169  169 169 169  169 169 169  169 169 169  169 169 169  169 169 169  169 169 169  169 169 169  169 169 169  169 169 169  169 169 169  169 169 169  169 169 169  169 169 169  169 169 169  169 169 169  169 169 169  169 169 169  169 169 169  169 169 169  169 169 169  169 169 169  169 169 169  169 169 169  169 169 169  169 169 169  169 169 169  169 169 169  169 169 169  169 169 169  169 169 169  169 169 169  169 169 169  169 169 169  169 169 169  169 169 169  169 169 169  169 169 169  169 169 169  169 169 169  169 169 169  169 169 169  169 169 169  169 169 169  169 169 169  169 169 169  169 169 169  169 169 169  169 169 169  169 169 169  169 169 169  169 169 169  169 169 169  169 169 169  169 169 169  169 169 169  169 169 169  169 169 169  169 169 169  169 169 169  169 169 169  169 169 169  169 169 169  169 169 169  169 169 169  169 169 169  169 169 169  169 169 169  169 169 169  169 169 169  169 169 169  169 169 169  169 169 169  169 169 169  169 169 169  169 169 169  169 169 169  169 169 169  169 169 169  169 169 169  169 169 169  169 169 169  169 169 169  169 169 169  169 169 169  169 169 169  169 169 169  169 169 169  168 168 168  168 168 168  168 168 168  168 168 168  168 168 168  168 168 168  168 168 168  168 168 168  168 168 168  168 168 168  168 168 168  168 168 168  168 168 168  168 168 168  168 168 168  168 168 168  168 168 168  168 168 168  168 168 168  168 168 168  168 168 168  168 168 168  168 168 168  168 168 168  168 168 168  168 168 168  168 168 168  168 168 168  168 168 168  168 168 168  168 168 168  168 168 168  168 168 168  168 168 168  168 168 168  168 168 168  167 167 167  167 167 167  167 167 167  167 167 167  167 167 167  167 167 167  167 167 167  167 167 167  167 167 167  167 167 167  167 167 167  167 167 167  167 167 167  167 167 167  167 167 167  167 167 167  167 167 167  167 167 167  167 167 167  167 167 167  167 167 167  167 167 167  167 167 167  167 167 167  167 167 167  167 167 167  167 167 167  167 167 167  166 166 166  166 166 166  166 166 166  166 166 166  166 166 166  166 166 166  166 166 166  166 166 166  166 166 166  166 166 166  166 166 166  166 166 166  166 166 166  166 166 166  166 166 166  166 166 166  166 166 166  166 166 166  166 166 166  166 166 166  166 166 166  166 166 166  166 166 166  166 166 166  166 166 166  166 166 166  165 165 165  165 165 165  165 165 165  165 165 165  165 165 165  165 165 165  165 165 165  165 165 165  165 165 165  165 165 165  165 165 165  165 165 165  165 165 165  165 165 165
165 165 165  165 165 165  165 165 165  165 165 165  165 165 165  165 165 165  165 165 165  165 165 165  165 165 165  165 165 165  165 165 165  165 165 165  165 165 165  165 165 165  165 165 165  165 165 165  165 165 165  165 165 165  166 166 166  166 166 166  166 166 166  166 166 166  166 166 166  166 166 166  166 166 166  166 166 166  166 166 166  166 166 166  166 166 166  166 166 166  166 166 166  166 166 166  166 166 166  166 166 166  166 166 166  166 166 166  166 166 166  166 166 166  166 166 166  166 166 166  166 166 166  166 166 166  166 166 166  167 167 167  167 167 167  167 167 167  167 167 167  167 167 167  167 167 167  167 167 167  167 167 167  167 167 167  167 167 167  167 167 167  167 167 167  167 167 167  167 167 167  167 167 167  167 167 167  167 167 167  167 167 167  167 167 167  167 167 167  167 167 167  167 167 167  167 167 167  167 167 167  167 167 167  167 167 167  167 167 167  167 167 167  168 168 168  168 168 168  168 168 168  168 168 168  168 168 168  168 168 168  168 168 168  168 168 168  168 168 168  168 168 168  168 168 168  168 168 168  168 168 168  168 168 168  168 168 168  168 168 168  168 168 168  168 168 168  168 168 168  168 168 168  168 168 168  168 168 168  168 168 168  168 168 168  168 168 168  168 168 168  168 168 168  168 168 168  168 168 168  168 168 168  168 168 168  168 168 168  168 168 168  168 168 168  169 169 169  169 169 169  169 169 169  169 169 169  169 169 169  169 169 169  169 169 169  169 169 169  169 169 169  169 169 169  169 169 169  169 169 169  169 169 169  169 169 169  169 169 169  169 169 169  169 169 169  169 169 169  169 169 169  169 169 169  169 169 169  169 169 169  169 169 169  169 169 169  169 169 169  169 169 169  169 169 169  169 169 169  169 169 169  169 169 169  169 169 169  169 169 169  169 169 169  169 169 169  169 169 169  169 169 169  169 169 169  169 169 169  169 169 169  169 169 169  169 169 169  169 169 169  169 169 169  169 169 169  169 169 169  169 169 169  169 169 169  169 169 169  169 169 169  169 169 169  169 169 169  169 169 169  169 169 169  169 169 169  169 169 169  169 169 169  169 169 169  169 169 169  169 169 169  169 169 169  169 169 169  169 169 169  169 169 169  169 169 169  169 169 169  169 169 169  169 169 169  169 169 169  169 169 169  169 169 169  169 169 169  169 169 169  169 169 169  169 169 169  169 169 169  169 169 169  169 169 169  169 169 169  169 169 169  169 169 169  169 169 169  169 169 169  169 169 169  169 169 169  169 169 169  169 169 169  169 169 169  169 169 169  169 169 169  169 169 169  169 169 169  169 169 169  169 169 169  169 169 169  169 169 169  169 169 169  169 169 169  169 169 169  169 169 169  169 169 169  169 169 169  169 169 169  169 169 169  169 169 169  169 169 169  169 169 169  169 169 169  169 169 169  169 169 169  169 169 169  169 169 169  169 169 169  169 169 169  169 169 169  169 169 169  168 168 168  168 168 168  168 168 168  168 168 168  168 168 168  168 168 168  168 168 168  168 168 168  168 168 168  168 168 168  168 168 168  168 168 168  168 168 168  168 168 168  168 168 168  168 168 168  168 168 168  168 168 168  168 168 168  168 168 168  168 168 168  168 168 168  168 168 168  168 168 168  168 168 168  168 168 168  168 168 168  168 168 168  168 168 168  168 168 168  168 168 168  168 168 168  168 168 168  168 168 168  167 167 167  167 167 167  167 167 167  167 167 167  167 167 167  167 167 167  167 167 167  167 167 167  167 167 167  167 167 167  167 167 167  167 167 167  167 167 167  167 167 167  167 167 167  167 167 167  167 167 167  167 167 167  167 167 167  167 167 167  167 167 167  167 167 167  167 167 167  167 167 167  167 167 167  167 167 167  167 167 167  167 167 167  167 167 167  166 166 166  166 166 166  166 166 166  166 166 166  166 166 166  166 166 166  166 166 166  166 166 166  166 166 166  166 166 166  166 166 166  166 166 166  166 166 166  166 166 166  166 166 166  166 166 166  166 166 166  166 166 166  166 166 166  166 166 166  166 166 166  166 166 166  166 166 166  166 166 166  166 166 166  165 165 165  165 165 165  165 165 165  165 165 165  165 165 165  165 165 165  165 165 165  165 165 165  165 165 165  165 165 165  165 165 165  165 165 165
165 165 165  165 165 165  165 165 165  165 165 165  165 165 165  165 165 165  165 165 165  165 165 165  165 165 165  165 165 165  165 165 165  165 165 165  165 165 165  165 165 165  165 165 165  165 165 165  166 166 166  166 166 166  166 166 166  166 166 166  166 166 166  166 166 166  166 166 166  166 166 166  166 166 166  166 166 166  166 166 166  166 166 166  166 166 166  166 166 166  166 166 166  166 166 166  166 166 166  166 166 166  166 166 166  166 166 166  166 166 166  166 166 166  166 166 166  166 166 166  166 166 166  167 167 167  167 167 167  167 167 167  167 167 167  167 167 167  167 167 167  167 167 167  167 167 167  167 167 167  167 167 167  167 167 167  167 167 167  167 167 167  167 167 167  167 167 167  167 167 167  167 167 167  167 167 167  167 167 167  167 167 167  167 167 167  167 167 167  167 167 167  167 167 167  167 167 167  167 167 167  167 167 167  167 167 167  168 168 168  168 168 168  168 168 168  168 168 168  168 168 168  168 168 168  168 168 168  168 168 168  168 168 168  168 168 168  168 168 168  168 168 168  168 168 168  168 168 168  168 168 168  168 168 168  168 168 168  168 168 168  168 168 168  168 168 168  168 168 168  168 168 168  168 168 168  168 168 168  168 168 168  168 168 168  168 168 168  168 168 168  168 168 168  168 168 168  168 168 168  168 168 168  169 169 169  169 169 169  169 169 169  169 169 169  169 169 169  169 169 169  169 169 169  169 169 169  169 169 169  169 169 169  169 169 169  169 169 169  169 169 169  169 169 169  169 169 169  169 169 169  169 169 169  169 169 169  169 169 169  169 169 169  169 169 169  169 169 169  169 169 169  169 169 169  169 169 169  169 169 169  169 169 169  169 169 169  169 169 169  169 169 169  169 169 169  169 169 169  169 169 169  169 169 169  169 169 169  169 169 169  169 169 169  169 169 169  169 169 169  169 169 169  169 169 169  169 169 169  169 169 169  169 169 169  169 169 169  169 169 169  169 169 169  169 169 169  169 169 169  169 169 169  169 169 169  169 169 169  169 169 169  169 169 169  169 169 169  169 169 169  169 169 169  169 169 169  169 169 169  169 169 169  169 169 169  169 169 169  169 169 169  169 169 169  169 169 169  169 169 169  169 169 169  169 169 169  169 169 169  169 169 169  169 169 169  169 169 169  169 169 169  169 169 169  169 169 169  169 169 169  169 169 169  169 169 169  169 169 169  169 169 169  169 169 169  169 169 169  169 169 169  169 169 169  169 169 169  169 169 169  169 169 169  169 169 169  169 169 169  169 169 169  169 169 169  169 169 169  169 169 169  169 169 169  169 169 169  169 169 169  169 169 169  169 169 169  169 169 169  169 169 169  169 169 169  169 169 169  169 169 169  169 169 169  169 169 169  169 169 169  169 169 169  169 169 169  169 169 169  169 169 169  169 169 169  169 169 169  169 169 169  169 169 169  169 169 169  169 169 169  169 169 169  169 169 169  169 169 169  169 169 169  169 169 169  169 169 169  169 169 169  168 168 168  168 168 168  168 168 168  168 168 168  168 168 168  168 168 168  168 168 168  168 168 168  168 168 168  168 168 168  168 168 168  168 168 168  168 168 168  168 168 168  168 168 168  168 168 168  168 168 168  168 168 168  168 168 168  168 168 168  168 168 168  168 168 168  168 168 168  168 168 168  168 168 168  168 168 168  168 168 168  168 168 168  168 168 168  168 168 168  168 168 168  168 168 168  168 168 168  167 167 167  167 167 167  167 167 167  167 167 167  167 167 167  167 167 167  167 167 167  167 167 167  167 167 167  167 167 167  167 167 167  167 167 167  167 167 167  167 167 167  167 167 167  167 167 167  167 167 167  167 167 167  167 167 167  167 167 167  167 167 167  167 167 167  167 167 167  167 167 167  167 167 167  167 167 167  167 167 167  167 167 167  166 166 166  166 166 166  166 166 166  166 166 166  166 166 166  166 166 166  166 166 166  166 166 166  166 166 166  166 166 166  166 166 166  166 166 166  166 166 166  166 166 166  166 166 166  166 166 166  166 166 166  166 166 166  166 166 166  166 166 166  166 166 166  166 166 166  166 166 166  166 166 166  166 166 166  166 166 166  165 165 165  165 165 165  165 165 165  165 165 165  165 165 165  165 165 165  165 165 165  165 165 165  165 165 165
165 165 165  165 165 165  165 165 165  165 165 165  165 165 165  165 165 165  165 165 165  165 165 165  165 165 165  165 165 165  165 165 165  165 165 165  165 165 165  165 165 165  166 166 166  166 166 166  166 166 166  166 166 166  166 166 166  166 166 166  166 166 166  166 166 166  166 166 166  166 166 166  166 166 166  166 166 166  166 166 166  166 166 166  166 166 166  166 166 166  166 166 166  166 166 166  166 166 166  166 166 166  166 166 166  166 166 166  166 166 166  166 166 166  166 166 166  167 167 167  167 167 167  167 167 167  167 167 167  167 167 167  167 167 167  167 167 167  167 167 167  167 167 167  167 167 167  167 167 167  167 167 167  167 167 167  167 167 167  167 167 167  167 167 167  167 167 167  167 167 167  167 167 167  167 167 167  167 167 167  167 167 167  167 167 167  167 167 167  167 167 167  167 167 167  167 167 167  168 168 168  168 168 168  168 168 168  168 168 168  168 168 168  168 168 168  168 168 168  168 168 168  168 168 168  168 168 168  168 168 168  168 168 168  168 168 168  168 168 168  168 168 168  168 168 168  168 168 168  168 168 168  168 168 168  168 168 168  168 168 168  168 168 168  168 168 168  168 168 168  168 168 168  168 168 168  168 168 168  168 168 168  168 168 168  168 168 168  168 168 168  168 168 168  169 169 169  169 169 169  169 169 169  169 169 169  169 169 169  169 169 169  169 169 169  169 169 169  169 169 169  169 169 169  169 169 169  169 169 169  169 169 169  169 169 169  169 169 169  169 169 169  169 169 169  169 169 169  169 169 169  169 169 169  169 169 169  169 169 169  169 169 169  169 169 169  169 169 169  169 169 169  169 169 169  169 169 169  169 169 169  169 169 169  169 169 169  169 169 169  169 169 169  169 169 169  169 169 169  169 169 169  169 169 169  169 169 169  169 169 169  169 169 169  169 169 169  169 169 169  169 169 169  169 169 169  169 169 169  169 169 169  169 169 169  169 169 169  169 169 169  169 169 169  169 169 169  169 169 169  169 169 169  169 169 169  169 169 169  169 169 169  169 169 169  169 169 169  169 169 169  169 169 169  169 169 169  169 169 169  169 169 169  169 169 169  169 169 169  169 169 169  169 169 169  169 169 169  169 169 169  169 169 169  169 169 169  169 169 169  169 169 169  169 169 169  169 169 169  169 169 169  169 169 169  169 169 169  169 169 169  169 169 169  169 169 169  169 169 169  169 169 169  169 169 169  169 169 169  169 169 169  169 169 169  169 169 169  169 169 169  169 169 169  169 169 169  169 169 169  169 169 169  169 169 169  169 169 169  169 169 169  169 169 169  169 169 169  169 169 169  169 169 169  169 169 169  169 169 169  169 169 169  169 169 169  169 169 169  169 169 169  169 169 169  169 169 169  169 169 169  169 169 169  169 169 169  169 169 169  169 169 169  169 169 169  169 169 169  169 169 169  169 169 169  169 169 169  169 169 169  169 169 169  169 169 169  169 169 169  169 169 169  169 169 169  169 169 169  169 169 169  169 169 169  169 169 169  169 169 169  168 168 168  168 168 168  168 168 168  168 168 168  168 168 168  168 168 168  168 168 168  168 168 168  168 168 168  168 168 168  168 168 168  168 168 168  168 168 168  168 168 168  168 168 168  168 168 168  168 168 168  168 168 168  168 168 168  168 168 168  168 168 168  168 168 168  168 168 168  168 168 168  168 168 168  168 168 168  168 168 168  168 168 168  168 168 168  168 168 168  168 168 168  168 168 168  168 168 168  167 167 167  167 167 167  167 167 167  167 167 167  167 167 167  167 167 167  167 167 167  167 167 167  167 167 167  167 167 167  167 167 167  167 167 167  167 167 167  167 167 167  167 167 167  167 167 167  167 167 167  167 167 167  167 167 167  167 167 167  167 167 167  167 167 167  167 167 167  167 167 167  167 167 167  167 167 167  167 167 167  166 166 166  166 166 166  166 166 166  166 166 166  166 166 166  166 166 166  166 166 166  166 166 166  166 166 166  166 166 166  166 166 166  166 166 166  166 166 166  166 166 166  166 166 166  166 166 166  166 166 166  166 166 166  166 166 166  166 166 166  166 166 166  166 166 166  166 166 166  166 166 166  166 166 166  166 166 166  165 165 165  165 165 165  165 165 165  165 165 165  165 165 165  165 165 165  165 165 165
165 165 165  165 165 165  165 165 165  165 165 165  165 165 165  165 165 165  165 165 165  165 165 165  165 165 165  165 165 165  165 165 165  165 165 165  166 166 166  166 166 166  166 166 166  166 166 166  166 166 166  166 166 166  166 166 166  166 166 166  166 166 166  166 166 166  166 166 166  166 166 166  166 166 166  166 166 166  166 166 166  166 166 166  166 166 166  166 166 166  166 166 166  166 166 166  166 166 166  166 166 166  166 166 166  166 166 166  166 166 166  167 167 167  167 167 167  167 167 167  167 167 167  167 167 167  167 167 167  167 167 167  167 167 167  167 167 167  167 167 167  167 167 167  167 167 167  167 167 167  167 167 167  167 167 167  167 167 167  167 167 167  167 167 167  167 167 167  167 167 167  167 167 167  167 167 167  167 167 167  167 167 167  167 167 167  167 167 167  167 167 167  168 168 168  168 168 168  168 168 168  168 168 168  168 168 168  168 168 168  168 168 168  168 168 168  168 168 168  168 168 168  168 168 168  168 168 168  168 168 168  168 168 168  168 168 168  168 168 168  168 168 168  168 168 168  168 168 168  168 168 168  168 168 168  168 168 168  168 168 168  168 168 168  168 168 168  168 168 168  168 168 168  168 168 168  168 168 168  168 168 168  168 168 168  169 169 169  169 169 169  169 169 169  169 169 169  169 169 169  169 169 169  169 169 169  169 169 169  169 169 169  169 169 169  169 169 169  169 169 169  169 169 169  169 169 169  169 169 169  169 169 169  169 169 169  169 169 169  169 169 169  169 169 169  169 169 169  169 169 169  169 169 169  169 169 169  169 169 169  169 169 169  169 169 169  169 169 169  169 169 169  169 169 169  169 169 169  169 169 169  169 169 169  169 169 169  169 169 169  169 169 169  169 169 169  169 169 169  169 169 169  169 169 169  169 169 169  169 169 169  169 169 169  169 169 169  169 169 169  169 169 169  169 169 169  169 169 169  169 169 169  169 169 169  169 169 169  169 169 169  169 169 169  170 170 170  170 170 170  170 170 170  170 170 170  170 170 170  170 170 170  170 170 170  170 170 170  170 170 170  170 170 170  170 170 170  170 170 170  170 170 170  170 170 170  170 170 170  170 170 170  170 170 170  170 170 170  170 170 170  170 170 170  170 170 170  170 170 170  170 170 170  170 170 170  170 170 170  170 170 170  170 170 170  170 170 170  170 170 170  169 169 169  169 169 169  169 169 169  169 169 169  169 169 169  169 169 169  169 169 169  169 169 169  169 169 169  169 169 169  169 169 169  169 169 169  169 169 169  169 169 169  169 169 169  169 169 169  169 169 169  169 169 169  169 169 169  169 169 169  169 169 169  169 169 169  169 169 169  169 169 169  169 169 169  169 169 169  169 169 169  169 169 169  169 169 169  169 169 169  169 169 169  169 169 169  169 169 169  169 169 169  169 169 169  169 169 169  169 169 169  169 169 169  169 169 169  169 169 169  169 169 169  169 169 169  169 169 169  169 169 169  169 169 169  169 169 169  169 169 169  169 169 169  169 169 169  169 169 169  169 169 169  169 169 169  169 169 169  169 169 169  168 168 168  168 168 168  168 168 168  168 168 168  168 168 168  168 168 168  168 168 168  168 168 168  168 168 168  168 168 168  168 168 168  168 168 168  168 168 168  168 168 168  168 168 168  168 168 168  168 168 168  168 168 168  168 168 168  168 168 168  168 168 168  168 168 168  168 168 168  168 168 168  168 168 168  168 168 168  168 168 168  168 168 168  168 168 168  168 168 168  168 168 168  167 167 167  167 167 167  167 167 167  167 167 167  167 167 167  167 167 167  167 167 167  167 167 167  167 167 167  167 167 167  167 167 167  167 167 167  167 167 167  167 167 167  167 167 167  167 167 167  167 167 167  167 167 167  167 167 167  167 167 167  167 167 167  167 167 167  167 167 167  167 167 167  167 167 167  167 167 167  167 167 167  166 166 166  166 166 166  166 166 166  166 166 166  166 166 166  166 166 166  166 166 166  166 166 166  166 166 166  166 166 166  166 166 166  166 166 166  166 166 166  166 166 166  166 166 166  166 166 166  166 166 166  166 166 166  166 166 166  166 166 166  166 166 166  166 166 166  166 166 166  166 166 166  166 166 166  166 166 166  165 165 165  165 165 165  165 165 165  165 165 165  165 165 165
165 165 165  165 165 165  165 165 165  165 165 165  165 165 165  165 165 165  165 165 165  165 165 165  165 165 165  165 165 165  165 165 165  166 166 166  166 166 166  166 166 166  166 166 166  166 166 166  166 166 166  166 166 166  166 166 166  166 166 166  166 166 166  166 166 166  166 166 166  166 166 166  166 166 166  166 166 166  166 166 166  166 166 166  166 166 166  166 166 166  166 166 166  166 166 166  166 166 166  166 166 166  166 166 166  167 167 167  167 167 167  167 167 167  167 167 167  167 167 167  167 167 167  167 167 167  167 167 167  167 167 167  167 167 167  167 167 167  167 167 167  167 167 167  167 167 167  167 167 167  167 167 167  167 167 167  167 167 167  167 167 167  167 167 167  167 167 167  167 167 167  167 167 167  167 167 167  167 167 167  167 167 167  167 167 167  168 168 168  168 168 168  168 168 168  168 168 168  168 168 168  168 168 168  168 168 168  168 168 168  168 168 168  168 168 168  168 168 168  168 168 168  168 168 168  168 168 168  168 168 168  168 168 168  168 168 168  168 168 168  168 168 168  168 168 168  168 168 168  168 168 168  168 168 168  168 168 168  168 168 168  168 168 168  168 168 168  168 168 168  168 168 168  168 168 168  169 169 169  169 169 169  169 169 169  169 169 169  169 169 169  169 169 169  169 169 169  169 169 169  169 169 169  169 169 169  169 169 169  169 169 169  169 169 169  169 169 169  169 169 169  169 169 169  169 169 169  169 169 169  169 169 169  169 169 169  169 169 169  169 169 169  169 169 169  169 169 169  169 169 169  169 169 169  169 169 169  169 169 169  169 169 169  169 169 169  169 169 169  169 169 169  169 169 169  169 169 169  169 169 169  169 169 169  169 169 169  169 169 169  169 169 169  169 169 169  169 169 169  169 169 169  169 169 169  169 169 169  169 169 169  169 169 169  170 170 170  170 170 170  170 170 170  170 170 170  170 170 170  170 170 170  170 170 170  170 170 170  170 170 170  170 170 170  170 170 170  170 170 170  170 170 170  170 170 170  170 170 170  170 170 170  170 170 170  170 170 170  170 170 170  170 170 170  170 170 170  170 170 170  170 170 170  170 170 170  170 170 170  170 170 170  170 170 170  170 170 170  170 170 170  170 170 170  170 170 170  170 170 170  170 170 170  170 170 170  170 170 170  170 170 170  170 170 170  170 170 170  170 170 170  170 170 170  170 170 170  170 170 170  170 170 170  170 170 170  170 170 170  170 170 170  170 170 170  170 170 170  170 170 170  169 169 169  169 169 169  169 169 169  169 169 169  169 169 169  169 169 169  169 169 169  169 169 169  169 169 169  169 169 169  169 169 169  169 169 169  169 169 169  169 169 169  169 169 169  169 169 169  169 169 169  169 169 169  169 169 169  169 169 169  169 169 169  169 169 169  169 169 169  169 169 169  169 169 169  169 169 169  169 169 169  169 169 169  169 169 169  169 169 169  169 169 169  169 169 169  169 169 169  169 169 169  169 169 169  169 169 169  169 169 169  169 169 169  169 169 169  169 169 169  169 169 169  169 169 169  169 169 169  169 169 169  169 169 169  169 169 169  169 169 169  168 168 168  168 168 168  168 168 168  168 168 168  168 168 168  168 168 168  168 168 168  168 168 168  168 168 168  168 168 168  168 168 168  168 168 168  168 168 168  168 168 168  168 168 168  168 168 168  168 168 168  168 168 168  168 168 168  168 168 168  168 168 168  168 168 168  168 168 168  168 168 168  168 168 168  168 168 168  168 168 168  168 168 168  168 168 168  168 168 168  167 167 167  167 167 167  167 167 167  167 167 167  167 167 167  167 167 167  167 167 167  167 167 167  167 167 167  167 167 167  167 167 167  167 167 167  167 167 167  167 167 167  167 167 167  167 167 167  167 167 167  167 167 167  167 167 167  167 167 167  167 167 167  167 167 167  167 167 167  167 167 167  167 167 167  167 167 167  167 167 167  166 166 166  166 166 166  166 166 166  166 166 166  166 166 166  166 166 166  166 166 166  166 166 166  166 166 166  166 166 166  166 166 166  166 166 166  166 166 166  166 166 166  166 166 166  166 166 166  166 166 166  166 166 166  166 166 166  166 166 166  166 166 166  166 166 166  166 166 166  166 166 166  166 166 166  166 166 166  165 165 165  165 165 165  165 165 165
165 165 165  165 165 165  165 165 165  165 165 165  165 165 165  165 165 165  165 165 165  165 165 165  165 165 165  166 166 166  166 166 166  166 166 166  166 166 166  166 166 166  166 166 166  166 166 166  166 166 166  166 166 166  166 166 166  166 166 166  166 166 166  166 166 166  166 166 166  166 166 166  166 166 166  166 166 166  166 166 166  166 166 166  166 166 166  166 166 166  166 166 166  166 166 166  166 166 166  167 167 167  167 167 167  167 167 167  167 167 167  167 167 167  167 167 167  167 167 167  167 167 167  167 167 167  167 167 167  167 167 167  167 167 167  167 167 167  167 167 167  167 167 167  167 167 167  167 167 167  167 167 167  167 167 167  167 167 167  167 167 167  167 167 167  167 167 167  167 167 167  167 167 167  167 167 167  167 167 167  168 168 168  168 168 168  168 168 168  168 168 168  168 168 168  168 168 168  168 168 168  168 168 168  168 168 168  168 168 168  168 168 168  168 168 168  168 168 168  168 168 168  168 168 168  168 168 168  168 168 168  168 168 168  168 168 168  168 168 168  168 168 168  168 168 168  168 168 168  168 168 168  168 168 168  168 168 168  168 168 168  168 168 168  168 168 168  169 169 169  169 169 169  169 169 169  169 169 169  169 169 169  169 169 169  169 169 169  169 169 169  169 169 169  169 169 169  169 169 169  169 169 169  169 169 169  169 169 169  169 169 169  169 169 169  169 169 169  169 169 169  169 169 169  169 169 169  169 169 169  169 169 169  169 169 169  169 169 169  169 169 169  169 169 169  169 169 169  169 169 169  169 169 169  169 169 169  169 169 169  169 169 169  169 169 169  169 169 169  169 169 169  169 169 169  169 169 169  169 169 169  169 169 169  169 169 169  169 169 169  169 169 169  170 170 170  170 170 170  170 170 170  170 170 170  170 170 170  170 170 170  170 170 170  170 170 170  170 170 170  170 170 170  170 170 170  170 170 170  170 170 170  170 170 170  170 170 170  170 170 170  170 170 170  170 170 170  170 170 170  170 170 170  170 170 170  170 170 170  170 170 170  170 170 170  170 170 170  170 170 170  170 170 170  170 170 170  170 170 170  170 170 170  170 170 170  170 170 170  170 170 170  170 170 170  170 170 170  170 170 170  170 170 170  170 170 170  170 170 170  170 170 170  170 170 170  170 170 170  170 170 170  170 170 170  170 170 170  170 170 170  170 170 170  170 170 170  170 170 170  170 170 170  170 170 170  170 170 170  170 170 170  170 170 170  170 170 170  170 170 170  170 170 170  170 170 170  170 170 170  170 170 170  170 170 170  170 170 170  170 170 170  169 169 169  169 169 169  169 169 169  169 169 169  169 169 169  169 169 169  169 169 169  169 169 169  169 169 169  169 169 169  169 169 169  169 169 169  169 169 169  169 169 169  169 169 169  169 169 169  169 169 169  169 169 169  169 169 169  169 169 169  169 169 169  169 169 169  169 169 169  169 169 169  169 169 169  169 169 169  169 169 169  169 169 169  169 169 169  169 169 169  169 169 169  169 169 169  169 169 169  169 169 169  169 169 169  169 169 169  169 169 169  169 169 169  169 169 169  169 169 169  169 169 169  169 169 169  169 169 169  168 168 168  168 168 168  168 168 168  168 168 168  168 168 168  168 168 168  168 168 168  168 168 168  168 168 168  168 168 168  168 168 168  168 168 168  168 168 168  168 168 168  168 168 168  168 168 168  168 168 168  168 168 168  168 168 168  168 168 168  168 168 168  168 168 168  168 168 168  168 168 168  168 168 168  168 168 168  168 168 168  168 168 168  168 168 168  168 168 168  167 167 167  167 167 167  167 167 167  167 167 167  167 167 167  167 167 167  167 167 167  167 167 167  167 167 167  167 167 167  167 167 167  167 167 167  167 167 167  167 167 167  167 167 167  167 167 167  167 167 167  167 167 167  167 167 167  167 167 167  167 167 167  167 167 167  167 167 167  167 167 167  167 167 167  167 167 167  167 167 167  166 166 166  166 166 166  166 166 166  166 166 166  166 166 166  166 166 166  166 166 166  166 166 166  166 166 166  166 166 166  166 166 166  166 166 166  166 166 166  166 166 166  166 166 166  166 166 166  166 166 166  166 166 166  166 166 166  166 166 166  166 166 166  166 166 166  166 166 166  166 166 166  166 166 166  165 165 165
165 165 165  165 165 165  165 165 165  165 165 165  165 165 165  165 165 165  165 165 165  166 166 166  166 166 166  166 166 166  166 166 166  166 166 166  166 166 166  166 166 166  166 166 166  166 166 166  166 166 166  166 166 166  166 166 166  166 166 166  166 166 166  166 166 166  166 166 166  166 166 166  166 166 166  166 166 166  166 166 166  166 166 166  166 166 166  166 166 166  166 166 166  166 166 166  167 167 167  167 167 167  167 167 167  167 167 167  167 167 167  167 167 167  167 167 167  167 167 167  167 167 167  167 167 167  167 167 167  167 167 167  167 167 167  167 167 167  167 167 167  167 167 167  167 167 167  167 167 167  167 167 167  167 167 167  167 167 167  167 167 167  167 167 167  167 167 167  167 167 167  167 167 167  168 168 168  168 168 168  168 168 168  168 168 168  168 168 168  168 168 168  168 168 168  168 168 168  168 168 168  168 168 168  168 168 168  168 168 168  168 168 168  168 168 168  168 168 168  168 168 168  168 168 168  168 168 168  168 168 168  168 168 168  168 168 168  168 168 168  168 168 168  168 168 168  168 168 168  168 168 168  168 168 168  168 168 168  169 169 169  169 169 169  169 169 169  169 169 169  169 169 169  169 169 169  169 169 169  169 169 169  169 169 169  169 169 169  169 169 169  169 169 169  169 169 169  169 169 169  169 169 169  169 169 169  169 169 169  169 169 169  169 169 169  169 169 169  169 169 169  169 169 169  169 169 169  169 169 169  169 169 169  169 169 169  169 169 169  169 169 169  169 169 169  169 169 169  169 169 169  169 169 169  169 169 169  169 169 169  169 169 169  169 169 169  169 169 169  169 169 169  169 169 169  170 170 170  170 170 170  170 170 170  170 170 170  170 170 170  170 170 170  170 170 170  170 170 170  170 170 170  170 170 170  170 170 170  170 170 170  170 170 170  170 170 170  170 170 170  170 170 170  170 170 170  170 170 170  170 170 170  170 170 170  170 170 170  170 170 170  170 170 170  170 170 170  170 170 170  170 170 170  170 170 170  170 170 170  170 170 170  170 170 170  170 170 170  170 170 170  170 170 170  170 170 170  170 170 170  170 170 170  170 170 170  170 170 170  170 170 170  170 170 170  170 170 170  170 170 170  170 170 170  170 170 170  170 170 170  170 170 170  170 170 170  170 170 170  170 170 170  170 170 170  170 170 170  170 170 170  170 170 170  170 170 170  170 170 170  170 170 170  170 170 170  170 170 170  170 170 170  170 170 170  170 170 170  170 170 170  170 170 170  170 170 170  170 170 170  170 170 170  170 170 170  170 170 170  170 170 170  170 170 170  170 170 170  170 170 170  170 170 170  170 170 170  170 170 170  169 169 169  169 169 169  169 169 169  169 169 169  169 169 169  169 169 169  169 169 169  169 169 169  169 169 169  169 169 169  169 169 169  169 169 169  169 169 169  169 169 169  169 169 169  169 169 169  169 169 169  169 169 169  169 169 169  169 169 169  169 169 169  169 169 169  169 169 169  169 169 169  169 169 169  169 169 169  169 169 169  169 169 169  169 169 169  169 169 169  169 169 169  169 169 169  169 169 169  169 169 169  169 169 169  169 169 169  169 169 169  169 169 169  169 169 169  169 169 169  168 168 168  168 168 168  168 168 168  168 168 168  168 168 168  168 168 168  168 168 168  168 168 168  168 168 168  168 168 168  168 168 168  168 168 168  168 168 168  168 168 168  168 168 168  168 168 168  168 168 168  168 168 168  168 168 168  168 168 168  168 168 168  168 168 168  168 168 168  168 168 168  168 168 168  168 168 168  168 168 168  168 168 168  168 168 168  167 167 167  167 167 167  167 167 167  167 167 167  167 167 167  167 167 167  167 167 167  167 167 167  167 167 167  167 167 167  167 167 167  167 167 167  167 167 167  167 167 167  167 167 167  167 167 167  167 167 167  167 167 167  167 167 167  167 167 167  167 167 167  167 167 167  167 167 167  167 167 167  167 167 167  167 167 167  167 167 167  166 166 166  166 166 166  166 166 166  166 166 166  166 166 166  166 166 166  166 166 166  166 166 166  166 166 166  166 166 166  166 166 166  166 166 166  166 166 166  166 166 166  166 166 166  166 166 166  166 166 166  166 166 166  166 166 166  166 166 166  166 166 166  166 166 166  166 166 166  166 166 166
165 165 165  165 165 165  165 165 165  165 165 165  165 165 165  166 166 166  166 166 166  166 166 166  166 166 166  166 166 166  166 166 166  166 166 166  166 166 166  166 166 166  166 166 166  166 166 166  166 166 166  166 166 166  166 166 166  166 166 166  166 166 166  166 166 166  166 166 166  166 166 166  166 166 166  166 166 166  166 166 166  166 166 166  166 166 166  166 166 166  167 167 167  167 167 167  167 167 167  167 167 167  167 167 167  167 167 167  167 167 167  167 167 167  167 167 167  167 167 167  167 167 167  167 167 167  167 167 167  167 167 167  167 167 167  167 167 167  167 167 167  167 167 167  167 167 167  167 167 167  167 167 167  167 167 167  167 167 167  167 167 167  167 167 167  167 167 167  168 168 168  168 168 168  168 168 168  168 168 168  168 168 168  168 168 168  168 168 168  168 168 168  168 168 168  168 168 168  168 168 168  168 168 168  168 168 168  168 168 168  168 168 168  168 168 168  168 168 168  168 168 168  168 168 168  168 168 168  168 168 168  168 168 168  168 168 168  168 168 168  168 168 168  168 168 168  168 168 168  168 168 168  169 169 169  169 169 169  169 169 169  169 169 169  169 169 169  169 169 169  169 169 169  169 169 169  169 169 169  169 169 169  169 169 169  169 169 169  169 169 169  169 169 169  169 169 169  169 169 169  169 169 169  169 169 169  169 169 169  169 169 169  169 169 169  169 169 169  169 169 169  169 169 169  169 169 169  169 169 169  169 169 169  169 169 169  169 169 169  169 169 169  169 169 169  169 169 169  169 169 169  169 169 169  169 169 169  169 169 169  170 170 170  170 170 170  170 170 170  170 170 170  170 170 170  170 170 170  170 170 170  170 170 170  170 170 170  170 170 170  170 170 170  170 170 170  170 170 170  170 170 170  170 170 170  170 170 170  170 170 170  170 170 170  170 170 170  170 170 170  170 170 170  170 170 170  170 170 170  170 170 170  170 170 170  170 170 170  170 170 170  170 170 170  170 170 170  170 170 170  170 170 170  170 170 170  170 170 170  170 170 170  170 170 170  170 170 170  170 170 170  170 170 170  170 170 170  170 170 170  170 170 170  170 170 170  170 170 170  170 170 170  170 170 170  170 170 170  170 170 170  170 170 170  170 170 170  170 170 170  170 170 170  170 170 170  170 170 170  170 170 170  170 170 170  170 170 170  170 170 170  170 170 170  170 170 170  170 170 170  170 170 170  170 170 170  170 170 170  170 170 170  170 170 170  170 170 170  170 170 170  170 170 170  170 170 170  170 170 170  170 170 170  170 170 170  170 170 170  170 170 170  170 170 170  170 170 170  170 170 170  170 170 170  170 170 170  170 170 170  170 170 170  170 170 170  170 170 170  170 170 170  170 170 170  169 169 169  169 169 169  169 169 169  169 169 169  169 169 169  169 169 169  169 169 169  169 169 169  169 169 169  169 169 169  169 169 169  169 169 169  169 169 169  169 169 169  169 169 169  169 169 169  169 169 169  169 169 169  169 169 169  169 169 169  169 169 169  169 169 169  169 169 169  169 169 169  169 169 169  169 169 169  169 169 169  169 169 169  169 169 169  169 169 169  169 169 169  169 169 169  169 169 169  169 169 169  169 169 169  169 169 169  169 169 169  168 168 168  168 168 168  168 168 168  168 168 168  168 168 168  168 168 168  168 168 168  168 168 168  168 168 168  168 168 168  168 168 168  168 168 168  168 168 168  168 168 168  168 168 168  168 168 168  168 168 168  168 168 168  168 168 168  168 168 168  168 168 168  168 168 168  168 168 168  168 168 168  168 168 168  168 168 168  168 168 168  168 168 168  168 168 168  167 167 167  167 167 167  167 167 167  167 167 167  167 167 167  167 167 167  167 167 167  167 167 167  167 167 167  167 167 167  167 167 167  167 167 167  167 167 167  167 167 167  167 167 167  167 167 167  167 167 167  167 167 167  167 167 167  167 167 167  167 167 167  167 167 167  167 167 167  167 167 167  167 167 167  167 167 167  167 167 167  166 166 166  166 166 166  166 166 166  166 166 166  166 166 166  166 166 166  166 166 166  166 166 166  166 166 166  166 166 166  166 166 166  166 166 166  166 166 166  166 166 166  166 166 166  166 166 166  166 166 166  166 166 166  166 166 166  166 166 166  166 166 166  166 166 166
165 165 165  165 165 165  165 165 165  165 165 165  166 166 166  166 166 166  166 166 166  166 166 166  166 166 166  166 166 166  166 166 166  166 166 166  166 166 166  166 166 166  166 166 166  166 166 166  166 166 166  166 166 166  166 166 166  166 166 166  166 166 166  166 166 166  166 166 166  166 166 166  166 166 166  166 166 166  166 166 166  166 166 166  167 167 167  167 167 167  167 167 167  167 167 167  167 167 167  167 167 167  167 167 167  167 167 167  167 167 167  167 167 167  167 167 167  167 167 167  167 167 167  167 167 167  167 167 167  167 167 167  167 167 167  167 167 167  167 167 167  167 167 167  167 167 167  167 167 167  167 167 167  167 167 167  167 167 167  167 167 167  168 168 168  168 168 168  168 168 168  168 168 168  168 168 168  168 168 168  168 168 168  168 168 168  168 168 168  168 168 168  168 168 168  168 168 168  168 168 168  168 168 168  168 168 168  168 168 168  168 168 168  168 168 168  168 168 168  168 168 168  168 168 168  168 168 168  168 168 168  168 168 168  168 168 168  168 168 168  168 168 168  169 169 169  169 169 169  169 169 169  169 169 169  169 169 169  169 169 169  169 169 169  169 169 169  169 169 169  169 169 169  169 169 169  169 169 169  169 169 169  169 169 169  169 169 169  169 169 169  169 169 169  169 169 169  169 169 169  169 169 169  169 169 169  169 169 169  169 169 169  169 169 169  169 169 169  169 169 169  169 169 169  169 169 169  169 169 169  169 169 169  169 169 169  169 169 169  169 169 169  169 169 169  169 169 169  170 170 170  170 170 170  170 170 170  170 170 170  170 170 170  170 170 170  170 170 170  170 170 170  170 170 170  170 170 170  170 170 170  170 170 170  170 170 170  170 170 170  170 170 170  170 170 170  170 170 170  170 170 170  170 170 170  170 170 170  170 170 170  170 170 170  170 170 170  170 170 170  170 170 170  170 170 170  170 170 170  170 170 170  170 170 170  170 170 170  170 170 170  170 170 170  170 170 170  170 170 170  170 170 170  170 170 170  170 170 170  170 170 170  170 170 170  170 170 170  170 170 170  170 170 170  170 170 170  170 170 170  170 170 170  170 170 170  170 170 170  170 170 170  170 170 170  170 170 170  170 170 170  170 170 170  170 170 170  170 170 170  170 170 170  170 170 170  170 170 170  170 170 170  170 170 170  170 170 170  170 170 170  170 170 170  170 170 170  170 170 170  170 170 170  170 170 170  170 170 170  170 170 170  170 170 170  170 170 170  170 170 170  170 170 170  170 170 170  170 170 170  170 170 170  170 170 170  170 170 170  170 170 170  170 170 170  170 170 170  170 170 170  170 170 170  170 170 170  170 170 170  170 170 170  170 170 170  170 170 170  170 170 170  170 170 170  170 170 170  170 170 170  170 170 170  170 170 170  170 170 170  169 169 169  169 169 169  169 169 169  169 169 169  169 169 169  169 169 169  169 169 169  169 169 169  169 169 169  169 169 169  169 169 169  169 169 169  169 169 169  169 169 169  169 169 169  169 169 169  169 169 169  169 169 169  169 169 169  169 169 169  169 169 169  169 169 169  169 169 169  169 169 169  169 169 169  169 169 169  169 169 169  169 169 169  169 169 169  169 169 169  169 169 169  169 169 169  169 169 169  169 169 169  169 169 169  168 168 168  168 168 168  168 168 168  168 168 168  168 168 168  168 168 168  168 168 168  168 168 168  168 168 168  168 168 168  168 168 168  168 168 168  168 168 168  168 168 168  168 168 168  168 168 168  168 168 168  168 168 168  168 168 168  168 168 168  168 168 168  168 168 168  168 168 168  168 168 168  168 168 168  168 168 168  168 168 168  168 168 168  168 168 168  167 167 167  167 167 167  167 167 167  167 167 167  167 167 167  167 167 167  167 167 167  167 167 167  167 167 167  167 167 167  167 167 167  167 167 167  167 167 167  167 167 167  167 167 167  167 167 167  167 167 167  167 167 167  167 167 167  167 167 167  167 167 167  167 167 167  167 167 167  167 167 167  167 167 167  167 167 167  166 166 166  166 166 166  166 166 166  166 166 166  166 166 166  166 166 166  166 166 166  166 166 166  166 166 166  166 166 166  166 166 166  166 166 166  166 166 166  166 166 166  166 166 166  166 166 166  166 166 166  166 166 166  166 166 166  166 166 166
165 165 165  165 165 165  166 166 166  166 166 166  166 166 166  166 166 166  166 166 166  166 166 166  166 166 166  166 166 166  166 166 166  166 166 166  166 166 166  166 166 166  166 166 166  166 166 166  166 166 166  166 166 166  166 166 166  166 166 166  166 166 166  166 166 166  166 166 166  166 166 166  166 166 166  166 166 166  167 167 167  167 167 167  167 167 167  167 167 167  167 167 167  167 167 167  167 167 167  167 167 167  167 167 167  167 167 167  167 167 167  167 167 167  167 167 167  167 167 167  167 167 167  167 167 167  167 167 167  167 167 167  167 167 167  167 167 167  167 167 167  167 167 167  167 167 167  167 167 167  167 167 167  167 167 167  168 168 168  168 168 168  168 168 168  168 168 168  168 168 168  168 168 168  168 168 168  168 168 168  168 168 168  168 168 168  168 168 168  168 168 168  168 168 168  168 168 168  168 168 168  168 168 168  168 168 168  168 168 168  168 168 168  168 168 168  168 168 168  168 168 168  168 168 168  168 168 168  168 168 168  168 168 168  168 168 168  169 169 169  169 169 169  169 169 169  169 169 169  169 169 169  169 169 169  169 169 169  169 169 169  169 169 169  169 169 169  169 169 169  169 169 169  169 169 169  169 169 169  169 169 169  169 169 169  169 169 169  169 169 169  169 169 169  169 169 169  169 169 169  169 169 169  169 169 169  169 169 169  169 169 169  169 169 169  169 169 169  169 169 169  169 169 169  169 169 169  169 169 169  169 169 169  169 169 169  170 170 170  170 170 170  170 170 170  170 170 170  170 170 170  170 170 170  170 170 170  170 170 170  170 170 170  170 170 170  170 170 170  170 170 170  170 170 170  170 170 170  170 170 170  170 170 170  170 170 170  170 170 170  170 170 170  170 170 170  170 170 170  170 170 170  170 170 170  170 170 170  170 170 170  170 170 170  170 170 170  170 170 170  170 170 170  170 170 170  170 170 170  170 170 170  170 170 170  170 170 170  170 170 170  170 170 170  170 170 170  170 170 170  170 170 170  170 170 170  170 170 170  170 170 170  170 170 170  170 170 170  170 170 170  170 170 170  170 170 170  170 170 170  170 170 170  170 170 170  170 170 170  170 170 170  170 170 170  170 170 170  170 170 170  170 170 170  170 170 170  170 170 170  170 170 170  170 170 170  170 170 170  170 170 170  170 170 170  170 170 170  170 170 170  170 170 170  170 170 170  170 170 170  170 170 170  170 170 170  170 170 170  170 170 170  170 170 170  170 170 170  170 170 170  170 170 170  170 170 170  170 170 170  170 170 170  170 170 170  170 170 170  170 170 170  170 170 170  170 170 170  170 170 170  170 170 170  170 170 170  170 170 170  170 170 170  170 170 170  170 170 170  170 170 170  170 170 170  170 170 170  170 170 170  170 170 170  170 170 170  170 170 170  170 170 170  170 170 170  170 170 170  170 170 170  169 169 169  169 169 169  169 169 169  169 169 169  169 169 169  169 169 169  169 169 169  169 169 169  169 169 169  169 169 169  169 169 169  169 169 169  169 169 169  169 169 169  169 169 169  169 169 169  169 169 169  169 169 169  169 169 169  169 169 169  169 169 169  169 169 169  169 169 169  169 169 169  169 169 169  169 169 169  169 169 169  169 169 169  169 169 169  169 169 169  169 169 169  169 169 169  169 169 169  169 169 169  168 168 168  168 168 168  168 168 168  168 168 168  168 168 168  168 168 168  168 168 168  168 168 168  168 168 168  168 168 168  168 168 168  168 168 168  168 168 168  168 168 168  168 168 168  168 168 168  168 168 168  168 168 168  168 168 168  168 168 168  168 168 168  168 168 168  168 168 168  168 168 168  168 168 168  168 168 168  168 168 168  168 168 168  167 167 167  167 167 167  167 167 167  167 167 167  167 167 167  167 167 167  167 167 167  167 167 167  167 167 167  167 167 167  167 167 167  167 167 167  167 167 167  167 167 167  167 167 167  167 167 167  167 167 167  167 167 167  167 167 167  167 167 167  167 167 167  167 167 167  167 167 167  167 167 167  167 167 167  167 167 167  166 166 166  166 166 166  166 166 166  166 166 166  166 166 166  166 166 166  166 166 166  166 166 166  166 166 166  166 166 166  166 166 166  166 166 166  166 166 166  166 166 166  166 166 166  166 166 166  166 166 166  166 166 166
166 166 166  166 166 166  166 166 166  166 166 166  166 166 166  166 166 166  166 166 166  166 166 166  166 166 166  166 166 166  166 166 166  166 166 166  166 166 166  166 166 166  166 166 166  166 166 166  166 166 166  166 166 166  166 166 166  166 166 166  166 166 166  166 166 166  166 166 166  166 166 166  166 166 166  167 167 167  167 167 167  167 167 167  167 167 167  167 167 167  167 167 167  167 167 167  167 167 167  167 167 167  167 167 167  167 167 167  167 167 167  167 167 167  167 167 167  167 167 167  167 167 167  167 167 167  167 167 167  167 167 167  167 167 167  167 167 167  167 167 167  167 167 167  167 167 167  167 167 167  168 168 168  168 168 168  168 168 168  168 168 168  168 168 168  168 168 168  168 168 168  168 168 168  168 168 168  168 168 168  168 168 168  168 168 168  168 168 168  168 168 168  168 168 168  168 168 168  168 168 168  168 168 168  168 168 168  168 168 168  168 168 168  168 168 168  168 168 168  168 168 168  168 168 168  168 168 168  169 169 169  169 169 169  169 169 169  169 169 169  169 169 169  169 169 169  169 169 169  169 169 169  169 169 169  169 169 169  169 169 169  169 169 169  169 169 169  169 169 169  169 169 169  169 169 169  169 169 169  169 169 169  169 169 169  169 169 169  169 169 169  169 169 169  169 169 169  169 169 169  169 169 169  169 169 169  169 169 169  169 169 169  169 169 169  169 169 169  169 169 169  169 169 169  170 170 170  170 170 170  170 170 170  170 170 170  170 170 170  170 170 170  170 170 170  170 170 170  170 170 170  170 170 170  170 170 170  170 170 170  170 170 170  170 170 170  170 170 170  170 170 170  170 170 170  170 170 170  170 170 170  170 170 170  170 170 170  170 170 170  170 170 170  170 170 170  170 170 170  170 170 170  170 170 170  170 170 170  170 170 170  170 170 170  170 170 170  170 170 170  170 170 170  170 170 170  170 170 170  170 170 170  170 170 170  170 170 170  170 170 170  170 170 170  170 170 170  170 170 170  170 170 170  170 170 170  170 170 170  170 170 170  170 170 170  170 170 170  170 170 170  170 170 170  170 170 170  170 170 170  170 170 170  170 170 170  170 170 170  170 170 170  170 170 170  170 170 170  170 170 170  170 170 170  170 170 170  170 170 170  170 170 170  170 170 170  170 170 170  170 170 170  170 170 170  170 170 170  170 170 170  170 170 170  170 170 170  170 170 170  170 170 170  170 170 170  170 170 170  170 170 170  170 170 170  170 170 170  170 170 170  170 170 170  170 170 170  170 170 170  170 170 170  170 170 170  170 170 170  170 170 170  170 170 170  170 170 170  170 170 170  170 170 170  170 170 170  170 170 170  170 170 170  170 170 170  170 170 170  170 170 170  170 170 170  170 170 170  170 170 170  170 170 170  170 170 170  170 170 170  170 170 170  170 170 170  170 170 170  170 170 170  170 170 170  170 170 170  170 170 170  170 170 170  169 169 169  169 169 169  169 169 169  169 169 169  169 169 169  169 169 169  169 169 169  169 169 169  169 169 169  169 169 169  169 169 169  169 169 169  169 169 169  169 169 169  169 169 169  169 169 169  169 169 169  169 169 169  169 169 169  169 169 169  169 169 169  169 169 169  169 169 169  169 169 169  169 169 169  169 169 169  169 169 169  169 169 169  169 169 169  169 169 169  169 169 169  169 169 169  168 168 168  168 168 168  168 168 168  168 168 168  168 168 168  168 168 168  168 168 168  168 168 168  168 168 168  168 168 168  168 168 168  168 168 168  168 168 168  168 168 168  168 168 168  168 168 168  168 168 168  168 168 168  168 168 168  168 168 168  168 168 168  168 168 168  168 168 168  168 168 168  168 168 168  168 168 168  168 168 168  168 168 168  167 167 167  167 167 167  167 167 167  167 167 167  167 167 167  167 167 167  167 167 167  167 167 167  167 167 167  167 167 167  167 167 167  167 167 167  167 167 167  167 167 167  167 167 167  167 167 167  167 167 167  167 167 167  167 167 167  167 167 167  167 167 167  167 167 167  167 167 167  167 167 167  167 167 167  167 167 167  166 166 166  166 166 166  166 166 166  166 166 166  166 166 166  166 166 166  166 166 166  166 166 166  166 166 166  166 166 166  166 166 166  166 166 166  166 166 166  166 166 166  166 166 166  166 166 166
166 166 166  166 166 166  166 166 166  166 166 166  166 166 166  166 166 166  166 166 166  166 166 166  166 166 166  166 166 166  166 166 166  166 166 166  166 166 166  166 166 166  166 166 166  166 166 166  166 166 166  166 166 166  166 166 166  166 166 166  166 166 166  166 166 166  166 166 166  167 167 167  167 167 167  167 167 167  167 167 167  167 167 167  167 167 167  167 167 167  167 167 167  167 167 167  167 167 167  167 167 167  167 167 167  167 167 167  167 167 167  167 167 167  167 167 167  167 167 167  167 167 167  167 167 167  167 167 167  167 167 167  167 167 167  167 167 167  167 167 167  167 167 167  168 168 168  168 168 168  168 168 168  168 168 168  168 168 168  168 168 168  168 168 168  168 168 168  168 168 168  168 168 168  168 168 168  168 168 168  168 168 168  168 168 168  168 168 168  168 168 168  168 168 168  168 168 168  168 168 168  168 168 168  168 168 168  168 168 168  168 168 168  168 168 168  168 168 168  168 168 168  169 169 169  169 169 169  169 169 169  169 169 169  169 169 169  169 169 169  169 169 169  169 169 169  169 169 169  169 169 169  169 169 169  169 169 169  169 169 169  169 169 169  169 169 169  169 169 169  169 169 169  169 169 169  169 169 169  169 169 169  169 169 169  169 169 169  169 169 169  169 169 169  169 169 169  169 169 169  169 169 169  169 169 169  169 169 169  169 169 169  170 170 170  170 170 170  170 170 170  170 170 170  170 170 170  170 170 170  170 170 170  170 170 170  170 170 170  170 170 170  170 170 170  170 170 170  170 170 170  170 170 170  170 170 170  170 170 170  170 170 170  170 170 170  170 170 170  170 170 170  170 170 170  170 170 170  170 170 170  170 170 170  170 170 170  170 170 170  170 170 170  170 170 170  170 170 170  170 170 170  170 170 170  170 170 170  170 170 170  170 170 170  170 170 170  170 170 170  170 170 170  170 170 170  170 170 170  170 170 170  170 170 170  170 170 170  170 170 170  170 170 170  170 170 170  170 170 170  170 170 170  170 170 170  170 170 170  170 170 170  170 170 170  170 170 170  170 170 170  170 170 170  170 170 170  170 170 170  170 170 170  170 170 170  170 170 170  170 170 170  170 170 170  170 170 170  170 170 170  170 170 170  170 170 170  170 170 170  170 170 170  170 170 170  170 170 170  170 170 170  170 170 170  170 170 170  170 170 170  170 170 170  170 170 170  170 170 170  170 170 170  170 170 170  170 170 170  170 170 170  170 170 170  170 170 170  170 170 170  170 170 170  170 170 170  170 170 170  170 170 170  170 170 170  170 170 170  170 170 170  170 170 170  170 170 170  170 170 170  170 170 170  170 170 170  170 170 170  170 170 170  170 170 170  170 170 170  170 170 170  170 170 170  170 170 170  170 170 170  170 170 170  170 170 170  170 170 170  170 170 170  170 170 170  170 170 170  170 170 170  170 170 170  170 170 170  170 170 170  170 170 170  170 170 170  170 170 170  170 170 170  170 170 170  169 169 169  169 169 169  169 169 169  169 169 169  169 169 169  169 169 169  169 169 169  169 169 169  169 169 169  169 169 169  169 169 169  169 169 169  169 169 169  169 169 169  169 169 169  169 169 169  169 169 169  169 169 169  169 169 169  169 169 169  169 169 169  169 169 169  169 169 169  169 169 169  169 169 169  169 169 169  169 169 169  169 169 169  169 169 169  169 169 169  169 169 169  168 168 168  168 168 168  168 168 168  168 168 168  168 168 168  168 168 168  168 168 168  168 168 168  168 168 168  168 168 168  168 168 168  168 168 168  168 168 168  168 168 168  168 168 168  168 168 168  168 168 168  168 168 168  168 168 168  168 168 168  168 168 168  168 168 168  168 168 168  168 168 168  168 168 168  168 168 168  168 168 168  167 167 167  167 167 167  167 167 167  167 167 167  167 167 167  167 167 167  167 167 167  167 167 167  167 167 167  167 167 167  167 167 167  167 167 167  167 167 167  167 167 167  167 167 167  167 167 167  167 167 167  167 167 167  167 167 167  167 167 167  167 167 167  167 167 167  167 167 167  167 167 167  167 167 167  167 167 167  166 166 166  166 166 166  166 166 166  166 166 166  166 166 166  166 166 166  166 166 166  166 166 166  166 166 166  166 166 166  166 166 166  166 166 166  166 166 166  166 166 166
166 166 166  166 166 166  166 166 166  166 166 166  166 166 166  166 166 166  166 166 166  166 166 166  166 166 166  166 166 166  166 166 166  166 166 166  166 166 166  166 166 166  166 166 166  166 166 166  166 166 166  166 166 166  166 166 166  166 166 166  166 166 166  167 167 167  167 167 167  167 167 167  167 167 167  167 167 167  167 167 167  167 167 167  167 167 167  167 167 167  167 167 167  167 167 167  167 167 167  167 167 167  167 167 167  167 167 167  167 167 167  167 167 167  167 167 167  167 167 167  167 167 167  167 167 167  167 167 167  167 167 167  167 167 167  167 167 167  168 168 168  168 168 168  168 168 168  168 168 168  168 168 168  168 168 168  168 168 168  168 168 168  168 168 168  168 168 168  168 168 168  168 168 168  168 168 168  168 168 168  168 168 168  168 168 168  168 168 168  168 168 168  168 168 168  168 168 168  168 168 168  168 168 168  168 168 168  168 168 168  168 168 168  168 168 168  169 169 169  169 169 169  169 169 169  169 169 169  169 169 169  169 169 169  169 169 169  169 169 169  169 169 169  169 169 169  169 169 169  169 169 169  169 169 169  169 169 169  169 169 169  169 169 169  169 169 169  169 169 169  169 169 169  169 169 169  169 169 169  169 169 169  169 169 169  169 169 169  169 169 169  169 169 169  169 169 169  169 169 169  169 169 169  170 170 170  170 170 170  170 170 170  170 170 170  170 170 170  170 170 170  170 170 170  170 170 170  170 170 170  170 170 170  170 170 170  170 170 170  170 170 170  170 170 170  170 170 170  170 170 170  170 170 170  170 170 170  170 170 170  170 170 170  170 170 170  170 170 170  170 170 170  170 170 170  170 170 170  170 170 170  170 170 170  170 170 170  170 170 170  170 170 170  170 170 170  170 170 170  170 170 170  170 170 170  170 170 170  170 170 170  170 170 170  170 170 170  170 170 170  170 170 170  170 170 170  170 170 170  170 170 170  170 170 170  170 170 170  170 170 170  170 170 170  170 170 170  170 170 170  170 170 170  170 170 170  170 170 170  170 170 170  170 170 170  170 170 170  170 170 170  171 171 171  171 171 171  171 171 171  171 171 171  171 171 171  171 171 171  171 171 171  171 171 171  171 171 171  171 171 171  171 171 171  170 170 170  170 170 170  170 170 170  170 170 170  170 170 170  170 170 170  170 170 170  170 170 170  170 170 170  170 170 170  170 170 170  170 170 170  170 170 170  170 170 170  170 170 170  170 170 170  170 170 170  170 170 170  170 170 170  170 170 170  170 170 170  170 170 170  170 170 170  170 170 170  170 170 170  170 170 170  170 170 170  170 170 170  170 170 170  170 170 170  170 170 170  170 170 170  170 170 170  170 170 170  170 170 170  170 170 170  170 170 170  170 170 170  170 170 170  170 170 170  170 170 170  170 170 170  170 170 170  170 170 170  170 170 170  170 170 170  170 170 170  170 170 170  170 170 170  170 170 170  170 170 170  170 170 170  170 170 170  170 170 170  170 170 170  170 170 170  170 170 170  169 169 169  169 169 169  169 169 169  169 169 169  169 169 169  169 169 169  169 169 169  169 169 169  169 169 169  169 169 169  169 169 169  169 169 169  169 169 169  169 169 169  169 169 169  169 169 169  169 169 169  169 169 169  169 169 169  169 169 169  169 169 169  169 169 169  169 169 169  169 169 169  169 169 169  169 169 169  169 169 169  169 169 169  169 169 169  169 169 169  168 168 168  168 168 168  168 168 168  168 168 168  168 168 168  168 168 168  168 168 168  168 168 168  168 168 168  168 168 168  168 168 168  168 168 168  168 168 168  168 168 168  168 168 168  168 168 168  168 168 168  168 168 168  168 168 168  168 168 168  168 168 168  168 168 168  168 168 168  168 168 168  168 168 168  168 168 168  168 168 168  167 167 167  167 167 167  167 167 167  167 167 167  167 167 167  167 167 167  167 167 167  167 167 167  167 167 167  167 167 167  167 167 167  167 167 167  167 167 167  167 167 167  167 167 167  167 167 167  167 167 167  167 167 167  167 167 167  167 167 167  167 167 167  167 167 167  167 167 167  167 167 167  167 167 167  167 167 167  166 166 166  166 166 166  166 166 166  166 166 166  166 166 166  166 166 166  166 166 166  166 166 166  166 166 166  166 166 166  166 166 166  166 166 166
166 166 166  166 166 166  166 166 166  166 166 166  166 166 166  166 166 166  166 166 166  166 166 166  166 166 166  166 166 166  166 166 166  166 166 166  166 166 166  166 166 166  166 166 166  166 166 166  166 166 166  166 166 166  166 166 166  166 166 166  167 167 167  167 167 167  167 167 167  167 167 167  167 167 167  167 167 167  167 167 167  167 167 167  167 167 167  167 167 167  167 167 167  167 167 167  167 167 167  167 167 167  167 167 167  167 167 167  167 167 167  167 167 167  167 167 167  167 167 167  167 167 167  167 167 167  167 167 167  167 167 167  168 168 168  168 168 168  168 168 168  168 168 168  168 168 168  168 168 168  168 168 168  168 168 168  168 168 168  168 168 168  168 168 168  168 168 168  168 168 168  168 168 168  168 168 168  168 168 168  168 168 168  168 168 168  168 168 168  168 168 168  168 168 168  168 168 168  168 168 168  168 168 168  168 168 168  168 168 168  169 169 169  169 169 169  169 169 169  169 169 169  169 169 169  169 169 169  169 169 169  169 169 169  169 169 169  169 169 169  169 169 169  169 169 169  169 169 169  169 169 169  169 169 169  169 169 169  169 169 169  169 169 169  169 169 169  169 169 169  169 169 169  169 169 169  169 169 169  169 169 169  169 169 169  169 169 169  169 169 169  169 169 169  170 170 170  170 170 170  170 170 170  170 170 170  170 170 170  170 170 170  170 170 170  170 170 170  170 170 170  170 170 170  170 170 170  170 170 170  170 170 170  170 170 170  170 170 170  170 170 170  170 170 170  170 170 170  170 170 170  170 170 170  170 170 170  170 170 170  170 170 170  170 170 170  170 170 170  170 170 170  170 170 170  170 170 170  170 170 170  170 170 170  170 170 170  170 170 170  170 170 170  170 170 170  170 170 170  170 170 170  170 170 170  170 170 170  170 170 170  170 170 170  170 170 170  170 170 170  170 170 170  170 170 170  171 171 171  171 171 171  171 171 171  171 171 171  171 171 171  171 171 171  171 171 171  171 171 171  171 171 171  171 171 171  171 171 171  171 171 171  171 171 171  171 171 171  171 171 171  171 171 171  171 171 171  171 171 171  171 171 171  171 171 171  171 171 171  171 171 171  171 171 171  171 171 171  171 171 171  171 171 171  171 171 171  171 171 171  171 171 171  171 171 171  171 171 171  171 171 171  171 171 171  171 171 171  171 171 171  171 171 171  171 171 171  171 171 171  171 171 171  171 171 171  171 171 171  170 170 170  170 170 170  170 170 170  170 170 170  170 170 170  170 170 170  170 170 170  170 170 170  170 170 170  170 170 170  170 170 170  170 170 170  170 170 170  170 170 170  170 170 170  170 170 170  170 170 170  170 170 170  170 170 170  170 170 170  170 170 170  170 170 170  170 170 170  170 170 170  170 170 170  170 170 170  170 170 170  170 170 170  170 170 170  170 170 170  170 170 170  170 170 170  170 170 170  170 170 170  170 170 170  170 170 170  170 170 170  170 170 170  170 170 170  170 170 170  170 170 170  170 170 170  170 170 170  170 170 170  170 170 170  169 169 169  169 169 169  169 169 169  169 169 169  169 169 169  169 169 169  169 169 169  169 169 169  169 169 169  169 169 169  169 169 169  169 169 169  169 169 169  169 169 169  169 169 169  169 169 169  169 169 169  169 169 169  169 169 169  169 169 169  169 169 169  169 169 169  169 169 169  169 169 169  169 169 169  169 169 169  169 169 169  169 169 169  169 169 169  169 169 169  168 168 168  168 168 168  168 168 168  168 168 168  168 168 168  168 168 168  168 168 168  168 168 168  168 168 168  168 168 168  168 168 168  168 168 168  168 168 168  168 168 168  168 168 168  168 168 168  168 168 168  168 168 168  168 168 168  168 168 168  168 168 168  168 168 168  168 168 168  168 168 168  168 168 168  168 168 168  167 167 167  167 167 167  167 167 167  167 167 167  167 167 167  167 167 167  167 167 167  167 167 167  167 167 167  167 167 167  167 167 167  167 167 167  167 167 167  167 167 167  167 167 167  167 167 167  167 167 167  167 167 167  167 167 167  167 167 167  167 167 167  167 167 167  167 167 167  167 167 167  167 167 167  166 166 166  166 166 166  166 166 166  166 166 166  166 166 166  166 166 166  166 166 166  166 166 166  166 166 166  166 166 166  166 166 166
166 166 166  166 166 166  166 166 166  166 166 166  166 166 166  166 166 166  166 166 166  166 166 166  166 166 166  166 166 166  166 166 166  166 166 166  166 166 166  166 166 166  166 166 166  166 166 166  166 166 166  166 166 166  167 167 167  167 167 167  167 167 167  167 167 167  167 167 167  167 167 167  167 167 167  167 167 167  167 167 167  167 167 167  167 167 167  167 167 167  167 167 167  167 167 167  167 167 167  167 167 167  167 167 167  167 167 167  167 167 167  167 167 167  167 167 167  167 167 167  167 167 167  167 167 167  168 168 168  168 168 168  168 168 168  168 168 168  168 168 168  168 168 168  168 168 168  168 168 168  168 168 168  168 168 168  168 168 168  168 168 168  168 168 168  168 168 168  168 168 168  168 168 168  168 168 168  168 168 168  168 168 168  168 168 168  168 168 168  168 168 168  168 168 168  168 168 168  168 168 168  168 168 168  169 169 169  169 169 169  169 169 169  169 169 169  169 169 169  169 169 169  169 169 169  169 169 169  169 169 169  169 169 169  169 169 169  169 169 169  169 169 169  169 169 169  169 169 169  169 169 169  169 169 169  169 169 169  169 169 169  169 169 169  169 169 169  169 169 169  169 169 169  169 169 169  169 169 169  169 169 169  169 169 169  170 170 170  170 170 170  170 170 170  170 170 170  170 170 170  170 170 170  170 170 170  170 170 170  170 170 170  170 170 170  170 170 170  170 170 170  170 170 170  170 170 170  170 170 170  170 170 170  170 170 170  170 170 170  170 170 170  170 170 170  170 170 170  170 170 170  170 170 170  170 170 170  170 170 170  170 170 170  170 170 170  170 170 170  170 170 170  170 170 170  170 170 170  170 170 170  170 170 170  170 170 170  170 170 170  170 170 170  170 170 170  170 170 170  170 170 170  171 171 171  171 171 171  171 171 171  171 171 171  171 171 171  171 171 171  171 171 171  171 171 171  171 171 171  171 171 171  171 171 171  171 171 171  171 171 171  171 171 171  171 171 171  171 171 171  171 171 171  171 171 171  171 171 171  171 171 171  171 171 171  171 171 171  171 171 171  171 171 171  171 171 171  171 171 171  171 171 171  171 171 171  171 171 171  171 171 171  171 171 171  171 171 171  171 171 171  171 171 171  171 171 171  171 171 171  171 171 171  171 171 171  171 171 171  171 171 171  171 171 171  171 171 171  171 171 171  171 171 171  171 171 171  171 171 171  171 171 171  171 171 171  171 171 171  171 171 171  171 171 171  171 171 171  171 171 171  171 171 171  171 171 171  171 171 171  171 171 171  170 170 170  170 170 170  170 170 170  170 170 170  170 170 170  170 170 170  170 170 170  170 170 170  170 170 170  170 170 170  170 170 170  170 170 170  170 170 170  170 170 170  170 170 170  170 170 170  170 170 170  170 170 170  170 170 170  170 170 170  170 170 170  170 170 170  170 170 170  170 170 170  170 170 170  170 170 170  170 170 170  170 170 170  170 170 170  170 170 170  170 170 170  170 170 170  170 170 170  170 170 170  170 170 170  170 170 170  170 170 170  170 170 170  170 170 170  170 170 170  169 169 169  169 169 169  169 169 169  169 169 169  169 169 169  169 169 169  169 169 169  169 169 169  169 169 169  169 169 169  169 169 169  169 169 169  169 169 169  169 169 169  169 169 169  169 169 169  169 169 169  169 169 169  169 169 169  169 169 169  169 169 169  169 169 169  169 169 169  169 169 169  169 169 169  169 169 169  169 169 169  169 169 169  169 169 169  168 168 168  168 168 168  168 168 168  168 168 168  168 168 168  168 168 168  168 168 168  168 168 168  168 168 168  168 168 168  168 168 168  168 168 168  168 168 168  168 168 168  168 168 168  168 168 168  168 168 168  168 168 168  168 168 168  168 168 168  168 168 168  168 168 168  168 168 168  168 168 168  168 168 168  168 168 168  167 167 167  167 167 167  167 167 167  167 167 167  167 167 167  167 167 167  167 167 167  167 167 167  167 167 167  167 167 167  167 167 167  167 167 167  167 167 167  167 167 167  167 167 167  167 167 167  167 167 167  167 167 167  167 167 167  167 167 167  167 167 167  167 167 167  167 167 167  167 167 167  167 167 167  166 166 166  166 166 166  166 166 166  166 166 166  166 166 166  166 166 166  166 166 166  166 166 166  166 166 166
166 166 166  166 166 166  166 166 166  166 166 166  166 166 166  166 166 166  166 166 166  166 166 166  166 166 166  166 166 166  166 166 166  166 166 166  166 166 166  166 166 166  166 166 166  166 166 166  166 166 166  167 167 167  167 167 167  167 167 167  167 167 167  167 167 167  167 167 167  167 167 167  167 167 167  167 167 167  167 167 167  167 167 167  167 167 167  167 167 167  167 167 167  167 167 167  167 167 167  167 167 167  167 167 167  167 167 167  167 167 167  167 167 167  167 167 167  167 167 167  167 167 167  168 168 168  168 168 168  168 168 168  168 168 168  168 168 168  168 168 168  168 168 168  168 168 168  168 168 168  168 168 168  168 168 168  168 168 168  168 168 168  168 168 168  168 168 168  168 168 168  168 168 168  168 168 168  168 168 168  168 168 168  168 168 168  168 168 168  168 168 168  168 168 168  169 169 169  169 169 169  169 169 169  169 169 169  169 169 169  169 169 169  169 169 169  169 169 169  169 169 169  169 169 169  169 169 169  169 169 169  169 169 169  169 169 169  169 169 169  169 169 169  169 169 169  169 169 169  169 169 169  169 169 169  169 169 169  169 169 169  169 169 169  169 169 169  169 169 169  169 169 169  169 169 169  170 170 170  170 170 170  170 170 170  170 170 170  170 170 170  170 170 170  170 170 170  170 170 170  170 170 170  170 170 170  170 170 170  170 170 170  170 170 170  170 170 170  170 170 170  170 170 170  170 170 170  170 170 170  170 170 170  170 170 170  170 170 170  170 170 170  170 170 170  170 170 170  170 170 170  170 170 170  170 170 170  170 170 170  170 170 170  170 170 170  170 170 170  170 170 170  170 170 170  170 170 170  170 170 170  170 170 170  171 171 171  171 171 171  171 171 171  171 171 171  171 171 171  171 171 171  171 171 171  171 171 171  171 171 171  171 171 171  171 171 171  171 171 171  171 171 171  171 171 171  171 171 171  171 171 171  171 171 171  171 171 171  171 171 171  171 171 171  171 171 171  171 171 171  171 171 171  171 171 171  171 171 171  171 171 171  171 171 171  171 171 171  171 171 171  171 171 171  171 171 171  171 171 171  171 171 171  171 171 171  171 171 171  171 171 171  171 171 171  171 171 171  171 171 171  171 171 171  171 171 171  171 171 171  171 171 171  171 171 171  171 171 171  171 171 171  171 171 171  171 171 171  171 171 171  171 171 171  171 171 171  171 171 171  171 171 171  171 171 171  171 171 171  171 171 171  171 171 171  171 171 171  171 171 171  171 171 171  171 171 171  171 171 171  171 171 171  171 171 171  171 171 171  171 171 171  171 171 171  171 171 171  171 171 171  171 171 171  170 170 170  170 170 170  170 170 170  170 170 170  170 170 170  170 170 170  170 170 170  170 170 170  170 170 170  170 170 170  170 170 170  170 170 170  170 170 170  170 170 170  170 170 170  170 170 170  170 170 170  170 170 170  170 170 170  170 170 170  170 170 170  170 170 170  170 170 170  170 170 170  170 170 170  170 170 170  170 170 170  170 170 170  170 170 170  170 170 170  170 170 170  170 170 170  170 170 170  170 170 170  170 170 170  170 170 170  169 169 169  169 169 169  169 169 169  169 169 169  169 169 169  169 169 169  169 169 169  169 169 169  169 169 169  169 169 169  169 169 169  169 169 169  169 169 169  169 169 169  169 169 169  169 169 169  169 169 169  169 169 169  169 169 169  169 169 169  169 169 169  169 169 169  169 169 169  169 169 169  169 169 169  169 169 169  169 169 169  169 169 169  168 168 168  168 168 168  168 168 168  168 168 168  168 168 168  168 168 168  168 168 168  168 168 168  168 168 168  168 168 168  168 168 168  168 168 168  168 168 168  168 168 168  168 168 168  168 168 168  168 168 168  168 168 168  168 168 168  168 168 168  168 168 168  168 168 168  168 168 168  168 168 168  168 168 168  168 168 168  167 167 167  167 167 167  167 167 167  167 167 167  167 167 167  167 167 167  167 167 167  167 167 167  167 167 167  167 167 167  167 167 167  167 167 167  167 167 167  167 167 167  167 167 167  167 167 167  167 167 167  167 167 167  167 167 167  167 167 167  167 167 167  167 167 167  167 167 167  167 167 167  167 167 167  166 166 166  166 166 166  166 166 166  166 166 166  166 166 166  166 166 166  166 166 166
166 166 166  166 166 166  166 166 166  166 166 166  166 166 166  166 166 166  166 166 166  166 166 166  166 166 166  166 166 166  166 166 166  166 166 166  166 166 166  166 166 166  166 166 166  167 167 167  167 167 167  167 167 167  167 167 167  167 167 167  167 167 167  167 167 167  167 167 167  167 167 167  167 167 167  167 167 167  167 167 167  167 167 167  167 167 167  167 167 167  167 167 167  167 167 167  167 167 167  167 167 167  167 167 167  167 167 167  167 167 167  167 167 167  167 167 167  168 168 168  168 168 168  168 168 168  168 168 168  168 168 168  168 168 168  168 168 168  168 168 168  168 168 168  168 168 168  168 168 168  168 168 168  168 168 168  168 168 168  168 168 168  168 168 168  168 168 168  168 168 168  168 168 168  168 168 168  168 168 168  168 168 168  168 168 168  168 168 168  169 169 169  169 169 169  169 169 169  169 169 169  169 169 169  169 169 169  169 169 169  169 169 169  169 169 169  169 169 169  169 169 169  169 169 169  169 169 169  169 169 169  169 169 169  169 169 169  169 169 169  169 169 169  169 169 169  169 169 169  169 169 169  169 169 169  169 169 169  169 169 169  169 169 169  169 169 169  169 169 169  170 170 170  170 170 170  170 170 170  170 170 170  170 170 170  170 170 170  170 170 170  170 170 170  170 170 170  170 170 170  170 170 170  170 170 170  170 170 170  170 170 170  170 170 170  170 170 170  170 170 170  170 170 170  170 170 170  170 170 170  170 170 170  170 170 170  170 170 170  170 170 170  170 170 170  170 170 170  170 170 170  170 170 170  170 170 170  170 170 170  170 170 170  170 170 170  170 170 170  171 171 171  171 171 171  171 171 171  171 171 171  171 171 171  171 171 171  171 171 171  171 171 171  171 171 171  171 171 171  171 171 171  171 171 171  171 171 171  171 171 171  171 171 171  171 171 171  171 171 171  171 171 171  171 171 171  171 171 171  171 171 171  171 171 171  171 171 171  171 171 171  171 171 171  171 171 171  171 171 171  171 171 171  171 171 171  171 171 171  171 171 171  171 171 171  171 171 171  171 171 171  171 171 171  171 171 171  171 171 171  171 171 171  171 171 171  171 171 171  171 171 171  171 171 171  171 171 171  171 171 171  171 171 171  171 171 171  171 171 171  171 171 171  171 171 171  171 171 171  171 171 171  171 171 171  171 171 171  171 171 171  171 171 171  171 171 171  171 171 171  171 171 171  171 171 171  171 171 171  171 171 171  171 171 171  171 171 171  171 171 171  171 171 171  171 171 171  171 171 171  171 171 171  171 171 171  171 171 171  171 171 171  171 171 171  171 171 171  171 171 171  171 171 171  171 171 171  171 171 171  171 171 171  171 171 171  171 171 171  170 170 170  170 170 170  170 170 170  170 170 170  170 170 170  170 170 170  170 170 170  170 170 170  170 170 170  170 170 170  170 170 170  170 170 170  170 170 170  170 170 170  170 170 170  170 170 170  170 170 170  170 170 170  170 170 170  170 170 170  170 170 170  170 170 170  170 170 170  170 170 170  170 170 170  170 170 170  170 170 170  170 170 170  170 170 170  170 170 170  170 170 170  170 170 170  170 170 170  170 170 170  169 169 169  169 169 169  169 169 169  169 169 169  169 169 169  169 169 169  169 169 169  169 169 169  169 169 169  169 169 169  169 169 169  169 169 169  169 169 169  169 169 169  169 169 169  169 169 169  169 169 169  169 169 169  169 169 169  169 169 169  169 169 169  169 169 169  169 169 169  169 169 169  169 169 169  169 169 169  169 169 169  169 169 169  168 168 168  168 168 168  168 168 168  168 168 168  168 168 168  168 168 168  168 168 168  168 168 168  168 168 168  168 168 168  168 168 168  168 168 168  168 168 168  168 168 168  168 168 168  168 168 168  168 168 168  168 168 168  168 168 168  168 168 168  168 168 168  168 168 168  168 168 168  168 168 168  168 168 168  167 167 167  167 167 167  167 167 167  167 167 167  167 167 167  167 167 167  167 167 167  167 167 167  167 167 167  167 167 167  167 167 167  167 167 167  167 167 167  167 167 167  167 167 167  167 167 167  167 167 167  167 167 167  167 167 167  167 167 167  167 167 167  167 167 167  167 167 167  167 167 167  167 167 167  166 166 166  166 166 166  166 166 166  166 166 166  166 166 166
166 166 166  166 166 166  166 166 166  166 166 166  166 166 166  166 166 166  166 166 166  166 166 166  166 166 166  166 166 166  166 166 166  166 166 166  166 166 166  167 167 167  167 167 167  167 167 167  167 167 167  167 167 167  167 167 167  167 167 167  167 167 167  167 167 167  167 167 167  167 167 167  167 167 167  167 167 167  167 167 167  167 167 167  167 167 167  167 167 167  167 167 167  167 167 167  167 167 167  167 167 167  167 167 167  167 167 167  167 167 167  168 168 168  168 168 168  168 168 168  168 168 168  168 168 168  168 168 168  168 168 168  168 168 168  168 168 168  168 168 168  168 168 168  168 168 168  168 168 168  168 168 168  168 168 168  168 168 168  168 168 168  168 168 168  168 168 168  168 168 168  168 168 168  168 168 168  168 168 168  168 168 168  169 169 169  169 169 169  169 169 169  169 169 169  169 169 169  169 169 169  169 169 169  169 169 169  169 169 169  169 169 169  169 169 169  169 169 169  169 169 169  169 169 169  169 169 169  169 169 169  169 169 169  169 169 169  169 169 169  169 169 169  169 169 169  169 169 169  169 169 169  169 169 169  169 169 169  169 169 169  170 170 170  170 170 170  170 170 170  170 170 170  170 170 170  170 170 170  170 170 170  170 170 170  170 170 170  170 170 170  170 170 170  170 170 170  170 170 170  170 170 170  170 170 170  170 170 170  170 170 170  170 170 170  170 170 170  170 170 170  170 170 170  170 170 170  170 170 170  170 170 170  170 170 170  170 170 170  170 170 170  170 170 170  170 170 170  170 170 170  170 170 170  170 170 170  171 171 171  171 171 171  171 171 171  171 171 171  171 171 171  171 171 171  171 171 171  171 171 171  171 171 171  171 171 171  171 171 171  171 171 171  171 171 171  171 171 171  171 171 171  171 171 171  171 171 171  171 171 171  171 171 171  171 171 171  171 171 171  171 171 171  171 171 171  171 171 171  171 171 171  171 171 171  171 171 171  171 171 171  171 171 171  171 171 171  171 171 171  171 171 171  171 171 171  171 171 171  171 171 171  171 171 171  171 171 171  171 171 171  171 171 171  171 171 171  171 171 171  171 171 171  171 171 171  171 171 171  171 171 171  171 171 171  171 171 171  171 171 171  171 171 171  171 171 171  171 171 171  171 171 171  171 171 171  171 171 171  171 171 171  171 171 171  171 171 171  171 171 171  171 171 171  171 171 171  171 171 171  171 171 171  171 171 171  171 171 171  171 171 171  171 171 171  171 171 171  171 171 171  171 171 171  171 171 171  171 171 171  171 171 171  171 171 171  171 171 171  171 171 171  171 171 171  171 171 171  171 171 171  171 171 171  171 171 171  171 171 171  171 171 171  171 171 171  171 171 171  171 171 171  171 171 171  171 171 171  171 171 171  171 171 171  170 170 170  170 170 170  170 170 170  170 170 170  170 170 170  170 170 170  170 170 170  170 170 170  170 170 170  170 170 170  170 170 170  170 170 170  170 170 170  170 170 170  170 170 170  170 170 170  170 170 170  170 170 170  170 170 170  170 170 170  170 170 170  170 170 170  170 170 170  170 170 170  170 170 170  170 170 170  170 170 170  170 170 170  170 170 170  170 170 170  170 170 170  170 170 170  169 169 169  169 169 169  169 169 169  169 169 169  169 169 169  169 169 169  169 169 169  169 169 169  169 169 169  169 169 169  169 169 169  169 169 169  169 169 169  169 169 169  169 169 169  169 169 169  169 169 169  169 169 169  169 169 169  169 169 169  169 169 169  169 169 169  169 169 169  169 169 169  169 169 169  169 169 169  169 169 169  168 168 168  168 168 168  168 168 168  168 168 168  168 168 168  168 168 168  168 168 168  168 168 168  168 168 168  168 168 168  168 168 168  168 168 168  168 168 168  168 168 168  168 168 168  168 168 168  168 168 168  168 168 168  168 168 168  168 168 168  168 168 168  168 168 168  168 168 168  168 168 168  168 168 168  167 167 167  167 167 167  167 167 167  167 167 167  167 167 167  167 167 167  167 167 167  167 167 167  167 167 167  167 167 167  167 167 167  167 167 167  167 167 167  167 167 167  167 167 167  167 167 167  167 167 167  167 167 167  167 167 167  167 167 167  167 167 167  167 167 167  167 167 167  167 167 167  167 167 167  166 166 166  166 166 166  166 166 166
166 166 166  166 166 166  166 166 166  166 166 166  166 166 166  166 166 166  166 166 166  166 166 166  166 166 166  166 166 166  166 166 166  166 166 166  167 167 167  167 167 167  167 167 167  167 167 167  167 167 167  167 167 167  167 167 167  167 167 167  167 167 167  167 167 167  167 167 167  167 167 167  167 167 167  167 167 167  167 167 167  167 167 167  167 167 167  167 167 167  167 167 167  167 167 167  167 167 167  167 167 167  167 167 167  167 167 167  168 168 168  168 168 168  168 168 168  168 168 168  168 168 168  168 168 168  168 168 168  168 168 168  168 168 168  168 168 168  168 168 168  168 168 168  168 168 168  168 168 168  168 168 168  168 168 168  168 168 168  168 168 168  168 168 168  168 168 168  168 168 168  168 168 168  168 168 168  168 168 168  169 169 169  169 169 169  169 169 169  169 169 169  169 169 169  169 169 169  169 169 169  169 169 169  169 169 169  169 169 169  169 169 169  169 169 169  169 169 169  169 169 169  169 169 169  169 169 169  169 169 169  169 169 169  169 169 169  169 169 169  169 169 169  169 169 169  169 169 169  169 169 169  169 169 169  170 170 170  170 170 170  170 170 170  170 170 170  170 170 170  170 170 170  170 170 170  170 170 170  170 170 170  170 170 170  170 170 170  170 170 170  170 170 170  170 170 170  170 170 170  170 170 170  170 170 170  170 170 170  170 170 170  170 170 170  170 170 170  170 170 170  170 170 170  170 170 170  170 170 170  170 170 170  170 170 170  170 170 170  170 170 170  171 171 171  171 171 171  171 171 171  171 171 171  171 171 171  171 171 171  171 171 171  171 171 171  171 171 171  171 171 171  171 171 171  171 171 171  171 171 171  171 171 171  171 171 171  171 171 171  171 171 171  171 171 171  171 171 171  171 171 171  171 171 171  171 171 171  171 171 171  171 171 171  171 171 171  171 171 171  171 171 171  171 171 171  171 171 171  171 171 171  171 171 171  171 171 171  171 171 171  171 171 171  171 171 171  171 171 171  171 171 171  171 171 171  171 171 171  171 171 171  171 171 171  171 171 171  171 171 171  171 171 171  171 171 171  171 171 171  171 171 171  171 171 171  171 171 171  171 171 171  171 171 171  171 171 171  171 171 171  171 171 171  171 171 171  171 171 171  171 171 171  171 171 171  171 171 171  171 171 171  171 171 171  171 171 171  171 171 171  171 171 171  171 171 171  171 171 171  171 171 171  171 171 171  171 171 171  171 171 171  171 171 171  171 171 171  171 171 171  171 171 171  171 171 171  171 171 171  171 171 171  171 171 171  171 171 171  171 171 171  171 171 171  171 171 171  171 171 171  171 171 171  171 171 171  171 171 171  171 171 171  171 171 171  171 171 171  171 171 171  171 171 171  171 171 171  171 171 171  171 171 171  171 171 171  171 171 171  171 171 171  171 171 171  170 170 170  170 170 170  170 170 170  170 170 170  170 170 170  170 170 170  170 170 170  170 170 170  170 170 170  170 170 170  170 170 170  170 170 170  170 170 170  170 170 170  170 170 170  170 170 170  170 170 170  170 170 170  170 170 170  170 170 170  170 170 170  170 170 170  170 170 170  170 170 170  170 170 170  170 170 170  170 170 170  170 170 170  170 170 170  170 170 170  170 170 170  169 169 169  169 169 169  169 169 169  169 169 169  169 169 169  169 169 169  169 169 169  169 169 169  169 169 169  169 169 169  169 169 169  169 169 169  169 169 169  169 169 169  169 169 169  169 169 169  169 169 169  169 169 169  169 169 169  169 169 169  169 169 169  169 169 169  169 169 169  169 169 169  169 169 169  169 169 169  168 168 168  168 168 168  168 168 168  168 168 168  168 168 168  168 168 168  168 168 168  168 168 168  168 168 168  168 168 168  168 168 168  168 168 168  168 168 168  168 168 168  168 168 168  168 168 168  168 168 168  168 168 168  168 168 168  168 168 168  168 168 168  168 168 168  168 168 168  168 168 168  168 168 168  167 167 167  167 167 167  167 167 167  167 167 167  167 167 167  167 167 167  167 167 167  167 167 167  167 167 167  167 167 167  167 167 167  167 167 167  167 167 167  167 167 167  167 167 167  167 167 167  167 167 167  167 167 167  167 167 167  167 167 167  167 167 167  167 167 167  167 167 167  167 167 167  167 167 167  166 166 166
166 166 166  166 166 166  166 166 166  166 166 166  166 166 166  166 166 166  166 166 166  166 166 166  166 166 166  166 166 166  167 167 167  167 167 167  167 167 167  167 167 167  167 167 167  167 167 167  167 167 167  167 167 167  167 167 167  167 167 167  167 167 167  167 167 167  167 167 167  167 167 167  167 167 167  167 167 167  167 167 167  167 167 167  167 167 167  167 167 167  167 167 167  167 167 167  167 167 167  167 167 167  168 168 168  168 168 168  168 168 168  168 168 168  168 168 168  168 168 168  168 168 168  168 168 168  168 168 168  168 168 168  168 168 168  168 168 168  168 168 168  168 168 168  168 168 168  168 168 168  168 168 168  168 168 168  168 168 168  168 168 168  168 168 168  168 168 168  168 168 168  168 168 168  169 169 169  169 169 169  169 169 169  169 169 169  169 169 169  169 169 169  169 169 169  169 169 169  169 169 169  169 169 169  169 169 169  169 169 169  169 169 169  169 169 169  169 169 169  169 169 169  169 169 169  169 169 169  169 169 169  169 169 169  169 169 169  169 169 169  169 169 169  169 169 169  170 170 170  170 170 170  170 170 170  170 170 170  170 170 170  170 170 170  170 170 170  170 170 170  170 170 170  170 170 170  170 170 170  170 170 170  170 170 170  170 170 170  170 170 170  170 170 170  170 170 170  170 170 170  170 170 170  170 170 170  170 170 170  170 170 170  170 170 170  170 170 170  170 170 170  170 170 170  170 170 170  170 170 170  170 170 170  171 171 171  171 171 171  171 171 171  171 171 171  171 171 171  171 171 171  171 171 171  171 171 171  171 171 171  171 171 171  171 171 171  171 171 171  171 171 171  171 171 171  171 171 171  171 171 171  171 171 171  171 171 171  171 171 171  171 171 171  171 171 171  171 171 171  171 171 171  171 171 171  171 171 171  171 171 171  171 171 171  171 171 171  171 171 171  171 171 171  171 171 171  171 171 171  171 171 171  171 171 171  171 171 171  171 171 171  171 171 171  171 171 171  171 171 171  171 171 171  171 171 171  171 171 171  171 171 171  171 171 171  171 171 171  171 171 171  171 171 171  171 171 171  171 171 171  171 171 171  171 171 171  171 171 171  171 171 171  171 171 171  171 171 171  171 171 171  171 171 171  171 171 171  171 171 171  171 171 171  171 171 171  171 171 171  171 171 171  171 171 171  171 171 171  171 171 171  171 171 171  171 171 171  171 171 171  171 171 171  171 171 171  171 171 171  171 171 171  171 171 171  171 171 171  171 171 171  171 171 171  171 171 171  171 171 171  171 171 171  171 171 171  171 171 171  171 171 171  171 171 171  171 171 171  171 171 171  171 171 171  171 171 171  171 171 171  171 171 171  171 171 171  171 171 171  171 171 171  171 171 171  171 171 171  171 171 171  171 171 171  171 171 171  171 171 171  171 171 171  171 171 171  171 171 171  171 171 171  171 171 171  171 171 171  170 170 170  170 170 170  170 170 170  170 170 170  170 170 170  170 170 170  170 170 170  170 170 170  170 170 170  170 170 170  170 170 170  170 170 170  170 170 170  170 170 170  170 170 170  170 170 170  170 170 170  170 170 170  170 170 170  170 170 170  170 170 170  170 170 170  170 170 170  170 170 170  170 170 170  170 170 170  170 170 170  170 170 170  170 170 170  169 169 169  169 169 169  169 169 169  169 169 169  169 169 169  169 169 169  169 169 169  169 169 169  169 169 169  169 169 169  169 169 169  169 169 169  169 169 169  169 169 169  169 169 169  169 169 169  169 169 169  169 169 169  169 169 169  169 169 169  169 169 169  169 169 169  169 169 169  169 169 169  169 169 169  169 169 169  168 168 168  168 168 168  168 168 168  168 168 168  168 168 168  168 168 168  168 168 168  168 168 168  168 168 168  168 168 168  168 168 168  168 168 168  168 168 168  168 168 168  168 168 168  168 168 168  168 168 168  168 168 168  168 168 168  168 168 168  168 168 168  168 168 168  168 168 168  168 168 168  168 168 168  167 167 167  167 167 167  167 167 167  167 167 167  167 167 167  167 167 167  167 167 167  167 167 167  167 167 167  167 167 167  167 167 167  167 167 167  167 167 167  167 167 167  167 167 167  167 167 167  167 167 167  167 167 167  167 167 167  167 167 167  167 167 167  167 167 167  167 167 167  167 167 167
166 166 166  166 166 166  166 166 166  166 166 166  166 166 166  166 166 166  166 166 166  166 166 166  166 166 166  167 167 167  167 167 167  167 167 167  167 167 167  167 167 167  167 167 167  167 167 167  167 167 167  167 167 167  167 167 167  167 167 167  167 167 167  167 167 167  167 167 167  167 167 167  167 167 167  167 167 167  167 167 167  167 167 167  167 167 167  167 167 167  167 167 167  167 167 167  168 168 168  168 168 168  168 168 168  168 168 168  168 168 168  168 168 168  168 168 168  168 168 168  168 168 168  168 168 168  168 168 168  168 168 168  168 168 168  168 168 168  168 168 168  168 168 168  168 168 168  168 168 168  168 168 168  168 168 168  168 168 168  168 168 168  168 168 168  168 168 168  169 169 169  169 169 169  169 169 169  169 169 169  169 169 169  169 169 169  169 169 169  169 169 169  169 169 169  169 169 169  169 169 169  169 169 169  169 169 169  169 169 169  169 169 169  169 169 169  169 169 169  169 169 169  169 169 169  169 169 169  169 169 169  169 169 169  169 169 169  169 169 169  170 170 170  170 170 170  170 170 170  170 170 170  170 170 170  170 170 170  170 170 170  170 170 170  170 170 170  170 170 170  170 170 170  170 170 170  170 170 170  170 170 170  170 170 170  170 170 170  170 170 170  170 170 170  170 170 170  170 170 170  170 170 170  170 170 170  170 170 170  170 170 170  170 170 170  170 170 170  170 170 170  171 171 171  171 171 171  171 171 171  171 171 171  171 171 171  171 171 171  171 171 171  171 171 171  171 171 171  171 171 171  171 171 171  171 171 171  171 171 171  171 171 171  171 171 171  171 171 171  171 171 171  171 171 171  171 171 171  171 171 171  171 171 171  171 171 171  171 171 171  171 171 171  171 171 171  171 171 171  171 171 171  171 171 171  171 171 171  171 171 171  171 171 171  171 171 171  171 171 171  171 171 171  171 171 171  171 171 171  171 171 171  171 171 171  171 171 171  171 171 171  171 171 171  171 171 171  171 171 171  171 171 171  171 171 171  171 171 171  171 171 171  171 171 171  171 171 171  171 171 171  171 171 171  171 171 171  171 171 171  171 171 171  171 171 171  171 171 171  171 171 171  171 171 171  171 171 171  171 171 171  171 171 171  171 171 171  171 171 171  171 171 171  171 171 171  171 171 171  171 171 171  171 171 171  171 171 171  171 171 171  171 171 171  171 171 171  171 171 171  171 171 171  171 171 171  171 171 171  171 171 171  171 171 171  171 171 171  171 171 171  171 171 171  171 171 171  171 171 171  171 171 171  171 171 171  171 171 171  171 171 171  171 171 171  171 171 171  171 171 171  171 171 171  171 171 171  171 171 171  171 171 171  171 171 171  171 171 171  171 171 171  171 171 171  171 171 171  171 171 171  171 171 171  171 171 171  171 171 171  171 171 171  171 171 171  171 171 171  171 171 171  171 171 171  171 171 171  171 171 171  171 171 171  171 171 171  171 171 171  170 170 170  170 170 170  170 170 170  170 170 170  170 170 170  170 170 170  170 170 170  170 170 170  170 170 170  170 170 170  170 170 170  170 170 170  170 170 170  170 170 170  170 170 170  170 170 170  170 170 170  170 170 170  170 170 170  170 170 170  170 170 170  170 170 170  170 170 170  170 170 170  170 170 170  170 170 170  170 170 170  170 170 170  169 169 169  169 169 169  169 169 169  169 169 169  169 169 169  169 169 169  169 169 169  169 169 169  169 169 169  169 169 169  169 169 169  169 169 169  169 169 169  169 169 169  169 169 169  169 169 169  169 169 169  169 169 169  169 169 169  169 169 169  169 169 169  169 169 169  169 169 169  169 169 169  169 169 169  168 168 168  168 168 168  168 168 168  168 168 168  168 168 168  168 168 168  168 168 168  168 168 168  168 168 168  168 168 168  168 168 168  168 168 168  168 168 168  168 168 168  168 168 168  168 168 168  168 168 168  168 168 168  168 168 168  168 168 168  168 168 168  168 168 168  168 168 168  168 168 168  168 168 168  167 167 167  167 167 167  167 167 167  167 167 167  167 167 167  167 167 167  167 167 167  167 167 167  167 167 167  167 167 167  167 167 167  167 167 167  167 167 167  167 167 167  167 167 167  167 167 167  167 167 167  167 167 167  167 167 167  167 167 167  167 167 167  167 167 167
166 166 166  166 166 166  166 166 166  166 166 166  166 166 166  166 166 166  166 166 166  166 166 166  167 167 167  167 167 167  167 167 167  167 167 167  167 167 167  167 167 167  167 167 167  167 167 167  167 167 167  167 167 167  167 167 167  167 167 167  167 167 167  167 167 167  167 167 167  167 167 167  167 167 167  167 167 167  167 167 167  167 167 167  167 167 167  167 167 167  167 167 167  168 168 168  168 168 168  168 168 168  168 168 168  168 168 168  168 168 168  168 168 168  168 168 168  168 168 168  168 168 168  168 168 168  168 168 168  168 168 168  168 168 168  168 168 168  168 168 168  168 168 168  168 168 168  168 168 168  168 168 168  168 168 168  168 168 168  168 168 168  169 169 169  169 169 169  169 169 169  169 169 169  169 169 169  169 169 169  169 169 169  169 169 169  169 169 169  169 169 169  169 169 169  169 169 169  169 169 169  169 169 169  169 169 169  169 169 169  169 169 169  169 169 169  169 169 169  169 169 169  169 169 169  169 169 169  169 169 169  169 169 169  170 170 170  170 170 170  170 170 170  170 170 170  170 170 170  170 170 170  170 170 170  170 170 170  170 170 170  170 170 170  170 170 170  170 170 170  170 170 170  170 170 170  170 170 170  170 170 170  170 170 170  170 170 170  170 170 170  170 170 170  170 170 170  170 170 170  170 170 170  170 170 170  170 170 170  170 170 170  171 171 171  171 171 171  171 171 171  171 171 171  171 171 171  171 171 171  171 171 171  171 171 171  171 171 171  171 171 171  171 171 171  171 171 171  171 171 171  171 171 171  171 171 171  171 171 171  171 171 171  171 171 171  171 171 171  171 171 171  171 171 171  171 171 171  171 171 171  171 171 171  171 171 171  171 171 171  171 171 171  171 171 171  171 171 171  171 171 171  171 171 171  171 171 171  171 171 171  171 171 171  171 171 171  171 171 171  171 171 171  171 171 171  171 171 171  171 171 171  171 171 171  172 172 172  172 172 172  172 172 172  172 172 172  172 172 172  172 172 172  172 172 172  172 172 172  172 172 172  172 172 172  172 172 172  172 172 172  172 172 172  172 172 172  172 172 172  172 172 172  172 172 172  172 172 172  172 172 172  172 172 172  172 172 172  172 172 172  172 172 172  172 172 172  172 172 172  172 172 172  172 172 172  172 172 172  172 172 172  172 172 172  172 172 172  172 172 172  172 172 172  172 172 172  172 172 172  172 172 172  171 171 171  171 171 171  171 171 171  171 171 171  171 171 171  171 171 171  171 171 171  171 171 171  171 171 171  171 171 171  171 171 171  171 171 171  171 171 171  171 171 171  171 171 171  171 171 171  171 171 171  171 171 171  171 171 171  171 171 171  171 171 171  171 171 171  171 171 171  171 171 171  171 171 171  171 171 171  171 171 171  171 171 171  171 171 171  171 171 171  171 171 171  171 171 171  171 171 171  171 171 171  171 171 171  171 171 171  171 171 171  171 171 171  171 171 171  171 171 171  171 171 171  171 171 171  170 170 170  170 170 170  170 170 170  170 170 170  170 170 170  170 170 170  170 170 170  170 170 170  170 170 170  170 170 170  170 170 170  170 170 170  170 170 170  170 170 170  170 170 170  170 170 170  170 170 170  170 170 170  170 170 170  170 170 170  170 170 170  170 170 170  170 170 170  170 170 170  170 170 170  170 170 170  170 170 170  169 169 169  169 169 169  169 169 169  169 169 169  169 169 169  169 169 169  169 169 169  169 169 169  169 169 169  169 169 169  169 169 169  169 169 169  169 169 169  169 169 169  169 169 169  169 169 169  169 169 169  169 169 169  169 169 169  169 169 169  169 169 169  169 169 169  169 169 169  169 169 169  169 169 169  168 168 168  168 168 168  168 168 168  168 168 168  168 168 168  168 168 168  168 168 168  168 168 168  168 168 168  168 168 168  168 168 168  168 168 168  168 168 168  168 168 168  168 168 168  168 168 168  168 168 168  168 168 168  168 168 168  168 168 168  168 168 168  168 168 168  168 168 168  168 168 168  168 168 168  167 167 167  167 167 167  167 167 167  167 167 167  167 167 167  167 167 167  167 167 167  167 167 167  167 167 167  167 167 167  167 167 167  167 167 167  167 167 167  167 167 167  167 167 167  167 167 167  167 167 167  167 167 167  167 167 167  167 167 167
166 166 166  166 166 166  166 166 166  166 166 166  166 166 166  166 166 166  167 167 167  167 167 167  167 167 167  167 167 167  167 167 167  167 167 167  167 167 167  167 167 167  167 167 167  167 167 167  167 167 167  167 167 167  167 167 167  167 167 167  167 167 167  167 167 167  167 167 167  167 167 167  167 167 167  167 167 167  167 167 167  167 167 167  167 167 167  168 168 168  168 168 168  168 168 168  168 168 168  168 168 168  168 168 168  168 168 168  168 168 168  168 168 168  168 168 168  168 168 168  168 168 168  168 168 168  168 168 168  168 168 168  168 168 168  168 168 168  168 168 168  168 168 168  168 168 168  168 168 168  168 168 168  168 168 168  169 169 169  169 169 169  169 169 169  169 169 169  169 169 169  169 169 169  169 169 169  169 169 169  169 169 169  169 169 169  169 169 169  169 169 169  169 169 169  169 169 169  169 169 169  169 169 169  169 169 169  169 169 169  169 169 169  169 169 169  169 169 169  169 169 169  169 169 169  170 170 170  170 170 170  170 170 170  170 170 170  170 170 170  170 170 170  170 170 170  170 170 170  170 170 170  170 170 170  170 170 170  170 170 170  170 170 170  170 170 170  170 170 170  170 170 170  170 170 170  170 170 170  170 170 170  170 170 170  170 170 170  170 170 170  170 170 170  170 170 170  170 170 170  170 170 170  171 171 171  171 171 171  171 171 171  171 171 171  171 171 171  171 171 171  171 171 171  171 171 171  171 171 171  171 171 171  171 171 171  171 171 171  171 171 171  171 171 171  171 171 171  171 171 171  171 171 171  171 171 171  171 171 171  171 171 171  171 171 171  171 171 171  171 171 171  171 171 171  171 171 171  171 171 171  171 171 171  171 171 171  171 171 171  171 171 171  171 171 171  171 171 171  171 171 171  171 171 171  171 171 171  172 172 172  172 172 172  172 172 172  172 172 172  172 172 172  172 172 172  172 172 172  172 172 172  172 172 172  172 172 172  172 172 172  172 172 172  172 172 172  172 172 172  172 172 172  172 172 172  172 172 172  172 172 172  172 172 172  172 172 172  172 172 172  172 172 172  172 172 172  172 172 172  172 172 172  172 172 172  172 172 172  172 172 172  172 172 172  172 172 172  172 172 172  172 172 172  172 172 172  172 172 172  172 172 172  172 172 172  172 172 172  172 172 172  172 172 172  172 172 172  172 172 172  172 172 172  172 172 172  172 172 172  172 172 172  172 172 172  172 172 172  172 172 172  172 172 172  172 172 172  172 172 172  172 172 172  172 172 172  172 172 172  171 171 171  171 171 171  171 171 171  171 171 171  171 171 171  171 171 171  171 171 171  171 171 171  171 171 171  171 171 171  171 171 171  171 171 171  171 171 171  171 171 171  171 171 171  171 171 171  171 171 171  171 171 171  171 171 171  171 171 171  171 171 171  171 171 171  171 171 171  171 171 171  171 171 171  171 171 171  171 171 171  171 171 171  171 171 171  171 171 171  171 171 171  171 171 171  171 171 171  171 171 171  171 171 171  171 171 171  170 170 170  170 170 170  170 170 170  170 170 170  170 170 170  170 170 170  170 170 170  170 170 170  170 170 170  170 170 170  170 170 170  170 170 170  170 170 170  170 170 170  170 170 170  170 170 170  170 170 170  170 170 170  170 170 170  170 170 170  170 170 170  170 170 170  170 170 170  170 170 170  170 170 170  170 170 170  170 170 170  169 169 169  169 169 169  169 169 169  169 169 169  169 169 169  169 169 169  169 169 169  169 169 169  169 169 169  169 169 169  169 169 169  169 169 169  169 169 169  169 169 169  169 169 169  169 169 169  169 169 169  169 169 169  169 169 169  169 169 169  169 169 169  169 169 169  169 169 169  169 169 169  168 168 168  168 168 168  168 168 168  168 168 168  168 168 168  168 168 168  168 168 168  168 168 168  168 168 168  168 168 168  168 168 168  168 168 168  168 168 168  168 168 168  168 168 168  168 168 168  168 168 168  168 168 168  168 168 168  168 168 168  168 168 168  168 168 168  168 168 168  168 168 168  167 167 167  167 167 167  167 167 167  167 167 167  167 167 167  167 167 167  167 167 167  167 167 167  167 167 167  167 167 167  167 167 167  167 167 167  167 167 167  167 167 167  167 167 167  167 167 167  167 167 167  167 167 167  167 167 167